; PCB GCode generated by RepRap Java Host Software
; Created: 2010-09-05:13-00-17
; Gerber tracks and pads file: RAMPS-1.1c.bot
; Drill file: RAMPS-1.1c.bdr
;#!RECTANGLE: <BOX x:[l:11.41732, h:111.90226], y:[l:12.48412, h:64.04611999999999]>
;#!LAYER: 1/1
G21 ;metric
G90 ;absolute positioning
M140 S0.0 ;set bed temperature and return
T1; select new extruder
G28; go home
G92 E0 ;zero the extruded length
G1 F50.0; Z feedrate
G1 Z1.0; Z clearance height
G1 F1500.0; XY feedrate
G1 X14.2 Y13.8; move to polygon start
G1 F50.0; Z feedrate
G1 Z0.0; Z drawing height
G1 F1500.0; XY feedrate
G1 X14.8 Y13.0; draw line
G1 X15.8 Y12.7; draw line
G1 X16.7 Y13.0; draw line
G1 X17.1 Y13.6; draw line
G1 X17.1 Y14.7; draw line
G1 X16.7 Y15.2; draw line
G1 X15.8 Y15.6; draw line
G1 X15.2 Y15.5; draw line
G1 X14.5 Y15.1; draw line
G1 X14.8 Y14.8; draw line
G1 X14.6 Y14.4; draw line
G1 X14.6 Y13.9; draw line
G1 X14.9 Y13.3; draw line
G1 X15.7 Y13.0; draw line
G1 X16.3 Y13.1; draw line
G1 X16.7 Y13.6; draw line
G1 X16.7 Y14.6; draw line
G1 X16.4 Y14.9; draw line
G1 X16.6 Y14.6; draw line
G1 X16.6 Y13.7; draw line
G1 X16.0 Y13.1; draw line
G1 X15.4 Y13.1; draw line
G1 X14.9 Y13.6; draw line
G1 X14.7 Y14.2; draw line
G1 X14.9 Y14.8; draw line
G1 X15.4 Y15.2; draw line
G1 X14.5 Y15.1; draw line
G1 X14.3 Y14.6; draw line
G1 X14.2 Y13.8; draw back to polygon start
G1 F50.0; Z feedrate
G1 Z1.0; Z clearance height
G1 F1500.0; XY feedrate
G1 X15.1 Y14.5; move to polygon start
G1 F50.0; Z feedrate
G1 Z0.0; Z drawing height
G1 F1500.0; XY feedrate
G1 X15.8 Y14.9; draw line
G1 X16.3 Y14.6; draw line
G1 X16.4 Y14.1; draw line
G1 X16.3 Y13.7; draw line
G1 X16.0 Y13.5; draw line
G1 X15.6 Y13.4; draw line
G1 X15.1 Y13.9; draw line
G1 X15.1 Y14.5; draw back to polygon start
G1 F50.0; Z feedrate
G1 Z1.0; Z clearance height
G1 F1500.0; XY feedrate
G1 X14.8 Y19.1; move to polygon start
G1 F50.0; Z feedrate
G1 Z0.0; Z drawing height
G1 F1500.0; XY feedrate
G1 X15.1 Y18.5; draw line
G1 X15.7 Y18.3; draw line
G1 X15.6 Y18.5; draw line
G1 X15.1 Y19.0; draw line
G1 X15.1 Y19.5; draw line
G1 X15.8 Y19.9; draw line
G1 X16.3 Y19.6; draw line
G1 X16.4 Y19.1; draw line
G1 X16.3 Y18.8; draw line
G1 X16.0 Y18.5; draw line
G1 X15.7 Y18.3; draw line
G1 X16.4 Y18.6; draw line
G1 X16.7 Y19.0; draw line
G1 X17.4 Y18.9; draw line
G1 X17.8 Y18.4; draw line
G1 X18.5 Y18.4; draw line
G1 X18.5 Y18.5; draw line
G1 X18.1 Y18.5; draw line
G1 X17.6 Y19.0; draw line
G1 X17.6 Y19.5; draw line
G1 X18.3 Y19.9; draw line
G1 X18.8 Y19.6; draw line
G1 X18.9 Y19.1; draw line
G1 X18.8 Y18.8; draw line
G1 X18.5 Y18.4; draw line
G1 X19.2 Y19.0; draw line
G1 X22.8 Y19.1; draw line
G1 X24.1 Y20.3; draw line
G1 X24.7 Y20.2; draw line
G1 X25.2 Y20.5; draw line
G1 X25.1 Y20.7; draw line
G1 X24.8 Y20.5; draw line
G1 X24.5 Y20.4; draw line
G1 X24.0 Y20.9; draw line
G1 X24.0 Y21.4; draw line
G1 X24.7 Y21.8; draw line
G1 X25.1 Y21.5; draw line
G1 X25.3 Y21.1; draw line
G1 X25.2 Y20.5; draw line
G1 X25.6 Y20.9; draw line
G1 X26.2 Y21.2; draw line
G1 X26.6 Y21.6; draw line
G1 X29.5 Y21.5; draw line
G1 X29.8 Y21.1; draw line
G1 X30.5 Y20.9; draw line
G1 X31.0 Y21.2; draw line
G1 X30.8 Y21.4; draw line
G1 X30.5 Y21.1; draw line
G1 X30.2 Y21.1; draw line
G1 X29.7 Y21.5; draw line
G1 X29.7 Y22.1; draw line
G1 X30.4 Y22.5; draw line
G1 X30.8 Y22.2; draw line
G1 X31.0 Y21.7; draw line
G1 X31.0 Y21.2; draw line
G1 X31.1 Y21.6; draw line
G1 X31.0 Y22.1; draw line
G1 X30.8 Y22.4; draw line
G1 X29.9 Y22.5; draw line
G1 X29.3 Y22.0; draw line
G1 X26.5 Y22.0; draw line
G1 X25.8 Y21.3; draw line
G1 X25.4 Y21.5; draw line
G1 X24.8 Y22.1; draw line
G1 X24.8 Y22.6; draw line
G1 X25.3 Y23.1; draw line
G1 X25.4 Y23.5; draw line
G1 X25.4 Y24.0; draw line
G1 X24.8 Y24.8; draw line
G1 X25.0 Y25.4; draw line
G1 X24.8 Y25.6; draw line
G1 X24.5 Y25.5; draw line
G1 X24.0 Y26.0; draw line
G1 X24.0 Y26.5; draw line
G1 X24.7 Y26.9; draw line
G1 X25.1 Y26.6; draw line
G1 X25.3 Y26.2; draw line
G1 X25.1 Y25.8; draw line
G1 X25.0 Y25.4; draw line
G1 X25.4 Y26.0; draw line
G1 X25.4 Y26.6; draw line
G1 X24.8 Y27.2; draw line
G1 X24.8 Y27.8; draw line
G1 X25.3 Y28.2; draw line
G1 X25.4 Y29.1; draw line
G1 X25.1 Y29.5; draw line
G1 X24.7 Y29.6; draw line
G1 X23.9 Y29.3; draw line
G1 X23.8 Y28.4; draw line
G1 X24.4 Y27.6; draw line
G1 X24.2 Y27.0; draw line
G1 X23.9 Y26.8; draw line
G1 X23.8 Y25.9; draw line
G1 X24.4 Y25.0; draw line
G1 X24.2 Y24.4; draw line
G1 X23.9 Y24.2; draw line
G1 X23.8 Y23.3; draw line
G1 X24.4 Y22.7; draw line
G1 X24.4 Y22.3; draw line
G1 X23.9 Y21.7; draw line
G1 X23.8 Y20.6; draw line
G1 X22.6 Y19.4; draw line
G1 X19.1 Y19.5; draw line
G1 X18.8 Y19.9; draw line
G1 X18.0 Y20.1; draw line
G1 X17.1 Y19.4; draw line
G1 X16.6 Y19.4; draw line
G1 X16.2 Y20.0; draw line
G1 X15.5 Y20.1; draw line
G1 X14.9 Y19.7; draw line
G1 X14.8 Y19.1; draw back to polygon start
G1 F50.0; Z feedrate
G1 Z1.0; Z clearance height
G1 F1500.0; XY feedrate
G1 X11.9 Y20.2; move to polygon start
G1 F50.0; Z feedrate
G1 Z0.0; Z drawing height
G1 F1500.0; XY feedrate
G1 X12.6 Y20.6; draw line
G1 X12.5 Y20.8; draw line
G1 X11.9 Y20.5; draw line
G1 X11.6 Y19.7; draw line
G1 X11.9 Y19.2; draw line
G1 X12.5 Y19.0; draw line
G1 X13.2 Y19.3; draw line
G1 X13.6 Y20.3; draw line
G1 X15.1 Y21.1; draw line
G1 X15.8 Y20.9; draw line
G1 X16.3 Y21.1; draw line
G1 X16.3 Y21.4; draw line
G1 X16.0 Y21.1; draw line
G1 X15.6 Y21.1; draw line
G1 X15.1 Y21.5; draw line
G1 X15.1 Y22.1; draw line
G1 X15.8 Y22.5; draw line
G1 X16.3 Y22.2; draw line
G1 X16.4 Y21.7; draw line
G1 X16.3 Y21.1; draw line
G1 X16.6 Y21.5; draw line
G1 X16.6 Y22.1; draw line
G1 X16.1 Y22.6; draw line
G1 X15.5 Y22.7; draw line
G1 X15.0 Y22.3; draw line
G1 X14.7 Y21.4; draw line
G1 X13.1 Y20.6; draw line
G1 X12.6 Y20.6; draw line
G1 X13.1 Y20.3; draw line
G1 X13.2 Y19.8; draw line
G1 X13.1 Y19.4; draw line
G1 X12.8 Y19.2; draw line
G1 X12.4 Y19.1; draw line
G1 X11.9 Y19.6; draw line
G1 X11.9 Y20.2; draw back to polygon start
G1 F50.0; Z feedrate
G1 Z1.0; Z clearance height
G1 F1500.0; XY feedrate
G1 X11.6 Y22.3; move to polygon start
G1 F50.0; Z feedrate
G1 Z0.0; Z drawing height
G1 F1500.0; XY feedrate
G1 X11.9 Y21.7; draw line
G1 X12.5 Y21.5; draw line
G1 X12.4 Y21.7; draw line
G1 X11.9 Y22.1; draw line
G1 X11.9 Y22.7; draw line
G1 X12.6 Y23.1; draw line
G1 X13.1 Y22.8; draw line
G1 X13.2 Y22.3; draw line
G1 X13.1 Y22.0; draw line
G1 X12.8 Y21.7; draw line
G1 X12.5 Y21.5; draw line
G1 X13.2 Y21.8; draw line
G1 X13.6 Y22.8; draw line
G1 X15.1 Y23.6; draw line
G1 X15.8 Y23.4; draw line
G1 X16.3 Y23.6; draw line
G1 X16.3 Y23.9; draw line
G1 X16.0 Y23.6; draw line
G1 X15.6 Y23.6; draw line
G1 X15.1 Y24.1; draw line
G1 X15.1 Y24.6; draw line
G1 X15.8 Y25.0; draw line
G1 X16.3 Y24.7; draw line
G1 X16.4 Y24.2; draw line
G1 X16.3 Y23.6; draw line
G1 X16.6 Y24.1; draw line
G1 X16.6 Y24.6; draw line
G1 X16.1 Y25.1; draw line
G1 X15.5 Y25.2; draw line
G1 X15.0 Y24.8; draw line
G1 X14.7 Y23.9; draw line
G1 X13.1 Y23.1; draw line
G1 X12.5 Y23.3; draw line
G1 X11.9 Y23.0; draw line
G1 X11.6 Y22.3; draw back to polygon start
G1 F50.0; Z feedrate
G1 Z1.0; Z clearance height
G1 F1500.0; XY feedrate
G1 X11.6 Y24.8; move to polygon start
G1 F50.0; Z feedrate
G1 Z0.0; Z drawing height
G1 F1500.0; XY feedrate
G1 X11.9 Y24.3; draw line
G1 X12.5 Y24.1; draw line
G1 X12.4 Y24.2; draw line
G1 X11.9 Y24.7; draw line
G1 X11.9 Y25.3; draw line
G1 X12.6 Y25.7; draw line
G1 X13.1 Y25.4; draw line
G1 X13.2 Y24.9; draw line
G1 X13.1 Y24.5; draw line
G1 X12.8 Y24.3; draw line
G1 X12.5 Y24.1; draw line
G1 X13.2 Y24.4; draw line
G1 X13.6 Y25.4; draw line
G1 X15.1 Y26.2; draw line
G1 X15.8 Y25.9; draw line
G1 X16.3 Y26.2; draw line
G1 X16.3 Y26.4; draw line
G1 X16.0 Y26.2; draw line
G1 X15.6 Y26.1; draw line
G1 X15.1 Y26.6; draw line
G1 X15.1 Y27.1; draw line
G1 X15.8 Y27.5; draw line
G1 X16.3 Y27.2; draw line
G1 X16.4 Y26.8; draw line
G1 X16.3 Y26.2; draw line
G1 X16.6 Y26.6; draw line
G1 X16.6 Y27.1; draw line
G1 X16.1 Y27.6; draw line
G1 X15.5 Y27.7; draw line
G1 X15.0 Y27.4; draw line
G1 X14.7 Y26.4; draw line
G1 X13.1 Y25.7; draw line
G1 X12.5 Y25.9; draw line
G1 X11.9 Y25.6; draw line
G1 X11.6 Y24.8; draw back to polygon start
G1 F50.0; Z feedrate
G1 Z1.0; Z clearance height
G1 F1500.0; XY feedrate
G1 X11.6 Y27.4; move to polygon start
G1 F50.0; Z feedrate
G1 Z0.0; Z drawing height
G1 F1500.0; XY feedrate
G1 X11.9 Y26.8; draw line
G1 X12.5 Y26.6; draw line
G1 X12.4 Y26.8; draw line
G1 X11.9 Y27.2; draw line
G1 X11.9 Y27.8; draw line
G1 X12.6 Y28.2; draw line
G1 X13.1 Y27.9; draw line
G1 X13.2 Y27.4; draw line
G1 X13.1 Y27.1; draw line
G1 X12.8 Y26.8; draw line
G1 X12.5 Y26.6; draw line
G1 X13.2 Y26.9; draw line
G1 X13.6 Y27.9; draw line
G1 X15.1 Y28.7; draw line
G1 X15.8 Y28.5; draw line
G1 X16.3 Y28.7; draw line
G1 X16.3 Y29.0; draw line
G1 X16.0 Y28.7; draw line
G1 X15.6 Y28.7; draw line
G1 X15.1 Y29.2; draw line
G1 X15.1 Y29.7; draw line
G1 X15.8 Y30.1; draw line
G1 X16.3 Y29.8; draw line
G1 X16.4 Y29.3; draw line
G1 X16.3 Y28.7; draw line
G1 X16.6 Y29.2; draw line
G1 X16.6 Y29.7; draw line
G1 X16.1 Y30.2; draw line
G1 X15.5 Y30.3; draw line
G1 X15.0 Y29.9; draw line
G1 X14.7 Y29.0; draw line
G1 X13.1 Y28.2; draw line
G1 X12.5 Y28.4; draw line
G1 X11.9 Y28.1; draw line
G1 X11.6 Y27.4; draw back to polygon start
G1 F50.0; Z feedrate
G1 Z1.0; Z clearance height
G1 F1500.0; XY feedrate
G1 X11.6 Y31.1; move to polygon start
G1 F50.0; Z feedrate
G1 Z0.0; Z drawing height
G1 F1500.0; XY feedrate
G1 X11.9 Y30.6; draw line
G1 X12.5 Y30.4; draw line
G1 X13.3 Y30.7; draw line
G1 X13.6 Y31.3; draw line
G1 X14.8 Y31.5; draw line
G1 X15.2 Y31.1; draw line
G1 X15.8 Y31.0; draw line
G1 X16.4 Y31.3; draw line
G1 X16.6 Y31.7; draw line
G1 X16.5 Y32.3; draw line
G1 X16.3 Y32.6; draw line
G1 X15.7 Y32.8; draw line
G1 X15.8 Y32.6; draw line
G1 X16.3 Y32.3; draw line
G1 X16.4 Y31.9; draw line
G1 X16.3 Y31.5; draw line
G1 X16.0 Y31.3; draw line
G1 X15.6 Y31.2; draw line
G1 X15.1 Y31.7; draw line
G1 X15.1 Y32.2; draw line
G1 X15.7 Y32.8; draw line
G1 X15.1 Y32.6; draw line
G1 X14.8 Y31.9; draw line
G1 X13.6 Y31.6; draw line
G1 X12.5 Y32.2; draw line
G1 X12.6 Y32.0; draw line
G1 X13.1 Y31.7; draw line
G1 X13.2 Y31.2; draw line
G1 X13.1 Y30.8; draw line
G1 X12.8 Y30.6; draw line
G1 X12.4 Y30.5; draw line
G1 X11.9 Y31.0; draw line
G1 X11.9 Y31.6; draw line
G1 X12.5 Y32.2; draw line
G1 X12.0 Y32.0; draw line
G1 X11.8 Y31.7; draw line
G1 X11.6 Y31.1; draw back to polygon start
G1 F50.0; Z feedrate
G1 Z1.0; Z clearance height
G1 F1500.0; XY feedrate
G1 X11.6 Y33.7; move to polygon start
G1 F50.0; Z feedrate
G1 Z0.0; Z drawing height
G1 F1500.0; XY feedrate
G1 X11.9 Y33.2; draw line
G1 X12.5 Y32.9; draw line
G1 X12.4 Y33.1; draw line
G1 X11.9 Y33.6; draw line
G1 X11.9 Y34.1; draw line
G1 X12.6 Y34.6; draw line
G1 X13.1 Y34.3; draw line
G1 X13.2 Y33.8; draw line
G1 X13.1 Y33.4; draw line
G1 X12.8 Y33.2; draw line
G1 X12.5 Y32.9; draw line
G1 X13.3 Y33.3; draw line
G1 X13.6 Y33.8; draw line
G1 X14.9 Y34.0; draw line
G1 X15.2 Y33.7; draw line
G1 X15.8 Y33.5; draw line
G1 X16.3 Y33.8; draw line
G1 X16.3 Y34.0; draw line
G1 X16.0 Y33.8; draw line
G1 X15.6 Y33.7; draw line
G1 X15.1 Y34.2; draw line
G1 X15.1 Y34.7; draw line
G1 X15.8 Y35.2; draw line
G1 X16.3 Y34.9; draw line
G1 X16.4 Y34.4; draw line
G1 X16.3 Y33.8; draw line
G1 X16.6 Y34.2; draw line
G1 X16.6 Y34.7; draw line
G1 X16.2 Y35.2; draw line
G1 X15.6 Y35.3; draw line
G1 X15.1 Y35.0; draw line
G1 X14.7 Y34.4; draw line
G1 X13.4 Y34.3; draw line
G1 X13.0 Y34.6; draw line
G1 X12.5 Y34.7; draw line
G1 X11.9 Y34.4; draw line
G1 X11.6 Y33.7; draw back to polygon start
G1 F50.0; Z feedrate
G1 Z1.0; Z clearance height
G1 F1500.0; XY feedrate
G1 X11.6 Y36.2; move to polygon start
G1 F50.0; Z feedrate
G1 Z0.0; Z drawing height
G1 F1500.0; XY feedrate
G1 X11.9 Y35.7; draw line
G1 X12.5 Y35.5; draw line
G1 X13.3 Y35.8; draw line
G1 X13.6 Y36.4; draw line
G1 X14.8 Y36.6; draw line
G1 X15.2 Y36.2; draw line
G1 X15.8 Y36.1; draw line
G1 X16.4 Y36.4; draw line
G1 X16.6 Y36.8; draw line
G1 X16.5 Y37.4; draw line
G1 X16.3 Y37.7; draw line
G1 X15.7 Y37.9; draw line
G1 X15.8 Y37.7; draw line
G1 X16.3 Y37.4; draw line
G1 X16.4 Y37.0; draw line
G1 X16.3 Y36.6; draw line
G1 X16.0 Y36.4; draw line
G1 X15.6 Y36.3; draw line
G1 X15.1 Y36.8; draw line
G1 X15.1 Y37.3; draw line
G1 X15.7 Y37.9; draw line
G1 X15.1 Y37.7; draw line
G1 X14.8 Y37.0; draw line
G1 X13.6 Y36.7; draw line
G1 X12.5 Y37.3; draw line
G1 X12.6 Y37.1; draw line
G1 X13.1 Y36.8; draw line
G1 X13.2 Y36.3; draw line
G1 X13.1 Y35.9; draw line
G1 X12.8 Y35.7; draw line
G1 X12.4 Y35.6; draw line
G1 X11.9 Y36.1; draw line
G1 X11.9 Y36.7; draw line
G1 X12.5 Y37.3; draw line
G1 X12.0 Y37.1; draw line
G1 X11.8 Y36.8; draw line
G1 X11.6 Y36.2; draw back to polygon start
G1 F50.0; Z feedrate
G1 Z1.0; Z clearance height
G1 F1500.0; XY feedrate
G1 X11.6 Y38.8; move to polygon start
G1 F50.0; Z feedrate
G1 Z0.0; Z drawing height
G1 F1500.0; XY feedrate
G1 X11.9 Y38.2; draw line
G1 X12.5 Y38.0; draw line
G1 X13.3 Y38.3; draw line
G1 X13.6 Y38.9; draw line
G1 X14.8 Y39.1; draw line
G1 X15.2 Y38.8; draw line
G1 X15.8 Y38.6; draw line
G1 X16.4 Y38.9; draw line
G1 X16.6 Y39.4; draw line
G1 X16.4 Y39.5; draw line
G1 X16.3 Y39.1; draw line
G1 X16.0 Y38.9; draw line
G1 X15.6 Y38.8; draw line
G1 X15.1 Y39.3; draw line
G1 X15.1 Y39.8; draw line
G1 X15.8 Y40.3; draw line
G1 X16.3 Y40.0; draw line
G1 X16.6 Y39.4; draw line
G1 X16.5 Y39.9; draw line
G1 X16.3 Y40.3; draw line
G1 X15.7 Y40.4; draw line
G1 X15.1 Y40.2; draw line
G1 X14.8 Y39.5; draw line
G1 X13.6 Y39.2; draw line
G1 X12.5 Y39.8; draw line
G1 X12.6 Y39.6; draw line
G1 X13.1 Y39.3; draw line
G1 X13.2 Y38.8; draw line
G1 X13.1 Y38.5; draw line
G1 X12.8 Y38.2; draw line
G1 X12.4 Y38.2; draw line
G1 X11.9 Y38.6; draw line
G1 X11.9 Y39.2; draw line
G1 X12.5 Y39.8; draw line
G1 X12.0 Y39.6; draw line
G1 X11.8 Y39.4; draw line
G1 X11.6 Y38.8; draw back to polygon start
G1 F50.0; Z feedrate
G1 Z1.0; Z clearance height
G1 F1500.0; XY feedrate
G1 X11.6 Y42.6; move to polygon start
G1 F50.0; Z feedrate
G1 Z0.0; Z drawing height
G1 F1500.0; XY feedrate
G1 X11.9 Y42.1; draw line
G1 X12.5 Y41.8; draw line
G1 X12.4 Y42.0; draw line
G1 X11.9 Y42.5; draw line
G1 X11.9 Y43.0; draw line
G1 X12.6 Y43.4; draw line
G1 X13.1 Y43.1; draw line
G1 X13.2 Y42.7; draw line
G1 X13.1 Y42.3; draw line
G1 X12.8 Y42.1; draw line
G1 X12.5 Y41.8; draw line
G1 X13.6 Y42.3; draw line
G1 X14.7 Y42.1; draw line
G1 X15.2 Y41.3; draw line
G1 X16.0 Y41.2; draw line
G1 X16.4 Y41.5; draw line
G1 X16.6 Y42.4; draw line
G1 X16.3 Y42.8; draw line
G1 X15.8 Y43.0; draw line
G1 X15.8 Y42.8; draw line
G1 X16.3 Y42.5; draw line
G1 X16.4 Y42.0; draw line
G1 X16.3 Y41.6; draw line
G1 X16.0 Y41.4; draw line
G1 X15.6 Y41.3; draw line
G1 X15.1 Y41.8; draw line
G1 X15.1 Y42.4; draw line
G1 X15.8 Y43.0; draw line
G1 X14.7 Y42.5; draw line
G1 X13.6 Y42.7; draw line
G1 X13.1 Y43.4; draw line
G1 X12.3 Y43.6; draw line
G1 X11.8 Y43.2; draw line
G1 X11.6 Y42.6; draw back to polygon start
G1 F50.0; Z feedrate
G1 Z1.0; Z clearance height
G1 F1500.0; XY feedrate
G1 X11.6 Y45.1; move to polygon start
G1 F50.0; Z feedrate
G1 Z0.0; Z drawing height
G1 F1500.0; XY feedrate
G1 X11.9 Y44.6; draw line
G1 X12.5 Y44.3; draw line
G1 X13.6 Y44.9; draw line
G1 X14.8 Y44.6; draw line
G1 X15.1 Y44.0; draw line
G1 X15.8 Y43.7; draw line
G1 X16.3 Y44.0; draw line
G1 X16.3 Y44.2; draw line
G1 X16.0 Y44.0; draw line
G1 X15.6 Y43.9; draw line
G1 X15.1 Y44.4; draw line
G1 X15.1 Y44.9; draw line
G1 X15.8 Y45.4; draw line
G1 X16.3 Y45.1; draw line
G1 X16.4 Y44.6; draw line
G1 X16.3 Y44.0; draw line
G1 X16.6 Y44.4; draw line
G1 X16.6 Y44.9; draw line
G1 X16.2 Y45.4; draw line
G1 X15.6 Y45.5; draw line
G1 X14.8 Y45.0; draw line
G1 X13.7 Y45.2; draw line
G1 X13.4 Y45.4; draw line
G1 X13.1 Y46.0; draw line
G1 X12.7 Y46.1; draw line
G1 X12.6 Y46.0; draw line
G1 X13.1 Y45.7; draw line
G1 X13.2 Y45.2; draw line
G1 X13.1 Y44.8; draw line
G1 X12.8 Y44.6; draw line
G1 X12.4 Y44.5; draw line
G1 X11.9 Y45.0; draw line
G1 X11.9 Y45.5; draw line
G1 X12.7 Y46.1; draw line
G1 X12.1 Y46.0; draw line
G1 X11.7 Y45.4; draw line
G1 X11.6 Y45.1; draw back to polygon start
G1 F50.0; Z feedrate
G1 Z1.0; Z clearance height
G1 F1500.0; XY feedrate
G1 X11.6 Y47.7; move to polygon start
G1 F50.0; Z feedrate
G1 Z0.0; Z drawing height
G1 F1500.0; XY feedrate
G1 X11.9 Y47.2; draw line
G1 X12.5 Y46.9; draw line
G1 X12.4 Y47.1; draw line
G1 X11.9 Y47.6; draw line
G1 X11.9 Y48.1; draw line
G1 X12.6 Y48.5; draw line
G1 X13.1 Y48.2; draw line
G1 X13.2 Y47.8; draw line
G1 X13.1 Y47.4; draw line
G1 X12.8 Y47.2; draw line
G1 X12.5 Y46.9; draw line
G1 X13.6 Y47.4; draw line
G1 X14.7 Y47.2; draw line
G1 X15.2 Y46.4; draw line
G1 X16.0 Y46.3; draw line
G1 X16.4 Y46.6; draw line
G1 X16.6 Y47.5; draw line
G1 X16.3 Y47.9; draw line
G1 X15.8 Y48.1; draw line
G1 X15.8 Y47.9; draw line
G1 X16.3 Y47.6; draw line
G1 X16.4 Y47.1; draw line
G1 X16.3 Y46.7; draw line
G1 X16.0 Y46.5; draw line
G1 X15.6 Y46.4; draw line
G1 X15.1 Y46.9; draw line
G1 X15.1 Y47.5; draw line
G1 X15.8 Y48.1; draw line
G1 X14.7 Y47.6; draw line
G1 X13.6 Y47.8; draw line
G1 X13.1 Y48.5; draw line
G1 X12.3 Y48.7; draw line
G1 X11.8 Y48.3; draw line
G1 X11.6 Y47.7; draw back to polygon start
G1 F50.0; Z feedrate
G1 Z1.0; Z clearance height
G1 F1500.0; XY feedrate
G1 X11.6 Y50.2; move to polygon start
G1 F50.0; Z feedrate
G1 Z0.0; Z drawing height
G1 F1500.0; XY feedrate
G1 X11.9 Y49.7; draw line
G1 X12.5 Y49.4; draw line
G1 X12.4 Y49.6; draw line
G1 X11.9 Y50.1; draw line
G1 X11.9 Y50.6; draw line
G1 X12.6 Y51.1; draw line
G1 X13.1 Y50.8; draw line
G1 X13.2 Y50.3; draw line
G1 X13.1 Y49.9; draw line
G1 X12.8 Y49.7; draw line
G1 X12.5 Y49.4; draw line
G1 X13.6 Y49.9; draw line
G1 X14.7 Y49.7; draw line
G1 X15.2 Y49.0; draw line
G1 X16.0 Y48.8; draw line
G1 X16.4 Y49.1; draw line
G1 X16.6 Y50.0; draw line
G1 X16.3 Y50.4; draw line
G1 X15.8 Y50.6; draw line
G1 X15.8 Y50.4; draw line
G1 X16.3 Y50.1; draw line
G1 X16.4 Y49.6; draw line
G1 X16.3 Y49.3; draw line
G1 X16.0 Y49.0; draw line
G1 X15.6 Y49.0; draw line
G1 X15.1 Y49.4; draw line
G1 X15.1 Y50.0; draw line
G1 X15.8 Y50.6; draw line
G1 X14.7 Y50.1; draw line
G1 X13.6 Y50.3; draw line
G1 X13.1 Y51.1; draw line
G1 X12.3 Y51.2; draw line
G1 X11.8 Y50.8; draw line
G1 X11.6 Y50.2; draw back to polygon start
G1 F50.0; Z feedrate
G1 Z1.0; Z clearance height
G1 F1500.0; XY feedrate
G1 X11.6 Y54.0; move to polygon start
G1 F50.0; Z feedrate
G1 Z0.0; Z drawing height
G1 F1500.0; XY feedrate
G1 X11.9 Y53.5; draw line
G1 X12.5 Y53.2; draw line
G1 X12.4 Y53.4; draw line
G1 X11.9 Y53.9; draw line
G1 X11.9 Y54.4; draw line
G1 X12.6 Y54.8; draw line
G1 X13.1 Y54.5; draw line
G1 X13.2 Y54.1; draw line
G1 X13.1 Y53.7; draw line
G1 X12.8 Y53.5; draw line
G1 X12.5 Y53.2; draw line
G1 X13.4 Y53.4; draw line
G1 X14.8 Y52.6; draw line
G1 X14.9 Y51.8; draw line
G1 X15.5 Y51.4; draw line
G1 X15.6 Y51.5; draw line
G1 X15.1 Y52.0; draw line
G1 X15.1 Y52.6; draw line
G1 X15.8 Y53.0; draw line
G1 X16.3 Y52.7; draw line
G1 X16.4 Y52.2; draw line
G1 X16.3 Y51.8; draw line
G1 X16.0 Y51.6; draw line
G1 X15.5 Y51.4; draw line
G1 X16.0 Y51.4; draw line
G1 X16.4 Y51.7; draw line
G1 X16.6 Y52.6; draw line
G1 X16.1 Y53.0; draw line
G1 X15.5 Y53.2; draw line
G1 X14.9 Y53.0; draw line
G1 X13.4 Y53.9; draw line
G1 X13.3 Y54.5; draw line
G1 X13.0 Y54.9; draw line
G1 X12.5 Y55.0; draw line
G1 X11.9 Y54.7; draw line
G1 X11.6 Y54.0; draw back to polygon start
G1 F50.0; Z feedrate
G1 Z1.0; Z clearance height
G1 F1500.0; XY feedrate
G1 X11.6 Y56.6; move to polygon start
G1 F50.0; Z feedrate
G1 Z0.0; Z drawing height
G1 F1500.0; XY feedrate
G1 X11.9 Y56.0; draw line
G1 X12.5 Y55.8; draw line
G1 X12.4 Y56.0; draw line
G1 X11.9 Y56.5; draw line
G1 X11.9 Y57.0; draw line
G1 X12.6 Y57.4; draw line
G1 X13.1 Y57.1; draw line
G1 X13.2 Y56.6; draw line
G1 X13.1 Y56.3; draw line
G1 X12.8 Y56.0; draw line
G1 X12.5 Y55.8; draw line
G1 X13.4 Y56.0; draw line
G1 X14.8 Y55.1; draw line
G1 X14.9 Y54.4; draw line
G1 X15.5 Y53.9; draw line
G1 X15.6 Y54.1; draw line
G1 X15.1 Y54.5; draw line
G1 X15.1 Y55.1; draw line
G1 X15.8 Y55.5; draw line
G1 X16.3 Y55.2; draw line
G1 X16.4 Y54.7; draw line
G1 X16.3 Y54.4; draw line
G1 X16.0 Y54.1; draw line
G1 X15.5 Y53.9; draw line
G1 X16.0 Y53.9; draw line
G1 X16.4 Y54.2; draw line
G1 X16.6 Y55.1; draw line
G1 X16.1 Y55.6; draw line
G1 X15.5 Y55.7; draw line
G1 X14.9 Y55.5; draw line
G1 X13.4 Y56.5; draw line
G1 X13.3 Y57.1; draw line
G1 X13.0 Y57.5; draw line
G1 X12.5 Y57.6; draw line
G1 X11.9 Y57.3; draw line
G1 X11.6 Y56.6; draw back to polygon start
G1 F50.0; Z feedrate
G1 Z1.0; Z clearance height
G1 F1500.0; XY feedrate
G1 X11.6 Y59.1; move to polygon start
G1 F50.0; Z feedrate
G1 Z0.0; Z drawing height
G1 F1500.0; XY feedrate
G1 X11.9 Y58.6; draw line
G1 X12.5 Y58.3; draw line
G1 X12.4 Y58.5; draw line
G1 X11.9 Y59.0; draw line
G1 X11.9 Y59.5; draw line
G1 X12.6 Y59.9; draw line
G1 X13.1 Y59.6; draw line
G1 X13.2 Y59.2; draw line
G1 X13.1 Y58.8; draw line
G1 X12.8 Y58.6; draw line
G1 X12.5 Y58.3; draw line
G1 X13.4 Y58.5; draw line
G1 X14.8 Y57.6; draw line
G1 X14.9 Y56.9; draw line
G1 X15.5 Y56.5; draw line
G1 X15.6 Y56.6; draw line
G1 X15.1 Y57.1; draw line
G1 X15.1 Y57.6; draw line
G1 X15.8 Y58.0; draw line
G1 X16.3 Y57.7; draw line
G1 X16.4 Y57.2; draw line
G1 X16.3 Y56.9; draw line
G1 X16.0 Y56.6; draw line
G1 X15.5 Y56.5; draw line
G1 X16.0 Y56.5; draw line
G1 X16.4 Y56.8; draw line
G1 X16.6 Y57.6; draw line
G1 X16.1 Y58.1; draw line
G1 X15.5 Y58.2; draw line
G1 X14.9 Y58.0; draw line
G1 X13.4 Y59.0; draw line
G1 X13.3 Y59.6; draw line
G1 X13.0 Y60.0; draw line
G1 X12.5 Y60.1; draw line
G1 X11.9 Y59.8; draw line
G1 X11.6 Y59.1; draw back to polygon start
G1 F50.0; Z feedrate
G1 Z1.0; Z clearance height
G1 F1500.0; XY feedrate
G1 X11.6 Y61.6; move to polygon start
G1 F50.0; Z feedrate
G1 Z0.0; Z drawing height
G1 F1500.0; XY feedrate
G1 X11.9 Y61.1; draw line
G1 X12.5 Y60.8; draw line
G1 X12.4 Y61.0; draw line
G1 X11.9 Y61.5; draw line
G1 X11.9 Y62.0; draw line
G1 X12.6 Y62.5; draw line
G1 X13.1 Y62.2; draw line
G1 X13.2 Y61.7; draw line
G1 X13.1 Y61.3; draw line
G1 X12.8 Y61.1; draw line
G1 X12.5 Y60.8; draw line
G1 X13.4 Y61.0; draw line
G1 X14.8 Y60.2; draw line
G1 X14.9 Y59.5; draw line
G1 X15.5 Y59.0; draw line
G1 X15.6 Y59.2; draw line
G1 X15.1 Y59.6; draw line
G1 X15.1 Y60.2; draw line
G1 X15.8 Y60.6; draw line
G1 X16.3 Y60.3; draw line
G1 X16.4 Y59.8; draw line
G1 X16.3 Y59.5; draw line
G1 X16.0 Y59.2; draw line
G1 X15.5 Y59.0; draw line
G1 X16.0 Y59.0; draw line
G1 X16.4 Y59.3; draw line
G1 X16.6 Y60.2; draw line
G1 X16.1 Y60.7; draw line
G1 X15.5 Y60.8; draw line
G1 X14.9 Y60.6; draw line
G1 X13.4 Y61.5; draw line
G1 X13.3 Y62.2; draw line
G1 X13.0 Y62.5; draw line
G1 X12.5 Y62.6; draw line
G1 X11.9 Y62.3; draw line
G1 X11.6 Y61.6; draw back to polygon start
G1 F50.0; Z feedrate
G1 Z1.0; Z clearance height
G1 F1500.0; XY feedrate
G1 X14.8 Y62.3; move to polygon start
G1 F50.0; Z feedrate
G1 Z0.0; Z drawing height
G1 F1500.0; XY feedrate
G1 X15.1 Y61.7; draw line
G1 X15.7 Y61.5; draw line
G1 X15.6 Y61.7; draw line
G1 X15.1 Y62.2; draw line
G1 X15.1 Y62.7; draw line
G1 X15.8 Y63.1; draw line
G1 X16.3 Y62.8; draw line
G1 X16.4 Y62.3; draw line
G1 X16.3 Y62.0; draw line
G1 X16.0 Y61.7; draw line
G1 X15.7 Y61.5; draw line
G1 X16.4 Y61.8; draw line
G1 X16.7 Y62.2; draw line
G1 X17.4 Y62.1; draw line
G1 X17.8 Y61.6; draw line
G1 X18.5 Y61.6; draw line
G1 X18.5 Y61.7; draw line
G1 X18.1 Y61.7; draw line
G1 X17.6 Y62.2; draw line
G1 X17.6 Y62.7; draw line
G1 X18.3 Y63.1; draw line
G1 X18.8 Y62.8; draw line
G1 X18.9 Y62.3; draw line
G1 X18.8 Y62.0; draw line
G1 X18.5 Y61.6; draw line
G1 X19.4 Y62.3; draw line
G1 X19.8 Y62.4; draw line
G1 X20.3 Y62.1; draw line
G1 X20.3 Y60.2; draw line
G1 X22.0 Y58.2; draw line
G1 X22.6 Y53.5; draw line
G1 X24.1 Y50.9; draw line
G1 X24.8 Y50.7; draw line
G1 X24.8 Y50.9; draw line
G1 X24.5 Y50.9; draw line
G1 X24.0 Y51.4; draw line
G1 X24.0 Y51.9; draw line
G1 X24.7 Y52.3; draw line
G1 X25.1 Y52.0; draw line
G1 X25.3 Y51.5; draw line
G1 X25.1 Y51.2; draw line
G1 X24.8 Y50.7; draw line
G1 X25.6 Y51.4; draw line
G1 X26.2 Y51.4; draw line
G1 X26.6 Y50.9; draw line
G1 X27.4 Y50.7; draw line
G1 X28.1 Y51.4; draw line
G1 X28.7 Y51.4; draw line
G1 X29.1 Y50.9; draw line
G1 X29.5 Y50.7; draw line
G1 X29.5 Y50.9; draw line
G1 X29.0 Y51.4; draw line
G1 X29.0 Y51.9; draw line
G1 X29.7 Y52.3; draw line
G1 X30.2 Y52.0; draw line
G1 X30.3 Y51.5; draw line
G1 X30.2 Y51.2; draw line
G1 X29.9 Y50.9; draw line
G1 X29.5 Y50.7; draw line
G1 X30.3 Y51.0; draw line
G1 X30.6 Y51.4; draw line
G1 X31.3 Y51.4; draw line
G1 X31.7 Y50.9; draw line
G1 X32.3 Y50.7; draw line
G1 X32.6 Y50.8; draw line
G1 X33.2 Y51.4; draw line
G1 X33.8 Y51.4; draw line
G1 X34.3 Y50.8; draw line
G1 X35.0 Y50.8; draw line
G1 X35.7 Y51.4; draw line
G1 X36.4 Y51.4; draw line
G1 X36.8 Y50.8; draw line
G1 X37.6 Y50.8; draw line
G1 X37.5 Y50.9; draw line
G1 X37.1 Y50.9; draw line
G1 X36.7 Y51.4; draw line
G1 X36.7 Y51.9; draw line
G1 X37.3 Y52.3; draw line
G1 X37.8 Y52.0; draw line
G1 X37.9 Y51.5; draw line
G1 X37.8 Y51.2; draw line
G1 X37.6 Y50.8; draw line
G1 X38.3 Y51.5; draw line
G1 X43.2 Y52.1; draw line
G1 X49.1 Y52.0; draw line
G1 X49.5 Y51.6; draw line
G1 X50.0 Y51.4; draw line
G1 X50.7 Y51.8; draw line
G1 X50.9 Y52.1; draw line
G1 X51.5 Y52.1; draw line
G1 X51.9 Y52.0; draw line
G1 X51.9 Y52.6; draw line
G1 X52.4 Y52.9; draw line
G1 X52.6 Y53.0; draw line
G1 X53.0 Y52.7; draw line
G1 X53.2 Y52.2; draw line
G1 X53.0 Y51.8; draw line
G1 X52.7 Y51.6; draw line
G1 X52.4 Y51.5; draw line
G1 X51.5 Y52.1; draw line
G1 X51.8 Y51.4; draw line
G1 X53.3 Y51.4; draw line
G1 X53.3 Y53.0; draw line
G1 X51.7 Y53.0; draw line
G1 X51.5 Y52.4; draw line
G1 X50.9 Y52.4; draw line
G1 X50.6 Y52.9; draw line
G1 X50.0 Y53.1; draw line
G1 X50.0 Y53.0; draw line
G1 X50.5 Y52.7; draw line
G1 X50.6 Y52.2; draw line
G1 X50.5 Y51.8; draw line
G1 X50.2 Y51.6; draw line
G1 X49.9 Y51.5; draw line
G1 X49.4 Y52.0; draw line
G1 X49.4 Y52.6; draw line
G1 X50.0 Y53.1; draw line
G1 X49.7 Y53.0; draw line
G1 X49.0 Y52.4; draw line
G1 X43.4 Y52.4; draw line
G1 X43.2 Y52.9; draw line
G1 X43.3 Y54.0; draw line
G1 X43.3 Y54.1; draw line
G1 X42.9 Y54.1; draw line
G1 X42.4 Y54.5; draw line
G1 X42.4 Y55.1; draw line
G1 X43.1 Y55.5; draw line
G1 X43.6 Y55.2; draw line
G1 X43.7 Y54.7; draw line
G1 X43.6 Y54.4; draw line
G1 X43.3 Y54.0; draw line
G1 X43.7 Y54.2; draw line
G1 X43.8 Y55.1; draw line
G1 X43.6 Y55.4; draw line
G1 X43.0 Y55.6; draw line
G1 X42.4 Y55.3; draw line
G1 X42.2 Y54.5; draw line
G1 X42.8 Y53.8; draw line
G1 X42.7 Y52.4; draw line
G1 X38.1 Y52.0; draw line
G1 X37.7 Y52.4; draw line
G1 X37.0 Y52.4; draw line
G1 X36.1 Y51.8; draw line
G1 X35.6 Y51.9; draw line
G1 X35.3 Y52.3; draw line
G1 X34.7 Y52.5; draw line
G1 X34.8 Y52.3; draw line
G1 X35.3 Y52.0; draw line
G1 X35.4 Y51.5; draw line
G1 X35.3 Y51.2; draw line
G1 X35.0 Y50.9; draw line
G1 X34.6 Y50.9; draw line
G1 X34.1 Y51.4; draw line
G1 X34.1 Y51.9; draw line
G1 X34.7 Y52.5; draw line
G1 X34.0 Y52.1; draw line
G1 X33.7 Y51.8; draw line
G1 X33.1 Y51.8; draw line
G1 X32.8 Y52.3; draw line
G1 X32.3 Y52.5; draw line
G1 X32.3 Y52.3; draw line
G1 X32.8 Y52.0; draw line
G1 X32.9 Y51.5; draw line
G1 X32.8 Y51.2; draw line
G1 X32.5 Y50.9; draw line
G1 X32.1 Y50.9; draw line
G1 X31.6 Y51.4; draw line
G1 X31.6 Y51.9; draw line
G1 X32.3 Y52.5; draw line
G1 X31.6 Y52.3; draw line
G1 X31.2 Y51.8; draw line
G1 X30.5 Y51.8; draw line
G1 X30.1 Y52.4; draw line
G1 X29.3 Y52.4; draw line
G1 X28.6 Y51.8; draw line
G1 X28.1 Y51.8; draw line
G1 X27.7 Y52.3; draw line
G1 X27.2 Y52.5; draw line
G1 X27.2 Y52.3; draw line
G1 X27.7 Y52.0; draw line
G1 X27.8 Y51.5; draw line
G1 X27.7 Y51.2; draw line
G1 X27.4 Y50.9; draw line
G1 X27.0 Y50.9; draw line
G1 X26.5 Y51.4; draw line
G1 X26.5 Y51.9; draw line
G1 X27.2 Y52.5; draw line
G1 X26.6 Y52.3; draw line
G1 X26.2 Y51.8; draw line
G1 X25.6 Y51.8; draw line
G1 X25.1 Y52.3; draw line
G1 X24.4 Y52.5; draw line
G1 X23.8 Y52.1; draw line
G1 X23.6 Y52.1; draw line
G1 X22.7 Y53.9; draw line
G1 X22.2 Y58.4; draw line
G1 X20.6 Y60.2; draw line
G1 X20.6 Y62.4; draw line
G1 X20.5 Y62.5; draw line
G1 X19.7 Y62.5; draw line
G1 X19.1 Y62.7; draw line
G1 X18.8 Y63.1; draw line
G1 X18.0 Y63.3; draw line
G1 X17.1 Y62.6; draw line
G1 X16.6 Y62.6; draw line
G1 X16.2 Y63.2; draw line
G1 X15.5 Y63.3; draw line
G1 X14.9 Y62.9; draw line
G1 X14.8 Y62.3; draw back to polygon start
G1 F50.0; Z feedrate
G1 Z1.0; Z clearance height
G1 F1500.0; XY feedrate
G1 X17.3 Y59.8; move to polygon start
G1 F50.0; Z feedrate
G1 Z0.0; Z drawing height
G1 F1500.0; XY feedrate
G1 X17.7 Y59.2; draw line
G1 X18.1 Y59.0; draw line
G1 X18.1 Y59.2; draw line
G1 X17.6 Y59.6; draw line
G1 X17.6 Y60.2; draw line
G1 X18.3 Y60.6; draw line
G1 X18.8 Y60.3; draw line
G1 X18.9 Y59.8; draw line
G1 X18.8 Y59.5; draw line
G1 X18.5 Y59.2; draw line
G1 X18.1 Y59.0; draw line
G1 X18.7 Y59.2; draw line
G1 X19.1 Y59.8; draw line
G1 X19.0 Y60.2; draw line
G1 X18.8 Y60.6; draw line
G1 X18.4 Y60.8; draw line
G1 X17.8 Y60.7; draw line
G1 X17.4 Y60.1; draw line
G1 X17.3 Y59.8; draw back to polygon start
G1 F50.0; Z feedrate
G1 Z1.0; Z clearance height
G1 F1500.0; XY feedrate
G1 X17.3 Y57.2; move to polygon start
G1 F50.0; Z feedrate
G1 Z0.0; Z drawing height
G1 F1500.0; XY feedrate
G1 X17.8 Y56.5; draw line
G1 X18.5 Y56.4; draw line
G1 X18.5 Y56.6; draw line
G1 X18.1 Y56.6; draw line
G1 X17.6 Y57.1; draw line
G1 X17.6 Y57.6; draw line
G1 X18.3 Y58.0; draw line
G1 X18.8 Y57.7; draw line
G1 X18.9 Y57.2; draw line
G1 X18.8 Y56.9; draw line
G1 X18.5 Y56.4; draw line
G1 X19.3 Y57.2; draw line
G1 X19.8 Y57.1; draw line
G1 X20.6 Y56.3; draw line
G1 X21.4 Y52.7; draw line
G1 X23.7 Y49.5; draw line
G1 X24.5 Y49.3; draw line
G1 X45.0 Y49.3; draw line
G1 X45.6 Y50.2; draw line
G1 X53.4 Y50.2; draw line
G1 X55.3 Y48.0; draw line
G1 X58.3 Y48.0; draw line
G1 X60.8 Y46.4; draw line
G1 X71.9 Y46.3; draw line
G1 X72.4 Y45.9; draw line
G1 X72.4 Y44.7; draw line
G1 X72.8 Y44.2; draw line
G1 X75.5 Y44.2; draw line
G1 X76.7 Y43.8; draw line
G1 X78.1 Y43.0; draw line
G1 X78.1 Y42.8; draw line
G1 X77.8 Y42.5; draw line
G1 X77.8 Y41.8; draw line
G1 X78.0 Y41.4; draw line
G1 X78.8 Y41.2; draw line
G1 X79.2 Y41.5; draw line
G1 X79.1 Y41.6; draw line
G1 X78.8 Y41.4; draw line
G1 X78.4 Y41.3; draw line
G1 X77.9 Y41.8; draw line
G1 X77.9 Y42.4; draw line
G1 X78.6 Y42.8; draw line
G1 X79.1 Y42.5; draw line
G1 X79.2 Y42.0; draw line
G1 X79.2 Y41.5; draw line
G1 X79.3 Y42.4; draw line
G1 X78.4 Y43.3; draw line
G1 X76.4 Y44.2; draw line
G1 X75.2 Y44.4; draw line
G1 X72.9 Y44.4; draw line
G1 X72.7 Y45.1; draw line
G1 X72.6 Y46.0; draw line
G1 X71.9 Y46.6; draw line
G1 X60.8 Y46.6; draw line
G1 X58.2 Y48.2; draw line
G1 X55.4 Y48.3; draw line
G1 X53.5 Y50.5; draw line
G1 X45.5 Y50.5; draw line
G1 X44.7 Y49.5; draw line
G1 X24.5 Y49.6; draw line
G1 X23.6 Y49.9; draw line
G1 X21.5 Y53.0; draw line
G1 X21.3 Y55.0; draw line
G1 X20.8 Y56.5; draw line
G1 X19.9 Y57.4; draw line
G1 X19.1 Y57.5; draw line
G1 X18.7 Y58.1; draw line
G1 X18.0 Y58.2; draw line
G1 X17.5 Y57.8; draw line
G1 X17.3 Y57.2; draw back to polygon start
G1 F50.0; Z feedrate
G1 Z1.0; Z clearance height
G1 F1500.0; XY feedrate
G1 X17.3 Y54.7; move to polygon start
G1 F50.0; Z feedrate
G1 Z0.0; Z drawing height
G1 F1500.0; XY feedrate
G1 X17.6 Y54.1; draw line
G1 X18.2 Y53.9; draw line
G1 X18.1 Y54.1; draw line
G1 X17.6 Y54.5; draw line
G1 X17.6 Y55.1; draw line
G1 X18.3 Y55.5; draw line
G1 X18.8 Y55.2; draw line
G1 X18.9 Y54.7; draw line
G1 X18.8 Y54.4; draw line
G1 X18.5 Y54.1; draw line
G1 X18.2 Y53.9; draw line
G1 X18.5 Y53.9; draw line
G1 X19.3 Y54.4; draw line
G1 X20.3 Y51.8; draw line
G1 X24.9 Y46.7; draw line
G1 X27.2 Y46.7; draw line
G1 X27.7 Y47.3; draw line
G1 X45.3 Y47.3; draw line
G1 X46.6 Y48.9; draw line
G1 X52.8 Y49.0; draw line
G1 X54.7 Y46.7; draw line
G1 X57.9 Y46.7; draw line
G1 X61.0 Y44.5; draw line
G1 X63.0 Y44.5; draw line
G1 X63.2 Y43.9; draw line
G1 X63.1 Y43.0; draw line
G1 X62.5 Y42.2; draw line
G1 X62.6 Y41.6; draw line
G1 X62.8 Y41.4; draw line
G1 X63.4 Y41.2; draw line
G1 X64.0 Y41.5; draw line
G1 X63.8 Y41.6; draw line
G1 X63.5 Y41.4; draw line
G1 X63.2 Y41.3; draw line
G1 X62.7 Y41.8; draw line
G1 X62.7 Y42.4; draw line
G1 X63.4 Y42.8; draw line
G1 X63.8 Y42.5; draw line
G1 X64.0 Y42.0; draw line
G1 X64.0 Y41.5; draw line
G1 X64.1 Y42.4; draw line
G1 X63.4 Y43.2; draw line
G1 X63.4 Y44.3; draw line
G1 X63.1 Y44.8; draw line
G1 X61.0 Y44.8; draw line
G1 X58.6 Y46.6; draw line
G1 X57.8 Y47.0; draw line
G1 X54.8 Y47.0; draw line
G1 X52.9 Y49.2; draw line
G1 X46.4 Y49.2; draw line
G1 X45.0 Y47.6; draw line
G1 X27.4 Y47.6; draw line
G1 X27.1 Y47.0; draw line
G1 X25.0 Y47.0; draw line
G1 X20.6 Y52.0; draw line
G1 X19.4 Y54.7; draw line
G1 X19.1 Y54.8; draw line
G1 X18.8 Y55.4; draw line
G1 X18.1 Y55.6; draw line
G1 X17.8 Y55.6; draw line
G1 X17.4 Y55.0; draw line
G1 X17.3 Y54.7; draw back to polygon start
G1 F50.0; Z feedrate
G1 Z1.0; Z clearance height
G1 F1500.0; XY feedrate
G1 X17.3 Y52.1; move to polygon start
G1 F50.0; Z feedrate
G1 Z0.0; Z drawing height
G1 F1500.0; XY feedrate
G1 X17.6 Y51.6; draw line
G1 X18.2 Y51.4; draw line
G1 X18.1 Y51.5; draw line
G1 X17.6 Y52.0; draw line
G1 X17.6 Y52.6; draw line
G1 X18.3 Y53.0; draw line
G1 X18.8 Y52.7; draw line
G1 X18.9 Y52.2; draw line
G1 X18.8 Y51.8; draw line
G1 X18.5 Y51.6; draw line
G1 X18.2 Y51.4; draw line
G1 X19.1 Y51.5; draw line
G1 X24.3 Y45.4; draw line
G1 X27.8 Y45.4; draw line
G1 X28.4 Y46.1; draw line
G1 X46.3 Y46.1; draw line
G1 X47.2 Y47.6; draw line
G1 X47.4 Y47.7; draw line
G1 X52.1 Y47.6; draw line
G1 X53.2 Y46.3; draw line
G1 X53.5 Y45.1; draw line
G1 X58.0 Y45.1; draw line
G1 X60.6 Y43.2; draw line
G1 X60.5 Y42.8; draw line
G1 X60.1 Y42.6; draw line
G1 X60.0 Y42.2; draw line
G1 X60.1 Y41.7; draw line
G1 X60.3 Y41.4; draw line
G1 X60.8 Y41.2; draw line
G1 X61.4 Y41.5; draw line
G1 X61.3 Y41.6; draw line
G1 X61.0 Y41.4; draw line
G1 X60.7 Y41.3; draw line
G1 X60.2 Y41.8; draw line
G1 X60.2 Y42.4; draw line
G1 X60.8 Y42.8; draw line
G1 X61.3 Y42.5; draw line
G1 X61.4 Y42.0; draw line
G1 X61.4 Y41.5; draw line
G1 X61.6 Y42.4; draw line
G1 X60.9 Y43.2; draw line
G1 X60.8 Y43.4; draw line
G1 X57.8 Y45.4; draw line
G1 X53.7 Y45.4; draw line
G1 X53.6 Y46.2; draw line
G1 X52.3 Y47.9; draw line
G1 X47.0 Y47.9; draw line
G1 X46.0 Y46.3; draw line
G1 X28.3 Y46.3; draw line
G1 X27.7 Y45.7; draw line
G1 X24.3 Y45.7; draw line
G1 X19.2 Y51.8; draw line
G1 X19.0 Y52.7; draw line
G1 X18.7 Y53.0; draw line
G1 X18.0 Y53.2; draw line
G1 X17.5 Y52.7; draw line
G1 X17.3 Y52.1; draw back to polygon start
G1 F50.0; Z feedrate
G1 Z1.0; Z clearance height
G1 F1500.0; XY feedrate
G1 X17.3 Y49.6; move to polygon start
G1 F50.0; Z feedrate
G1 Z0.0; Z drawing height
G1 F1500.0; XY feedrate
G1 X17.6 Y49.0; draw line
G1 X18.2 Y48.8; draw line
G1 X18.1 Y49.0; draw line
G1 X17.6 Y49.4; draw line
G1 X17.6 Y50.0; draw line
G1 X18.3 Y50.4; draw line
G1 X18.8 Y50.1; draw line
G1 X18.9 Y49.6; draw line
G1 X18.8 Y49.3; draw line
G1 X18.5 Y49.0; draw line
G1 X18.2 Y48.8; draw line
G1 X19.1 Y49.1; draw line
G1 X20.0 Y48.3; draw line
G1 X23.8 Y44.3; draw line
G1 X24.1 Y44.2; draw line
G1 X28.5 Y44.2; draw line
G1 X29.2 Y44.8; draw line
G1 X47.8 Y44.9; draw line
G1 X48.1 Y46.0; draw line
G1 X48.6 Y46.4; draw line
G1 X51.2 Y46.3; draw line
G1 X52.1 Y45.3; draw line
G1 X52.1 Y44.3; draw line
G1 X52.4 Y43.9; draw line
G1 X57.2 Y43.9; draw line
G1 X58.0 Y43.1; draw line
G1 X58.0 Y42.9; draw line
G1 X57.5 Y42.5; draw line
G1 X57.5 Y41.6; draw line
G1 X58.2 Y41.2; draw line
G1 X58.1 Y41.3; draw line
G1 X57.7 Y41.8; draw line
G1 X57.7 Y42.4; draw line
G1 X58.3 Y42.8; draw line
G1 X58.8 Y42.5; draw line
G1 X58.9 Y42.0; draw line
G1 X58.8 Y41.6; draw line
G1 X58.5 Y41.4; draw line
G1 X58.2 Y41.2; draw line
G1 X58.9 Y41.5; draw line
G1 X59.0 Y42.4; draw line
G1 X57.4 Y44.1; draw line
G1 X52.5 Y44.2; draw line
G1 X52.3 Y44.6; draw line
G1 X52.3 Y45.5; draw line
G1 X51.2 Y46.6; draw line
G1 X48.3 Y46.6; draw line
G1 X47.6 Y45.9; draw line
G1 X47.5 Y45.1; draw line
G1 X28.9 Y45.0; draw line
G1 X28.3 Y44.4; draw line
G1 X23.9 Y44.5; draw line
G1 X19.1 Y49.7; draw line
G1 X19.1 Y50.0; draw line
G1 X18.7 Y50.5; draw line
G1 X18.0 Y50.6; draw line
G1 X17.5 Y50.2; draw line
G1 X17.3 Y49.6; draw back to polygon start
G1 F50.0; Z feedrate
G1 Z1.0; Z clearance height
G1 F1500.0; XY feedrate
G1 X17.3 Y47.0; move to polygon start
G1 F50.0; Z feedrate
G1 Z0.0; Z drawing height
G1 F1500.0; XY feedrate
G1 X17.6 Y46.5; draw line
G1 X18.5 Y46.3; draw line
G1 X18.5 Y46.5; draw line
G1 X18.1 Y46.4; draw line
G1 X17.6 Y46.9; draw line
G1 X17.6 Y47.5; draw line
G1 X18.3 Y47.9; draw line
G1 X18.8 Y47.6; draw line
G1 X18.9 Y47.1; draw line
G1 X18.8 Y46.7; draw line
G1 X18.5 Y46.3; draw line
G1 X18.9 Y46.5; draw line
G1 X19.2 Y46.5; draw line
G1 X20.3 Y45.8; draw line
G1 X23.3 Y42.6; draw line
G1 X28.6 Y42.7; draw line
G1 X30.5 Y43.6; draw line
G1 X42.8 Y43.5; draw line
G1 X42.9 Y43.1; draw line
G1 X42.3 Y42.5; draw line
G1 X42.3 Y41.6; draw line
G1 X43.0 Y41.2; draw line
G1 X43.3 Y41.3; draw line
G1 X43.3 Y41.4; draw line
G1 X42.9 Y41.3; draw line
G1 X42.4 Y41.8; draw line
G1 X42.4 Y42.4; draw line
G1 X43.1 Y42.8; draw line
G1 X43.6 Y42.5; draw line
G1 X43.7 Y42.0; draw line
G1 X43.6 Y41.6; draw line
G1 X43.3 Y41.3; draw line
G1 X43.7 Y41.6; draw line
G1 X43.8 Y41.9; draw line
G1 X43.7 Y42.4; draw line
G1 X43.1 Y43.2; draw line
G1 X43.1 Y43.7; draw line
G1 X43.0 Y43.8; draw line
G1 X30.1 Y43.7; draw line
G1 X28.2 Y42.8; draw line
G1 X23.3 Y42.9; draw line
G1 X20.2 Y46.3; draw line
G1 X19.1 Y47.0; draw line
G1 X19.0 Y47.6; draw line
G1 X18.7 Y47.9; draw line
G1 X18.0 Y48.1; draw line
G1 X17.5 Y47.6; draw line
G1 X17.3 Y47.0; draw back to polygon start
G1 F50.0; Z feedrate
G1 Z1.0; Z clearance height
G1 F1500.0; XY feedrate
G1 X17.3 Y44.5; move to polygon start
G1 F50.0; Z feedrate
G1 Z0.0; Z drawing height
G1 F1500.0; XY feedrate
G1 X17.6 Y44.0; draw line
G1 X18.2 Y43.7; draw line
G1 X18.1 Y43.9; draw line
G1 X17.6 Y44.4; draw line
G1 X17.6 Y44.9; draw line
G1 X18.3 Y45.4; draw line
G1 X18.8 Y45.1; draw line
G1 X18.9 Y44.6; draw line
G1 X18.8 Y44.2; draw line
G1 X18.5 Y44.0; draw line
G1 X18.2 Y43.7; draw line
G1 X18.9 Y44.0; draw line
G1 X19.4 Y44.5; draw line
G1 X22.6 Y41.3; draw line
G1 X28.9 Y41.3; draw line
G1 X31.1 Y41.9; draw line
G1 X39.5 Y41.9; draw line
G1 X39.9 Y41.4; draw line
G1 X40.6 Y41.3; draw line
G1 X41.1 Y41.5; draw line
G1 X41.2 Y42.4; draw line
G1 X41.0 Y42.7; draw line
G1 X40.5 Y42.9; draw line
G1 X40.5 Y42.8; draw line
G1 X41.0 Y42.5; draw line
G1 X41.1 Y42.0; draw line
G1 X41.0 Y41.6; draw line
G1 X40.7 Y41.4; draw line
G1 X40.3 Y41.3; draw line
G1 X39.8 Y41.8; draw line
G1 X39.8 Y42.4; draw line
G1 X40.5 Y42.9; draw line
G1 X40.1 Y42.8; draw line
G1 X39.5 Y42.2; draw line
G1 X30.7 Y42.1; draw line
G1 X28.6 Y41.6; draw line
G1 X22.7 Y41.6; draw line
G1 X19.4 Y44.8; draw line
G1 X19.1 Y44.9; draw line
G1 X18.7 Y45.4; draw line
G1 X18.0 Y45.5; draw line
G1 X17.5 Y45.1; draw line
G1 X17.3 Y44.5; draw back to polygon start
G1 F50.0; Z feedrate
G1 Z1.0; Z clearance height
G1 F1500.0; XY feedrate
G1 X17.3 Y41.9; move to polygon start
G1 F50.0; Z feedrate
G1 Z0.0; Z drawing height
G1 F1500.0; XY feedrate
G1 X17.6 Y41.4; draw line
G1 X18.5 Y41.2; draw line
G1 X19.1 Y41.7; draw line
G1 X19.4 Y41.7; draw line
G1 X21.2 Y40.1; draw line
G1 X26.5 Y40.0; draw line
G1 X32.2 Y33.7; draw line
G1 X44.6 Y33.7; draw line
G1 X46.4 Y31.8; draw line
G1 X66.4 Y31.8; draw line
G1 X69.5 Y28.9; draw line
G1 X69.4 Y26.5; draw line
G1 X69.0 Y26.1; draw line
G1 X68.9 Y25.7; draw line
G1 X68.9 Y25.1; draw line
G1 X69.2 Y24.9; draw line
G1 X69.7 Y24.7; draw line
G1 X70.3 Y25.1; draw line
G1 X70.2 Y25.1; draw line
G1 X69.9 Y24.9; draw line
G1 X69.5 Y24.8; draw line
G1 X69.1 Y25.3; draw line
G1 X69.1 Y25.9; draw line
G1 X69.7 Y26.3; draw line
G1 X70.2 Y26.0; draw line
G1 X70.3 Y25.5; draw line
G1 X70.3 Y25.1; draw line
G1 X70.4 Y25.4; draw line
G1 X70.4 Y26.0; draw line
G1 X69.8 Y26.5; draw line
G1 X69.8 Y29.0; draw line
G1 X69.0 Y29.8; draw line
G1 X66.5 Y32.0; draw line
G1 X46.5 Y32.1; draw line
G1 X44.6 Y34.0; draw line
G1 X32.2 Y34.0; draw line
G1 X26.6 Y40.3; draw line
G1 X21.1 Y40.4; draw line
G1 X18.8 Y42.8; draw line
G1 X18.4 Y43.0; draw line
G1 X18.3 Y42.8; draw line
G1 X18.8 Y42.5; draw line
G1 X18.9 Y42.0; draw line
G1 X18.8 Y41.6; draw line
G1 X18.5 Y41.4; draw line
G1 X18.1 Y41.3; draw line
G1 X17.6 Y41.8; draw line
G1 X17.6 Y42.4; draw line
G1 X18.4 Y43.0; draw line
G1 X17.8 Y42.8; draw line
G1 X17.4 Y42.2; draw line
G1 X17.3 Y41.9; draw back to polygon start
G1 F50.0; Z feedrate
G1 Z1.0; Z clearance height
G1 F1500.0; XY feedrate
G1 X17.3 Y39.4; move to polygon start
G1 F50.0; Z feedrate
G1 Z0.0; Z drawing height
G1 F1500.0; XY feedrate
G1 X17.6 Y38.9; draw line
G1 X18.2 Y38.6; draw line
G1 X18.1 Y38.8; draw line
G1 X17.6 Y39.3; draw line
G1 X17.6 Y39.8; draw line
G1 X18.3 Y40.3; draw line
G1 X18.8 Y40.0; draw line
G1 X18.9 Y39.5; draw line
G1 X18.8 Y39.1; draw line
G1 X18.5 Y38.9; draw line
G1 X18.2 Y38.6; draw line
G1 X18.7 Y38.8; draw line
G1 X19.0 Y39.0; draw line
G1 X19.8 Y38.5; draw line
G1 X25.8 Y38.5; draw line
G1 X31.5 Y32.5; draw line
G1 X43.7 Y32.3; draw line
G1 X45.8 Y30.5; draw line
G1 X54.2 Y30.4; draw line
G1 X54.3 Y26.6; draw line
G1 X53.7 Y26.0; draw line
G1 X53.7 Y25.1; draw line
G1 X54.4 Y24.7; draw line
G1 X55.1 Y25.1; draw line
G1 X55.0 Y25.1; draw line
G1 X54.7 Y24.9; draw line
G1 X54.3 Y24.8; draw line
G1 X53.8 Y25.3; draw line
G1 X53.8 Y25.9; draw line
G1 X54.5 Y26.3; draw line
G1 X55.0 Y26.0; draw line
G1 X55.1 Y25.5; draw line
G1 X55.1 Y25.1; draw line
G1 X55.2 Y25.9; draw line
G1 X54.6 Y26.5; draw line
G1 X54.5 Y30.6; draw line
G1 X54.4 Y30.8; draw line
G1 X45.9 Y30.8; draw line
G1 X43.7 Y32.7; draw line
G1 X31.5 Y32.8; draw line
G1 X25.9 Y38.7; draw line
G1 X19.8 Y38.8; draw line
G1 X19.2 Y39.5; draw line
G1 X18.7 Y40.3; draw line
G1 X17.9 Y40.4; draw line
G1 X17.5 Y40.0; draw line
G1 X17.3 Y39.4; draw back to polygon start
G1 F50.0; Z feedrate
G1 Z1.0; Z clearance height
G1 F1500.0; XY feedrate
G1 X17.3 Y36.9; move to polygon start
G1 F50.0; Z feedrate
G1 Z0.0; Z drawing height
G1 F1500.0; XY feedrate
G1 X17.6 Y36.4; draw line
G1 X18.3 Y36.1; draw line
G1 X18.6 Y36.2; draw line
G1 X18.5 Y36.4; draw line
G1 X18.1 Y36.3; draw line
G1 X17.6 Y36.8; draw line
G1 X17.6 Y37.3; draw line
G1 X18.3 Y37.7; draw line
G1 X18.8 Y37.4; draw line
G1 X18.9 Y37.0; draw line
G1 X18.8 Y36.6; draw line
G1 X18.6 Y36.2; draw line
G1 X19.4 Y36.9; draw line
G1 X25.5 Y36.9; draw line
G1 X30.8 Y31.3; draw line
G1 X31.1 Y31.1; draw line
G1 X42.3 Y31.1; draw line
G1 X44.8 Y29.0; draw line
G1 X51.6 Y28.9; draw line
G1 X51.8 Y28.4; draw line
G1 X51.8 Y26.6; draw line
G1 X51.2 Y26.1; draw line
G1 X51.1 Y25.2; draw line
G1 X51.4 Y24.9; draw line
G1 X52.0 Y24.7; draw line
G1 X52.6 Y25.0; draw line
G1 X52.4 Y25.1; draw line
G1 X52.1 Y24.9; draw line
G1 X51.8 Y24.8; draw line
G1 X51.3 Y25.3; draw line
G1 X51.3 Y25.9; draw line
G1 X52.0 Y26.3; draw line
G1 X52.4 Y26.0; draw line
G1 X52.6 Y25.5; draw line
G1 X52.6 Y25.0; draw line
G1 X52.7 Y25.9; draw line
G1 X52.1 Y26.5; draw line
G1 X52.0 Y29.0; draw line
G1 X51.8 Y29.2; draw line
G1 X44.9 Y29.2; draw line
G1 X42.5 Y31.3; draw line
G1 X31.0 Y31.4; draw line
G1 X25.5 Y37.1; draw line
G1 X19.2 Y37.2; draw line
G1 X18.7 Y37.8; draw line
G1 X18.0 Y37.9; draw line
G1 X17.5 Y37.5; draw line
G1 X17.3 Y36.9; draw back to polygon start
G1 F50.0; Z feedrate
G1 Z1.0; Z clearance height
G1 F1500.0; XY feedrate
G1 X17.3 Y34.3; move to polygon start
G1 F50.0; Z feedrate
G1 Z0.0; Z drawing height
G1 F1500.0; XY feedrate
G1 X17.8 Y33.7; draw line
G1 X18.5 Y33.6; draw line
G1 X18.5 Y33.8; draw line
G1 X18.1 Y33.7; draw line
G1 X17.6 Y34.2; draw line
G1 X17.6 Y34.7; draw line
G1 X18.3 Y35.2; draw line
G1 X18.8 Y34.9; draw line
G1 X18.9 Y34.4; draw line
G1 X18.8 Y34.0; draw line
G1 X18.5 Y33.6; draw line
G1 X19.4 Y34.3; draw line
G1 X25.9 Y34.3; draw line
G1 X30.3 Y29.9; draw line
G1 X41.5 Y29.8; draw line
G1 X43.9 Y27.4; draw line
G1 X49.0 Y27.3; draw line
G1 X49.3 Y27.0; draw line
G1 X49.3 Y26.6; draw line
G1 X48.6 Y25.8; draw line
G1 X48.6 Y25.3; draw line
G1 X48.8 Y24.9; draw line
G1 X49.6 Y24.7; draw line
G1 X50.0 Y25.0; draw line
G1 X49.9 Y25.1; draw line
G1 X49.6 Y24.9; draw line
G1 X49.3 Y24.8; draw line
G1 X48.8 Y25.3; draw line
G1 X48.8 Y25.9; draw line
G1 X49.4 Y26.3; draw line
G1 X49.9 Y26.0; draw line
G1 X50.0 Y25.5; draw line
G1 X50.0 Y25.0; draw line
G1 X50.2 Y25.4; draw line
G1 X50.1 Y25.9; draw line
G1 X49.6 Y26.5; draw line
G1 X49.4 Y27.2; draw line
G1 X49.3 Y27.5; draw line
G1 X48.9 Y27.6; draw line
G1 X43.9 Y27.7; draw line
G1 X41.5 Y30.1; draw line
G1 X30.4 Y30.1; draw line
G1 X25.9 Y34.6; draw line
G1 X19.3 Y34.6; draw line
G1 X18.8 Y35.2; draw line
G1 X18.0 Y35.3; draw line
G1 X17.5 Y34.9; draw line
G1 X17.3 Y34.3; draw back to polygon start
G1 F50.0; Z feedrate
G1 Z1.0; Z clearance height
G1 F1500.0; XY feedrate
G1 X17.3 Y31.8; move to polygon start
G1 F50.0; Z feedrate
G1 Z0.0; Z drawing height
G1 F1500.0; XY feedrate
G1 X17.6 Y31.3; draw line
G1 X18.2 Y31.0; draw line
G1 X18.1 Y31.2; draw line
G1 X17.6 Y31.7; draw line
G1 X17.6 Y32.2; draw line
G1 X18.3 Y32.6; draw line
G1 X18.8 Y32.3; draw line
G1 X18.9 Y31.9; draw line
G1 X18.8 Y31.5; draw line
G1 X18.5 Y31.3; draw line
G1 X18.2 Y31.0; draw line
G1 X18.7 Y31.1; draw line
G1 X19.4 Y31.8; draw line
G1 X22.2 Y31.9; draw line
G1 X22.6 Y32.1; draw line
G1 X26.1 Y32.1; draw line
G1 X29.2 Y28.9; draw line
G1 X29.3 Y27.7; draw line
G1 X33.8 Y27.7; draw line
G1 X34.0 Y27.3; draw line
G1 X33.8 Y26.3; draw line
G1 X33.5 Y26.1; draw line
G1 X33.4 Y25.7; draw line
G1 X33.4 Y25.2; draw line
G1 X33.5 Y25.3; draw line
G1 X33.5 Y25.9; draw line
G1 X34.2 Y26.3; draw line
G1 X34.7 Y26.0; draw line
G1 X34.8 Y25.5; draw line
G1 X34.7 Y25.1; draw line
G1 X34.4 Y24.9; draw line
G1 X34.0 Y24.8; draw line
G1 X33.4 Y25.2; draw line
G1 X33.6 Y24.9; draw line
G1 X34.1 Y24.7; draw line
G1 X34.8 Y25.0; draw line
G1 X34.9 Y25.9; draw line
G1 X34.3 Y26.5; draw line
G1 X34.3 Y27.8; draw line
G1 X34.0 Y27.9; draw line
G1 X29.6 Y27.9; draw line
G1 X29.5 Y28.3; draw line
G1 X29.5 Y29.0; draw line
G1 X26.2 Y32.3; draw line
G1 X22.3 Y32.3; draw line
G1 X21.8 Y32.0; draw line
G1 X19.2 Y32.1; draw line
G1 X18.7 Y32.7; draw line
G1 X18.0 Y32.8; draw line
G1 X17.5 Y32.4; draw line
G1 X17.3 Y31.8; draw back to polygon start
G1 F50.0; Z feedrate
G1 Z1.0; Z clearance height
G1 F1500.0; XY feedrate
G1 X17.3 Y29.3; move to polygon start
G1 F50.0; Z feedrate
G1 Z0.0; Z drawing height
G1 F1500.0; XY feedrate
G1 X17.6 Y28.8; draw line
G1 X18.1 Y28.5; draw line
G1 X18.1 Y28.7; draw line
G1 X17.6 Y29.2; draw line
G1 X17.6 Y29.7; draw line
G1 X18.3 Y30.1; draw line
G1 X18.8 Y29.8; draw line
G1 X18.9 Y29.3; draw line
G1 X18.8 Y29.0; draw line
G1 X18.5 Y28.7; draw line
G1 X18.1 Y28.5; draw line
G1 X18.7 Y28.6; draw line
G1 X19.4 Y29.3; draw line
G1 X22.2 Y29.4; draw line
G1 X23.8 Y30.8; draw line
G1 X25.6 Y30.8; draw line
G1 X27.2 Y29.0; draw line
G1 X27.3 Y25.6; draw line
G1 X27.4 Y25.4; draw line
G1 X30.7 Y25.4; draw line
G1 X31.0 Y24.9; draw line
G1 X31.6 Y24.7; draw line
G1 X31.9 Y24.8; draw line
G1 X32.2 Y25.1; draw line
G1 X32.1 Y25.1; draw line
G1 X31.8 Y24.9; draw line
G1 X31.4 Y24.8; draw line
G1 X31.0 Y25.3; draw line
G1 X31.0 Y25.9; draw line
G1 X31.6 Y26.3; draw line
G1 X32.1 Y26.0; draw line
G1 X32.2 Y25.5; draw line
G1 X32.2 Y25.1; draw line
G1 X32.3 Y25.9; draw line
G1 X31.7 Y26.4; draw line
G1 X31.3 Y26.4; draw line
G1 X30.5 Y25.7; draw line
G1 X27.7 Y25.7; draw line
G1 X27.5 Y26.2; draw line
G1 X27.5 Y29.0; draw line
G1 X25.6 Y31.1; draw line
G1 X23.5 Y31.0; draw line
G1 X22.0 Y29.5; draw line
G1 X19.3 Y29.5; draw line
G1 X18.8 Y30.1; draw line
G1 X18.0 Y30.3; draw line
G1 X17.5 Y29.9; draw line
G1 X17.3 Y29.3; draw back to polygon start
G1 F50.0; Z feedrate
G1 Z1.0; Z clearance height
G1 F1500.0; XY feedrate
G1 X17.3 Y26.7; move to polygon start
G1 F50.0; Z feedrate
G1 Z0.0; Z drawing height
G1 F1500.0; XY feedrate
G1 X17.6 Y26.2; draw line
G1 X18.2 Y25.9; draw line
G1 X18.1 Y26.1; draw line
G1 X17.6 Y26.6; draw line
G1 X17.6 Y27.1; draw line
G1 X18.3 Y27.5; draw line
G1 X18.8 Y27.2; draw line
G1 X18.9 Y26.8; draw line
G1 X18.8 Y26.4; draw line
G1 X18.5 Y26.2; draw line
G1 X18.2 Y25.9; draw line
G1 X19.0 Y26.3; draw line
G1 X19.3 Y26.6; draw line
G1 X20.5 Y26.6; draw line
G1 X20.9 Y26.1; draw line
G1 X21.4 Y25.9; draw line
G1 X22.1 Y26.3; draw line
G1 X22.3 Y26.6; draw line
G1 X22.2 Y27.2; draw line
G1 X22.0 Y27.5; draw line
G1 X21.5 Y27.7; draw line
G1 X21.5 Y27.5; draw line
G1 X22.0 Y27.2; draw line
G1 X22.1 Y26.8; draw line
G1 X22.0 Y26.4; draw line
G1 X21.7 Y26.2; draw line
G1 X21.3 Y26.1; draw line
G1 X20.8 Y26.6; draw line
G1 X20.8 Y27.1; draw line
G1 X21.5 Y27.7; draw line
G1 X20.9 Y27.5; draw line
G1 X20.3 Y27.0; draw line
G1 X19.2 Y27.0; draw line
G1 X18.7 Y27.6; draw line
G1 X18.0 Y27.7; draw line
G1 X17.5 Y27.3; draw line
G1 X17.3 Y26.7; draw back to polygon start
G1 F50.0; Z feedrate
G1 Z1.0; Z clearance height
G1 F1500.0; XY feedrate
G1 X17.3 Y24.2; move to polygon start
G1 F50.0; Z feedrate
G1 Z0.0; Z drawing height
G1 F1500.0; XY feedrate
G1 X17.6 Y23.6; draw line
G1 X18.2 Y23.4; draw line
G1 X18.1 Y23.6; draw line
G1 X17.6 Y24.1; draw line
G1 X17.6 Y24.6; draw line
G1 X18.3 Y25.0; draw line
G1 X18.8 Y24.7; draw line
G1 X18.9 Y24.2; draw line
G1 X18.8 Y23.9; draw line
G1 X18.5 Y23.6; draw line
G1 X18.2 Y23.4; draw line
G1 X19.0 Y23.8; draw line
G1 X19.3 Y24.1; draw line
G1 X20.5 Y24.1; draw line
G1 X20.9 Y23.6; draw line
G1 X21.4 Y23.4; draw line
G1 X22.1 Y23.8; draw line
G1 X22.3 Y24.1; draw line
G1 X22.2 Y24.7; draw line
G1 X22.0 Y25.0; draw line
G1 X21.5 Y25.2; draw line
G1 X21.5 Y25.0; draw line
G1 X22.0 Y24.7; draw line
G1 X22.1 Y24.2; draw line
G1 X22.0 Y23.9; draw line
G1 X21.7 Y23.6; draw line
G1 X21.3 Y23.6; draw line
G1 X20.8 Y24.1; draw line
G1 X20.8 Y24.6; draw line
G1 X21.5 Y25.2; draw line
G1 X20.9 Y25.0; draw line
G1 X20.3 Y24.5; draw line
G1 X19.2 Y24.5; draw line
G1 X18.7 Y25.1; draw line
G1 X18.0 Y25.2; draw line
G1 X17.5 Y24.8; draw line
G1 X17.3 Y24.2; draw back to polygon start
G1 F50.0; Z feedrate
G1 Z1.0; Z clearance height
G1 F1500.0; XY feedrate
G1 X17.3 Y21.7; move to polygon start
G1 F50.0; Z feedrate
G1 Z0.0; Z drawing height
G1 F1500.0; XY feedrate
G1 X17.6 Y21.1; draw line
G1 X18.2 Y20.9; draw line
G1 X18.1 Y21.1; draw line
G1 X17.6 Y21.5; draw line
G1 X17.6 Y22.1; draw line
G1 X18.3 Y22.5; draw line
G1 X18.8 Y22.2; draw line
G1 X18.9 Y21.7; draw line
G1 X18.8 Y21.4; draw line
G1 X18.5 Y21.1; draw line
G1 X18.2 Y20.9; draw line
G1 X19.0 Y21.2; draw line
G1 X19.3 Y21.6; draw line
G1 X20.5 Y21.5; draw line
G1 X20.9 Y21.1; draw line
G1 X21.4 Y20.9; draw line
G1 X22.1 Y21.2; draw line
G1 X22.3 Y21.6; draw line
G1 X22.2 Y22.1; draw line
G1 X22.0 Y22.5; draw line
G1 X21.5 Y22.7; draw line
G1 X21.5 Y22.5; draw line
G1 X22.0 Y22.2; draw line
G1 X22.1 Y21.7; draw line
G1 X22.0 Y21.4; draw line
G1 X21.7 Y21.1; draw line
G1 X21.3 Y21.1; draw line
G1 X20.8 Y21.5; draw line
G1 X20.8 Y22.1; draw line
G1 X21.5 Y22.7; draw line
G1 X20.7 Y22.3; draw line
G1 X20.3 Y22.0; draw line
G1 X19.2 Y22.0; draw line
G1 X18.7 Y22.6; draw line
G1 X18.0 Y22.7; draw line
G1 X17.5 Y22.3; draw line
G1 X17.3 Y21.7; draw back to polygon start
G1 F50.0; Z feedrate
G1 Z1.0; Z clearance height
G1 F1500.0; XY feedrate
G1 X20.8 Y17.6; move to polygon start
G1 F50.0; Z feedrate
G1 Z0.0; Z drawing height
G1 F1500.0; XY feedrate
G1 X21.5 Y18.1; draw line
G1 X22.0 Y17.8; draw line
G1 X22.1 Y17.3; draw line
G1 X22.0 Y16.9; draw line
G1 X21.7 Y16.7; draw line
G1 X21.3 Y16.6; draw line
G1 X20.8 Y17.1; draw line
G1 X20.8 Y17.6; draw back to polygon start
G1 F50.0; Z feedrate
G1 Z1.0; Z clearance height
G1 F1500.0; XY feedrate
G1 X23.3 Y17.6; move to polygon start
G1 F50.0; Z feedrate
G1 Z0.0; Z drawing height
G1 F1500.0; XY feedrate
G1 X24.0 Y18.1; draw line
G1 X24.5 Y17.8; draw line
G1 X24.6 Y17.3; draw line
G1 X24.5 Y16.9; draw line
G1 X24.2 Y16.7; draw line
G1 X23.8 Y16.6; draw line
G1 X23.3 Y17.1; draw line
G1 X23.3 Y17.6; draw back to polygon start
G1 F50.0; Z feedrate
G1 Z1.0; Z clearance height
G1 F1500.0; XY feedrate
G1 X22.4 Y14.0; move to polygon start
G1 F50.0; Z feedrate
G1 Z0.0; Z drawing height
G1 F1500.0; XY feedrate
G1 X22.7 Y13.5; draw line
G1 X23.3 Y13.3; draw line
G1 X23.2 Y13.4; draw line
G1 X22.7 Y13.9; draw line
G1 X22.7 Y14.5; draw line
G1 X23.4 Y14.9; draw line
G1 X23.9 Y14.6; draw line
G1 X24.0 Y14.1; draw line
G1 X23.9 Y13.7; draw line
G1 X23.6 Y13.5; draw line
G1 X23.3 Y13.3; draw line
G1 X24.1 Y13.6; draw line
G1 X24.2 Y13.9; draw line
G1 X24.1 Y14.5; draw line
G1 X23.7 Y15.2; draw line
G1 X23.9 Y16.3; draw line
G1 X24.7 Y16.9; draw line
G1 X24.7 Y17.8; draw line
G1 X24.5 Y18.1; draw line
G1 X24.0 Y18.2; draw line
G1 X23.4 Y18.1; draw line
G1 X23.2 Y17.8; draw line
G1 X23.1 Y17.0; draw line
G1 X23.5 Y16.5; draw line
G1 X23.2 Y15.1; draw line
G1 X22.6 Y14.7; draw line
G1 X22.4 Y14.0; draw back to polygon start
G1 F50.0; Z feedrate
G1 Z1.0; Z clearance height
G1 F1500.0; XY feedrate
G1 X25.0 Y14.0; move to polygon start
G1 F50.0; Z feedrate
G1 Z0.0; Z drawing height
G1 F1500.0; XY feedrate
G1 X25.3 Y13.5; draw line
G1 X25.9 Y13.3; draw line
G1 X25.7 Y13.4; draw line
G1 X25.3 Y13.9; draw line
G1 X25.3 Y14.5; draw line
G1 X25.9 Y14.9; draw line
G1 X26.4 Y14.6; draw line
G1 X26.5 Y14.1; draw line
G1 X26.4 Y13.7; draw line
G1 X26.1 Y13.5; draw line
G1 X25.9 Y13.3; draw line
G1 X26.6 Y13.6; draw line
G1 X26.7 Y13.9; draw line
G1 X26.6 Y14.5; draw line
G1 X26.2 Y15.2; draw line
G1 X26.7 Y16.4; draw line
G1 X27.2 Y16.7; draw line
G1 X27.4 Y17.2; draw line
G1 X27.3 Y17.7; draw line
G1 X27.1 Y18.1; draw line
G1 X26.5 Y18.2; draw line
G1 X25.9 Y18.0; draw line
G1 X25.7 Y17.5; draw line
G1 X25.7 Y17.0; draw line
G1 X25.9 Y17.1; draw line
G1 X25.9 Y17.6; draw line
G1 X26.6 Y18.1; draw line
G1 X27.1 Y17.8; draw line
G1 X27.2 Y17.3; draw line
G1 X27.1 Y16.9; draw line
G1 X26.8 Y16.7; draw line
G1 X26.4 Y16.6; draw line
G1 X25.7 Y17.0; draw line
G1 X26.1 Y16.3; draw line
G1 X26.0 Y15.5; draw line
G1 X25.7 Y15.1; draw line
G1 X25.1 Y14.7; draw line
G1 X25.0 Y14.0; draw back to polygon start
G1 F50.0; Z feedrate
G1 Z1.0; Z clearance height
G1 F1500.0; XY feedrate
G1 X27.5 Y14.0; move to polygon start
G1 F50.0; Z feedrate
G1 Z0.0; Z drawing height
G1 F1500.0; XY feedrate
G1 X27.8 Y13.5; draw line
G1 X28.4 Y13.3; draw line
G1 X28.3 Y13.4; draw line
G1 X27.8 Y13.9; draw line
G1 X27.8 Y14.5; draw line
G1 X28.4 Y14.9; draw line
G1 X28.9 Y14.6; draw line
G1 X29.0 Y14.1; draw line
G1 X28.9 Y13.7; draw line
G1 X28.6 Y13.5; draw line
G1 X28.4 Y13.3; draw line
G1 X29.1 Y13.6; draw line
G1 X29.2 Y13.9; draw line
G1 X29.2 Y14.5; draw line
G1 X28.7 Y15.2; draw line
G1 X29.2 Y16.4; draw line
G1 X29.7 Y16.7; draw line
G1 X29.9 Y17.2; draw line
G1 X29.8 Y17.7; draw line
G1 X29.6 Y18.1; draw line
G1 X29.0 Y18.2; draw line
G1 X29.1 Y18.1; draw line
G1 X29.6 Y17.8; draw line
G1 X29.7 Y17.3; draw line
G1 X29.6 Y16.9; draw line
G1 X29.3 Y16.7; draw line
G1 X28.9 Y16.6; draw line
G1 X28.4 Y17.1; draw line
G1 X28.4 Y17.6; draw line
G1 X29.0 Y18.2; draw line
G1 X28.4 Y18.0; draw line
G1 X28.2 Y17.5; draw line
G1 X28.3 Y17.0; draw line
G1 X28.6 Y16.3; draw line
G1 X28.5 Y15.5; draw line
G1 X28.3 Y15.1; draw line
G1 X27.7 Y14.7; draw line
G1 X27.5 Y14.0; draw back to polygon start
G1 F50.0; Z feedrate
G1 Z1.0; Z clearance height
G1 F1500.0; XY feedrate
G1 X30.1 Y14.0; move to polygon start
G1 F50.0; Z feedrate
G1 Z0.0; Z drawing height
G1 F1500.0; XY feedrate
G1 X30.4 Y13.5; draw line
G1 X31.2 Y13.3; draw line
G1 X31.7 Y13.6; draw line
G1 X31.5 Y13.7; draw line
G1 X31.2 Y13.5; draw line
G1 X30.8 Y13.4; draw line
G1 X30.4 Y13.9; draw line
G1 X30.4 Y14.5; draw line
G1 X31.0 Y14.9; draw line
G1 X31.5 Y14.6; draw line
G1 X31.6 Y14.1; draw line
G1 X31.7 Y13.6; draw line
G1 X31.8 Y14.0; draw line
G1 X31.7 Y15.0; draw line
G1 X32.5 Y16.4; draw line
G1 X33.2 Y16.6; draw line
G1 X33.1 Y16.7; draw line
G1 X32.7 Y16.6; draw line
G1 X32.2 Y17.1; draw line
G1 X32.2 Y17.6; draw line
G1 X32.9 Y18.1; draw line
G1 X33.4 Y17.8; draw line
G1 X33.5 Y17.3; draw line
G1 X33.4 Y16.9; draw line
G1 X33.2 Y16.6; draw line
G1 X33.7 Y17.1; draw line
G1 X33.7 Y17.6; draw line
G1 X33.2 Y18.1; draw line
G1 X32.6 Y18.2; draw line
G1 X32.1 Y17.9; draw line
G1 X32.0 Y16.9; draw line
G1 X32.1 Y16.5; draw line
G1 X31.3 Y15.1; draw line
G1 X30.5 Y14.9; draw line
G1 X30.2 Y14.6; draw line
G1 X30.1 Y14.0; draw back to polygon start
G1 F50.0; Z feedrate
G1 Z1.0; Z clearance height
G1 F1500.0; XY feedrate
G1 X32.6 Y14.0; move to polygon start
G1 F50.0; Z feedrate
G1 Z0.0; Z drawing height
G1 F1500.0; XY feedrate
G1 X32.9 Y13.5; draw line
G1 X33.4 Y13.3; draw line
G1 X33.4 Y13.4; draw line
G1 X32.9 Y13.9; draw line
G1 X32.9 Y14.5; draw line
G1 X33.5 Y14.9; draw line
G1 X34.0 Y14.6; draw line
G1 X34.1 Y14.1; draw line
G1 X34.0 Y13.7; draw line
G1 X33.7 Y13.5; draw line
G1 X33.4 Y13.3; draw line
G1 X34.1 Y13.6; draw line
G1 X34.3 Y14.5; draw line
G1 X34.2 Y14.9; draw line
G1 X35.2 Y16.4; draw line
G1 X35.3 Y16.6; draw line
G1 X34.8 Y17.1; draw line
G1 X34.8 Y17.6; draw line
G1 X35.5 Y18.1; draw line
G1 X35.9 Y17.8; draw line
G1 X36.1 Y17.3; draw line
G1 X35.9 Y16.9; draw line
G1 X35.6 Y16.7; draw line
G1 X35.2 Y16.4; draw line
G1 X35.6 Y16.4; draw line
G1 X36.2 Y16.9; draw line
G1 X36.2 Y17.7; draw line
G1 X35.9 Y18.1; draw line
G1 X35.2 Y18.2; draw line
G1 X34.7 Y17.9; draw line
G1 X34.6 Y17.5; draw line
G1 X34.6 Y16.4; draw line
G1 X33.7 Y15.1; draw line
G1 X33.2 Y15.1; draw line
G1 X32.7 Y14.6; draw line
G1 X32.6 Y14.0; draw back to polygon start
G1 F50.0; Z feedrate
G1 Z1.0; Z clearance height
G1 F1500.0; XY feedrate
G1 X35.1 Y14.0; move to polygon start
G1 F50.0; Z feedrate
G1 Z0.0; Z drawing height
G1 F1500.0; XY feedrate
G1 X35.4 Y13.5; draw line
G1 X35.9 Y13.3; draw line
G1 X35.9 Y13.4; draw line
G1 X35.4 Y13.9; draw line
G1 X35.4 Y14.5; draw line
G1 X36.1 Y14.9; draw line
G1 X36.5 Y14.6; draw line
G1 X36.7 Y14.1; draw line
G1 X36.5 Y13.7; draw line
G1 X36.2 Y13.5; draw line
G1 X35.9 Y13.3; draw line
G1 X36.7 Y13.6; draw line
G1 X36.8 Y14.5; draw line
G1 X36.7 Y14.9; draw line
G1 X37.7 Y16.4; draw line
G1 X37.8 Y16.6; draw line
G1 X37.3 Y17.1; draw line
G1 X37.3 Y17.6; draw line
G1 X38.0 Y18.1; draw line
G1 X38.5 Y17.8; draw line
G1 X38.6 Y17.3; draw line
G1 X38.5 Y16.9; draw line
G1 X38.2 Y16.7; draw line
G1 X37.7 Y16.4; draw line
G1 X38.2 Y16.4; draw line
G1 X38.7 Y16.9; draw line
G1 X38.7 Y17.7; draw line
G1 X38.5 Y18.1; draw line
G1 X37.7 Y18.2; draw line
G1 X37.2 Y17.9; draw line
G1 X37.1 Y17.5; draw line
G1 X37.1 Y16.4; draw line
G1 X36.2 Y15.1; draw line
G1 X35.8 Y15.1; draw line
G1 X35.2 Y14.6; draw line
G1 X35.1 Y14.0; draw back to polygon start
G1 F50.0; Z feedrate
G1 Z1.0; Z clearance height
G1 F1500.0; XY feedrate
G1 X37.7 Y14.0; move to polygon start
G1 F50.0; Z feedrate
G1 Z0.0; Z drawing height
G1 F1500.0; XY feedrate
G1 X38.0 Y13.5; draw line
G1 X38.8 Y13.3; draw line
G1 X39.3 Y13.6; draw line
G1 X39.1 Y13.7; draw line
G1 X38.8 Y13.5; draw line
G1 X38.5 Y13.4; draw line
G1 X38.0 Y13.9; draw line
G1 X38.0 Y14.5; draw line
G1 X38.6 Y14.9; draw line
G1 X39.1 Y14.6; draw line
G1 X39.2 Y14.1; draw line
G1 X39.3 Y13.6; draw line
G1 X39.4 Y14.0; draw line
G1 X39.3 Y15.0; draw line
G1 X40.1 Y16.4; draw line
G1 X40.9 Y16.6; draw line
G1 X40.7 Y16.7; draw line
G1 X40.3 Y16.6; draw line
G1 X39.8 Y17.1; draw line
G1 X39.8 Y17.6; draw line
G1 X40.5 Y18.1; draw line
G1 X41.0 Y17.8; draw line
G1 X41.1 Y17.3; draw line
G1 X41.0 Y16.9; draw line
G1 X40.9 Y16.6; draw line
G1 X41.3 Y17.1; draw line
G1 X41.3 Y17.6; draw line
G1 X40.9 Y18.1; draw line
G1 X40.2 Y18.2; draw line
G1 X39.7 Y17.9; draw line
G1 X39.6 Y16.9; draw line
G1 X39.7 Y16.5; draw line
G1 X38.9 Y15.1; draw line
G1 X38.1 Y14.9; draw line
G1 X37.8 Y14.6; draw line
G1 X37.7 Y14.0; draw back to polygon start
G1 F50.0; Z feedrate
G1 Z1.0; Z clearance height
G1 F1500.0; XY feedrate
G1 X42.7 Y14.0; move to polygon start
G1 F50.0; Z feedrate
G1 Z0.0; Z drawing height
G1 F1500.0; XY feedrate
G1 X43.1 Y13.4; draw line
G1 X43.5 Y13.3; draw line
G1 X43.5 Y13.4; draw line
G1 X43.0 Y13.9; draw line
G1 X43.0 Y14.5; draw line
G1 X43.7 Y14.9; draw line
G1 X44.2 Y14.6; draw line
G1 X44.3 Y14.1; draw line
G1 X44.2 Y13.7; draw line
G1 X43.9 Y13.5; draw line
G1 X43.5 Y13.3; draw line
G1 X44.1 Y13.4; draw line
G1 X44.5 Y14.0; draw line
G1 X44.4 Y14.5; draw line
G1 X44.2 Y14.9; draw line
G1 X43.7 Y15.1; draw line
G1 X43.2 Y14.9; draw line
G1 X42.8 Y14.3; draw line
G1 X42.7 Y14.0; draw back to polygon start
G1 F50.0; Z feedrate
G1 Z1.0; Z clearance height
G1 F1500.0; XY feedrate
G1 X45.3 Y14.0; move to polygon start
G1 F50.0; Z feedrate
G1 Z0.0; Z drawing height
G1 F1500.0; XY feedrate
G1 X45.7 Y13.4; draw line
G1 X46.1 Y13.3; draw line
G1 X46.1 Y13.4; draw line
G1 X45.6 Y13.9; draw line
G1 X45.6 Y14.5; draw line
G1 X46.3 Y14.9; draw line
G1 X46.7 Y14.6; draw line
G1 X46.9 Y14.1; draw line
G1 X46.7 Y13.7; draw line
G1 X46.4 Y13.5; draw line
G1 X46.1 Y13.3; draw line
G1 X46.7 Y13.4; draw line
G1 X47.0 Y14.0; draw line
G1 X47.0 Y14.5; draw line
G1 X46.7 Y14.9; draw line
G1 X46.3 Y15.1; draw line
G1 X45.8 Y14.9; draw line
G1 X45.4 Y14.3; draw line
G1 X45.3 Y14.0; draw back to polygon start
G1 F50.0; Z feedrate
G1 Z1.0; Z clearance height
G1 F1500.0; XY feedrate
G1 X47.8 Y14.0; move to polygon start
G1 F50.0; Z feedrate
G1 Z0.0; Z drawing height
G1 F1500.0; XY feedrate
G1 X48.2 Y13.4; draw line
G1 X48.6 Y13.3; draw line
G1 X48.6 Y13.4; draw line
G1 X48.1 Y13.9; draw line
G1 X48.1 Y14.5; draw line
G1 X48.8 Y14.9; draw line
G1 X49.3 Y14.6; draw line
G1 X49.4 Y14.1; draw line
G1 X49.3 Y13.7; draw line
G1 X49.0 Y13.5; draw line
G1 X48.6 Y13.3; draw line
G1 X49.2 Y13.4; draw line
G1 X49.6 Y14.0; draw line
G1 X49.5 Y14.5; draw line
G1 X49.3 Y14.9; draw line
G1 X48.8 Y15.1; draw line
G1 X48.3 Y14.9; draw line
G1 X47.9 Y14.3; draw line
G1 X47.8 Y14.0; draw back to polygon start
G1 F50.0; Z feedrate
G1 Z1.0; Z clearance height
G1 F1500.0; XY feedrate
G1 X50.3 Y14.0; move to polygon start
G1 F50.0; Z feedrate
G1 Z0.0; Z drawing height
G1 F1500.0; XY feedrate
G1 X50.7 Y13.4; draw line
G1 X51.1 Y13.3; draw line
G1 X51.1 Y13.4; draw line
G1 X50.6 Y13.9; draw line
G1 X50.6 Y14.5; draw line
G1 X51.3 Y14.9; draw line
G1 X51.8 Y14.6; draw line
G1 X51.9 Y14.1; draw line
G1 X51.8 Y13.7; draw line
G1 X51.5 Y13.5; draw line
G1 X51.1 Y13.3; draw line
G1 X51.7 Y13.4; draw line
G1 X52.1 Y14.0; draw line
G1 X52.0 Y14.5; draw line
G1 X51.8 Y14.9; draw line
G1 X51.4 Y15.1; draw line
G1 X50.8 Y14.9; draw line
G1 X50.4 Y14.3; draw line
G1 X50.3 Y14.0; draw back to polygon start
G1 F50.0; Z feedrate
G1 Z1.0; Z clearance height
G1 F1500.0; XY feedrate
G1 X52.9 Y14.0; move to polygon start
G1 F50.0; Z feedrate
G1 Z0.0; Z drawing height
G1 F1500.0; XY feedrate
G1 X53.3 Y13.4; draw line
G1 X53.7 Y13.3; draw line
G1 X53.7 Y13.4; draw line
G1 X53.2 Y13.9; draw line
G1 X53.2 Y14.5; draw line
G1 X53.9 Y14.9; draw line
G1 X54.4 Y14.6; draw line
G1 X54.5 Y14.1; draw line
G1 X54.4 Y13.7; draw line
G1 X54.1 Y13.5; draw line
G1 X53.7 Y13.3; draw line
G1 X54.3 Y13.4; draw line
G1 X54.7 Y14.0; draw line
G1 X54.6 Y14.5; draw line
G1 X54.4 Y14.9; draw line
G1 X53.9 Y15.1; draw line
G1 X53.4 Y14.9; draw line
G1 X53.0 Y14.3; draw line
G1 X52.9 Y14.0; draw back to polygon start
G1 F50.0; Z feedrate
G1 Z1.0; Z clearance height
G1 F1500.0; XY feedrate
G1 X52.6 Y18.5; move to polygon start
G1 F50.0; Z feedrate
G1 Z0.0; Z drawing height
G1 F1500.0; XY feedrate
G1 X52.9 Y17.9; draw line
G1 X53.5 Y17.8; draw line
G1 X54.0 Y17.9; draw line
G1 X55.0 Y17.1; draw line
G1 X58.5 Y15.8; draw line
G1 X58.6 Y15.5; draw line
G1 X58.4 Y14.9; draw line
G1 X58.0 Y14.4; draw line
G1 X58.1 Y13.7; draw line
G1 X58.3 Y13.4; draw line
G1 X59.1 Y13.3; draw line
G1 X59.6 Y13.6; draw line
G1 X59.4 Y13.7; draw line
G1 X59.1 Y13.5; draw line
G1 X58.7 Y13.4; draw line
G1 X58.3 Y13.9; draw line
G1 X58.3 Y14.5; draw line
G1 X58.9 Y14.9; draw line
G1 X59.4 Y14.6; draw line
G1 X59.5 Y14.1; draw line
G1 X59.6 Y13.6; draw line
G1 X59.8 Y14.1; draw line
G1 X59.6 Y14.6; draw line
G1 X59.1 Y15.3; draw line
G1 X59.1 Y16.0; draw line
G1 X58.9 Y16.3; draw line
G1 X55.0 Y17.8; draw line
G1 X54.4 Y18.2; draw line
G1 X54.2 Y18.5; draw line
G1 X54.1 Y18.5; draw line
G1 X54.0 Y18.2; draw line
G1 X53.7 Y17.9; draw line
G1 X53.3 Y17.9; draw line
G1 X52.9 Y18.4; draw line
G1 X52.9 Y18.9; draw line
G1 X53.5 Y19.3; draw line
G1 X54.0 Y19.0; draw line
G1 X54.2 Y18.5; draw line
G1 X54.2 Y19.0; draw line
G1 X54.0 Y19.4; draw line
G1 X54.2 Y20.2; draw line
G1 X54.5 Y20.7; draw line
G1 X55.4 Y21.1; draw line
G1 X56.2 Y20.8; draw line
G1 X56.9 Y21.0; draw line
G1 X59.5 Y19.6; draw line
G1 X66.0 Y19.7; draw line
G1 X66.4 Y21.1; draw line
G1 X66.7 Y21.5; draw line
G1 X66.7 Y22.2; draw line
G1 X66.3 Y22.6; draw line
G1 X65.9 Y22.7; draw line
G1 X65.9 Y22.5; draw line
G1 X66.4 Y22.2; draw line
G1 X66.5 Y21.7; draw line
G1 X66.4 Y21.4; draw line
G1 X66.1 Y21.1; draw line
G1 X65.8 Y21.1; draw line
G1 X65.3 Y21.5; draw line
G1 X65.3 Y22.1; draw line
G1 X65.9 Y22.7; draw line
G1 X65.5 Y22.6; draw line
G1 X65.2 Y22.3; draw line
G1 X65.0 Y21.4; draw line
G1 X65.5 Y20.9; draw line
G1 X65.8 Y20.8; draw line
G1 X65.8 Y20.3; draw line
G1 X65.3 Y20.0; draw line
G1 X59.6 Y20.1; draw line
G1 X57.0 Y21.6; draw line
G1 X56.7 Y22.3; draw line
G1 X56.0 Y22.5; draw line
G1 X56.2 Y22.4; draw line
G1 X56.6 Y22.1; draw line
G1 X56.8 Y21.6; draw line
G1 X56.6 Y21.2; draw line
G1 X56.3 Y21.0; draw line
G1 X56.0 Y20.9; draw line
G1 X55.5 Y21.4; draw line
G1 X55.5 Y22.0; draw line
G1 X56.0 Y22.5; draw line
G1 X55.4 Y22.2; draw line
G1 X55.2 Y21.5; draw line
G1 X53.9 Y20.9; draw line
G1 X53.4 Y19.5; draw line
G1 X52.8 Y19.1; draw line
G1 X52.6 Y18.5; draw back to polygon start
G1 F50.0; Z feedrate
G1 Z1.0; Z clearance height
G1 F1500.0; XY feedrate
G1 X55.3 Y19.0; move to polygon start
G1 F50.0; Z feedrate
G1 Z0.0; Z drawing height
G1 F1500.0; XY feedrate
G1 X55.5 Y18.5; draw line
G1 X56.1 Y18.3; draw line
G1 X56.0 Y18.4; draw line
G1 X55.5 Y18.9; draw line
G1 X55.5 Y19.4; draw line
G1 X56.2 Y19.9; draw line
G1 X56.6 Y19.6; draw line
G1 X56.8 Y19.1; draw line
G1 X56.6 Y18.7; draw line
G1 X56.3 Y18.5; draw line
G1 X56.1 Y18.3; draw line
G1 X56.9 Y18.4; draw line
G1 X58.1 Y17.9; draw line
G1 X67.3 Y18.1; draw line
G1 X68.0 Y19.4; draw line
G1 X68.5 Y20.9; draw line
G1 X69.1 Y21.2; draw line
G1 X68.9 Y21.4; draw line
G1 X68.6 Y21.1; draw line
G1 X68.3 Y21.1; draw line
G1 X67.8 Y21.5; draw line
G1 X67.8 Y22.1; draw line
G1 X68.5 Y22.5; draw line
G1 X68.9 Y22.2; draw line
G1 X69.1 Y21.7; draw line
G1 X69.1 Y21.2; draw line
G1 X69.2 Y22.1; draw line
G1 X69.0 Y22.6; draw line
G1 X68.8 Y22.8; draw line
G1 X68.6 Y22.9; draw line
G1 X68.6 Y22.8; draw line
G1 X69.0 Y22.6; draw line
G1 X69.5 Y22.9; draw line
G1 X73.7 Y22.9; draw line
G1 X73.9 Y22.5; draw line
G1 X73.9 Y19.1; draw line
G1 X71.8 Y15.1; draw line
G1 X71.6 Y14.9; draw line
G1 X72.1 Y14.6; draw line
G1 X72.2 Y14.1; draw line
G1 X72.1 Y13.7; draw line
G1 X71.8 Y13.5; draw line
G1 X71.5 Y13.4; draw line
G1 X71.0 Y13.9; draw line
G1 X71.0 Y14.5; draw line
G1 X71.8 Y15.1; draw line
G1 X71.3 Y15.1; draw line
G1 X70.6 Y14.3; draw line
G1 X70.0 Y14.4; draw line
G1 X69.5 Y14.9; draw line
G1 X68.8 Y15.1; draw line
G1 X68.3 Y14.7; draw line
G1 X68.2 Y13.9; draw line
G1 X68.8 Y13.3; draw line
G1 X69.4 Y13.3; draw line
G1 X69.3 Y13.5; draw line
G1 X68.9 Y13.4; draw line
G1 X68.5 Y13.9; draw line
G1 X68.5 Y14.5; draw line
G1 X69.1 Y14.9; draw line
G1 X69.6 Y14.6; draw line
G1 X69.7 Y14.1; draw line
G1 X69.6 Y13.7; draw line
G1 X69.4 Y13.3; draw line
G1 X70.1 Y14.0; draw line
G1 X70.6 Y14.0; draw line
G1 X71.0 Y13.4; draw line
G1 X71.8 Y13.3; draw line
G1 X72.3 Y13.6; draw line
G1 X72.5 Y14.1; draw line
G1 X72.2 Y14.9; draw line
G1 X74.4 Y19.0; draw line
G1 X83.6 Y19.0; draw line
G1 X84.2 Y18.4; draw line
G1 X85.3 Y17.9; draw line
G1 X85.6 Y17.3; draw line
G1 X85.4 Y16.4; draw line
G1 X85.6 Y16.1; draw line
G1 X86.2 Y15.8; draw line
G1 X86.8 Y16.1; draw line
G1 X86.7 Y16.3; draw line
G1 X86.4 Y16.0; draw line
G1 X86.0 Y16.0; draw line
G1 X85.6 Y16.4; draw line
G1 X85.6 Y17.0; draw line
G1 X86.2 Y17.4; draw line
G1 X86.7 Y17.1; draw line
G1 X86.8 Y16.6; draw line
G1 X86.8 Y16.1; draw line
G1 X86.9 Y17.0; draw line
G1 X86.8 Y17.3; draw line
G1 X85.9 Y17.6; draw line
G1 X85.6 Y18.2; draw line
G1 X86.2 Y19.3; draw line
G1 X86.5 Y19.4; draw line
G1 X90.2 Y19.4; draw line
G1 X91.2 Y18.4; draw line
G1 X91.9 Y18.1; draw line
G1 X91.8 Y18.5; draw line
G1 X91.3 Y19.0; draw line
G1 X91.3 Y19.5; draw line
G1 X92.0 Y19.9; draw line
G1 X92.5 Y19.6; draw line
G1 X92.6 Y19.9; draw line
G1 X92.8 Y19.6; draw line
G1 X92.8 Y18.7; draw line
G1 X92.7 Y18.5; draw line
G1 X95.8 Y18.4; draw line
G1 X100.4 Y16.4; draw line
G1 X102.8 Y15.1; draw line
G1 X103.0 Y15.3; draw line
G1 X103.6 Y14.7; draw line
G1 X103.7 Y15.7; draw line
G1 X103.4 Y15.5; draw line
G1 X103.3 Y15.8; draw line
G1 X101.0 Y16.9; draw line
G1 X103.7 Y15.7; draw line
G1 X103.9 Y15.9; draw line
G1 X98.9 Y18.3; draw line
G1 X95.5 Y19.6; draw line
G1 X95.3 Y19.2; draw line
G1 X93.5 Y19.2; draw line
G1 X95.8 Y19.1; draw line
G1 X95.5 Y19.6; draw line
G1 X93.2 Y19.6; draw line
G1 X93.2 Y18.8; draw line
G1 X95.9 Y18.7; draw line
G1 X100.3 Y16.9; draw line
G1 X102.8 Y15.1; draw line
G1 X103.1 Y14.5; draw line
G1 X103.7 Y14.3; draw line
G1 X104.3 Y14.3; draw line
G1 X104.0 Y14.6; draw line
G1 X104.0 Y15.5; draw line
G1 X104.5 Y16.0; draw line
G1 X99.4 Y18.5; draw line
G1 X95.6 Y19.9; draw line
G1 X92.5 Y19.6; draw line
G1 X92.6 Y19.1; draw line
G1 X92.5 Y18.8; draw line
G1 X92.2 Y18.5; draw line
G1 X91.9 Y18.1; draw line
G1 X95.6 Y18.0; draw line
G1 X100.1 Y16.1; draw line
G1 X102.5 Y14.9; draw line
G1 X102.8 Y14.2; draw line
G1 X103.6 Y13.9; draw line
G1 X110.3 Y14.0; draw line
G1 X110.8 Y14.4; draw line
G1 X111.7 Y16.7; draw line
G1 X111.7 Y25.9; draw line
G1 X111.4 Y26.3; draw line
G1 X110.8 Y26.6; draw line
G1 X104.3 Y26.6; draw line
G1 X103.7 Y26.2; draw line
G1 X104.0 Y25.9; draw line
G1 X104.6 Y26.3; draw line
G1 X105.1 Y26.0; draw line
G1 X105.4 Y26.2; draw line
G1 X105.6 Y25.6; draw line
G1 X105.9 Y25.3; draw line
G1 X105.8 Y25.3; draw line
G1 X105.8 Y25.2; draw line
G1 X105.6 Y25.6; draw line
G1 X105.3 Y24.8; draw line
G1 X106.5 Y24.8; draw line
G1 X106.3 Y25.1; draw line
G1 X106.3 Y26.2; draw line
G1 X105.1 Y26.0; draw line
G1 X105.2 Y25.6; draw line
G1 X105.1 Y25.2; draw line
G1 X104.8 Y25.0; draw line
G1 X104.5 Y24.9; draw line
G1 X104.0 Y25.4; draw line
G1 X103.7 Y26.2; draw line
G1 X103.6 Y25.8; draw line
G1 X103.6 Y25.2; draw line
G1 X103.8 Y24.8; draw line
G1 X104.5 Y24.5; draw line
G1 X109.5 Y24.4; draw line
G1 X109.4 Y16.8; draw line
G1 X109.0 Y16.1; draw line
G1 X105.0 Y16.2; draw line
G1 X99.7 Y18.7; draw line
G1 X95.8 Y20.3; draw line
G1 X92.3 Y20.3; draw line
G1 X91.7 Y21.2; draw line
G1 X91.0 Y21.5; draw line
G1 X85.6 Y21.5; draw line
G1 X84.8 Y21.0; draw line
G1 X82.9 Y22.9; draw line
G1 X82.8 Y25.7; draw line
G1 X83.6 Y26.3; draw line
G1 X83.7 Y27.1; draw line
G1 X83.1 Y27.7; draw line
G1 X80.3 Y27.7; draw line
G1 X79.8 Y27.1; draw line
G1 X79.9 Y26.4; draw line
G1 X80.5 Y25.8; draw line
G1 X80.8 Y26.0; draw line
G1 X81.0 Y25.4; draw line
G1 X81.3 Y25.4; draw line
G1 X81.4 Y22.3; draw line
G1 X83.4 Y20.0; draw line
G1 X83.6 Y19.6; draw line
G1 X83.9 Y20.2; draw line
G1 X83.6 Y20.3; draw line
G1 X83.7 Y20.5; draw line
G1 X82.0 Y22.4; draw line
G1 X81.7 Y23.2; draw line
G1 X81.7 Y22.4; draw line
G1 X83.9 Y20.2; draw line
G1 X84.4 Y20.5; draw line
G1 X82.3 Y22.5; draw line
G1 X82.1 Y23.5; draw line
G1 X82.1 Y25.4; draw line
G1 X81.0 Y25.4; draw line
G1 X81.0 Y22.3; draw line
G1 X81.4 Y21.7; draw line
G1 X83.1 Y19.9; draw line
G1 X83.1 Y19.3; draw line
G1 X83.9 Y19.2; draw line
G1 X84.1 Y19.9; draw line
G1 X84.4 Y20.1; draw line
G1 X85.0 Y20.3; draw line
G1 X85.7 Y19.8; draw line
G1 X85.9 Y19.4; draw line
G1 X86.5 Y19.7; draw line
G1 X90.3 Y19.7; draw line
G1 X90.9 Y19.2; draw line
G1 X91.1 Y19.9; draw line
G1 X91.9 Y20.3; draw line
G1 X91.4 Y21.0; draw line
G1 X90.9 Y21.2; draw line
G1 X85.6 Y21.1; draw line
G1 X84.8 Y20.6; draw line
G1 X84.2 Y20.9; draw line
G1 X82.6 Y22.7; draw line
G1 X82.4 Y23.3; draw line
G1 X82.4 Y25.7; draw line
G1 X83.3 Y26.6; draw line
G1 X83.3 Y27.0; draw line
G1 X83.2 Y27.2; draw line
G1 X82.6 Y27.4; draw line
G1 X82.7 Y26.5; draw line
G1 X82.4 Y26.0; draw line
G1 X81.5 Y25.7; draw line
G1 X80.9 Y26.2; draw line
G1 X80.8 Y27.3; draw line
G1 X80.5 Y27.3; draw line
G1 X80.2 Y27.1; draw line
G1 X80.2 Y26.6; draw line
G1 X80.5 Y25.8; draw line
G1 X80.6 Y25.5; draw line
G1 X80.6 Y22.3; draw line
G1 X81.0 Y21.5; draw line
G1 X82.8 Y19.7; draw line
G1 X82.7 Y19.4; draw line
G1 X74.4 Y19.4; draw line
G1 X74.3 Y19.7; draw line
G1 X74.2 Y23.2; draw line
G1 X68.6 Y23.2; draw line
G1 X68.5 Y23.8; draw line
G1 X63.2 Y23.7; draw line
G1 X63.1 Y22.8; draw line
G1 X62.6 Y22.3; draw line
G1 X62.5 Y21.5; draw line
G1 X62.9 Y21.0; draw line
G1 X63.6 Y20.9; draw line
G1 X63.5 Y21.1; draw line
G1 X63.2 Y21.1; draw line
G1 X62.7 Y21.5; draw line
G1 X62.7 Y22.1; draw line
G1 X63.4 Y22.5; draw line
G1 X63.8 Y22.2; draw line
G1 X64.0 Y21.7; draw line
G1 X63.8 Y21.4; draw line
G1 X63.6 Y20.9; draw line
G1 X64.0 Y21.2; draw line
G1 X64.1 Y21.5; draw line
G1 X64.1 Y22.1; draw line
G1 X63.6 Y22.7; draw line
G1 X63.5 Y23.3; draw line
G1 X63.9 Y23.5; draw line
G1 X68.0 Y23.5; draw line
G1 X68.1 Y22.7; draw line
G1 X67.7 Y22.3; draw line
G1 X67.6 Y22.0; draw line
G1 X67.6 Y21.4; draw line
G1 X68.0 Y20.9; draw line
G1 X67.4 Y19.0; draw line
G1 X67.0 Y18.5; draw line
G1 X58.9 Y18.4; draw line
G1 X58.1 Y18.4; draw line
G1 X57.0 Y19.0; draw line
G1 X56.6 Y19.8; draw line
G1 X56.0 Y19.9; draw line
G1 X55.4 Y19.7; draw line
G1 X55.3 Y19.0; draw back to polygon start
G1 F50.0; Z feedrate
G1 Z1.0; Z clearance height
G1 F1500.0; XY feedrate
G1 X56.2 Y25.4; move to polygon start
G1 F50.0; Z feedrate
G1 Z0.0; Z drawing height
G1 F1500.0; XY feedrate
G1 X56.4 Y25.0; draw line
G1 X57.1 Y24.7; draw line
G1 X58.0 Y25.4; draw line
G1 X58.7 Y25.3; draw line
G1 X59.0 Y24.9; draw line
G1 X59.6 Y24.7; draw line
G1 X60.2 Y25.0; draw line
G1 X60.3 Y25.9; draw line
G1 X60.1 Y26.2; draw line
G1 X59.5 Y26.4; draw line
G1 X59.6 Y26.3; draw line
G1 X60.1 Y26.0; draw line
G1 X60.2 Y25.5; draw line
G1 X60.1 Y25.1; draw line
G1 X59.8 Y24.9; draw line
G1 X59.4 Y24.8; draw line
G1 X58.9 Y25.3; draw line
G1 X58.9 Y25.9; draw line
G1 X59.5 Y26.4; draw line
G1 X58.5 Y25.7; draw line
G1 X57.9 Y25.7; draw line
G1 X57.5 Y26.2; draw line
G1 X56.9 Y26.3; draw line
G1 X57.1 Y26.3; draw line
G1 X57.5 Y26.0; draw line
G1 X57.7 Y25.5; draw line
G1 X57.5 Y25.1; draw line
G1 X57.2 Y24.9; draw line
G1 X56.9 Y24.8; draw line
G1 X56.4 Y25.3; draw line
G1 X56.4 Y25.9; draw line
G1 X56.9 Y26.3; draw line
G1 X56.3 Y26.1; draw line
G1 X56.2 Y25.4; draw back to polygon start
G1 F50.0; Z feedrate
G1 Z1.0; Z clearance height
G1 F1500.0; XY feedrate
G1 X60.6 Y28.0; move to polygon start
G1 F50.0; Z feedrate
G1 Z0.0; Z drawing height
G1 F1500.0; XY feedrate
G1 X60.8 Y27.5; draw line
G1 X61.5 Y27.0; draw line
G1 X61.6 Y26.3; draw line
G1 X61.3 Y25.9; draw line
G1 X61.3 Y25.3; draw line
G1 X61.9 Y24.7; draw line
G1 X61.9 Y24.8; draw line
G1 X61.4 Y25.3; draw line
G1 X61.4 Y25.9; draw line
G1 X62.1 Y26.3; draw line
G1 X62.6 Y26.0; draw line
G1 X62.7 Y25.5; draw line
G1 X62.6 Y25.1; draw line
G1 X62.3 Y24.9; draw line
G1 X61.9 Y24.7; draw line
G1 X62.3 Y24.7; draw line
G1 X63.1 Y25.4; draw line
G1 X63.8 Y25.3; draw line
G1 X64.0 Y25.0; draw line
G1 X64.7 Y24.7; draw line
G1 X65.6 Y25.4; draw line
G1 X66.3 Y25.3; draw line
G1 X66.6 Y24.9; draw line
G1 X67.4 Y24.7; draw line
G1 X67.8 Y25.0; draw line
G1 X67.9 Y25.9; draw line
G1 X67.7 Y26.2; draw line
G1 X67.1 Y26.4; draw line
G1 X67.2 Y26.3; draw line
G1 X67.7 Y26.0; draw line
G1 X67.8 Y25.5; draw line
G1 X67.7 Y25.1; draw line
G1 X67.4 Y24.9; draw line
G1 X67.0 Y24.8; draw line
G1 X66.5 Y25.3; draw line
G1 X66.5 Y25.9; draw line
G1 X67.1 Y26.4; draw line
G1 X66.5 Y26.1; draw line
G1 X66.2 Y25.7; draw line
G1 X65.4 Y25.9; draw line
G1 X65.2 Y26.2; draw line
G1 X64.6 Y26.4; draw line
G1 X64.7 Y26.3; draw line
G1 X65.2 Y26.0; draw line
G1 X65.3 Y25.5; draw line
G1 X65.2 Y25.1; draw line
G1 X64.9 Y24.9; draw line
G1 X64.5 Y24.8; draw line
G1 X64.0 Y25.3; draw line
G1 X64.0 Y25.9; draw line
G1 X64.6 Y26.4; draw line
G1 X64.0 Y26.1; draw line
G1 X63.7 Y25.7; draw line
G1 X62.8 Y25.9; draw line
G1 X62.0 Y26.6; draw line
G1 X62.0 Y27.4; draw line
G1 X62.2 Y27.8; draw line
G1 X62.2 Y28.5; draw line
G1 X62.0 Y28.5; draw line
G1 X62.1 Y28.0; draw line
G1 X62.0 Y27.7; draw line
G1 X61.7 Y27.4; draw line
G1 X61.3 Y27.4; draw line
G1 X60.8 Y27.8; draw line
G1 X60.8 Y28.4; draw line
G1 X61.5 Y28.8; draw line
G1 X62.2 Y28.5; draw line
G1 X62.0 Y28.7; draw line
G1 X61.3 Y28.9; draw line
G1 X60.8 Y28.6; draw line
G1 X60.6 Y28.0; draw back to polygon start
G1 F50.0; Z feedrate
G1 Z1.0; Z clearance height
G1 F1500.0; XY feedrate
G1 X61.2 Y38.2; move to polygon start
G1 F50.0; Z feedrate
G1 Z0.0; Z drawing height
G1 F1500.0; XY feedrate
G1 X61.6 Y37.6; draw line
G1 X62.1 Y37.4; draw line
G1 X62.7 Y37.8; draw line
G1 X62.6 Y37.9; draw line
G1 X62.3 Y37.6; draw line
G1 X61.9 Y37.6; draw line
G1 X61.4 Y38.0; draw line
G1 X61.4 Y38.6; draw line
G1 X62.1 Y39.0; draw line
G1 X62.6 Y38.7; draw line
G1 X62.7 Y38.2; draw line
G1 X62.7 Y37.8; draw line
G1 X62.8 Y38.6; draw line
G1 X62.5 Y38.9; draw line
G1 X61.9 Y39.1; draw line
G1 X61.4 Y38.8; draw line
G1 X61.2 Y38.2; draw back to polygon start
G1 F50.0; Z feedrate
G1 Z1.0; Z clearance height
G1 F1500.0; XY feedrate
G1 X58.7 Y38.2; move to polygon start
G1 F50.0; Z feedrate
G1 Z0.0; Z drawing height
G1 F1500.0; XY feedrate
G1 X59.1 Y37.6; draw line
G1 X59.6 Y37.4; draw line
G1 X60.2 Y37.8; draw line
G1 X60.1 Y37.9; draw line
G1 X59.8 Y37.6; draw line
G1 X59.4 Y37.6; draw line
G1 X58.9 Y38.0; draw line
G1 X58.9 Y38.6; draw line
G1 X59.6 Y39.0; draw line
G1 X60.1 Y38.7; draw line
G1 X60.2 Y38.2; draw line
G1 X60.2 Y37.8; draw line
G1 X60.3 Y38.6; draw line
G1 X60.0 Y38.9; draw line
G1 X59.4 Y39.1; draw line
G1 X58.9 Y38.8; draw line
G1 X58.7 Y38.2; draw back to polygon start
G1 F50.0; Z feedrate
G1 Z1.0; Z clearance height
G1 F1500.0; XY feedrate
G1 X56.2 Y38.2; move to polygon start
G1 F50.0; Z feedrate
G1 Z0.0; Z drawing height
G1 F1500.0; XY feedrate
G1 X56.6 Y37.6; draw line
G1 X57.1 Y37.4; draw line
G1 X57.7 Y37.8; draw line
G1 X57.5 Y37.9; draw line
G1 X57.2 Y37.6; draw line
G1 X56.9 Y37.6; draw line
G1 X56.4 Y38.0; draw line
G1 X56.4 Y38.6; draw line
G1 X57.1 Y39.0; draw line
G1 X57.5 Y38.7; draw line
G1 X57.7 Y38.2; draw line
G1 X57.7 Y37.8; draw line
G1 X57.8 Y38.6; draw line
G1 X57.5 Y38.9; draw line
G1 X56.9 Y39.1; draw line
G1 X56.3 Y38.8; draw line
G1 X56.2 Y38.2; draw back to polygon start
G1 F50.0; Z feedrate
G1 Z1.0; Z clearance height
G1 F1500.0; XY feedrate
G1 X53.6 Y38.1; move to polygon start
G1 F50.0; Z feedrate
G1 Z0.0; Z drawing height
G1 F1500.0; XY feedrate
G1 X53.8 Y37.7; draw line
G1 X54.6 Y37.2; draw line
G1 X55.4 Y36.4; draw line
G1 X55.5 Y34.9; draw line
G1 X57.2 Y35.0; draw line
G1 X57.4 Y35.5; draw line
G1 X60.6 Y35.5; draw line
G1 X61.3 Y34.9; draw line
G1 X61.3 Y35.0; draw line
G1 X60.8 Y35.5; draw line
G1 X60.8 Y36.0; draw line
G1 X61.5 Y36.4; draw line
G1 X62.0 Y36.1; draw line
G1 X62.1 Y35.6; draw line
G1 X62.0 Y35.3; draw line
G1 X61.7 Y35.0; draw line
G1 X61.3 Y34.9; draw line
G1 X61.9 Y35.0; draw line
G1 X62.5 Y35.5; draw line
G1 X63.0 Y35.5; draw line
G1 X63.4 Y35.5; draw line
G1 X63.4 Y36.0; draw line
G1 X64.0 Y36.4; draw line
G1 X64.5 Y36.1; draw line
G1 X64.6 Y35.6; draw line
G1 X64.5 Y35.3; draw line
G1 X64.2 Y35.0; draw line
G1 X63.8 Y35.0; draw line
G1 X63.0 Y35.5; draw line
G1 X63.2 Y34.9; draw line
G1 X64.8 Y35.0; draw line
G1 X64.8 Y36.5; draw line
G1 X63.1 Y36.5; draw line
G1 X62.9 Y35.9; draw line
G1 X62.2 Y36.0; draw line
G1 X62.0 Y36.4; draw line
G1 X61.4 Y36.5; draw line
G1 X60.7 Y36.2; draw line
G1 X60.5 Y35.9; draw line
G1 X57.4 Y35.9; draw line
G1 X57.0 Y35.6; draw line
G1 X56.9 Y35.3; draw line
G1 X56.3 Y35.0; draw line
G1 X55.8 Y35.3; draw line
G1 X55.7 Y36.0; draw line
G1 X56.4 Y36.4; draw line
G1 X56.9 Y36.1; draw line
G1 X57.4 Y35.9; draw line
G1 X57.2 Y36.5; draw line
G1 X55.7 Y36.5; draw line
G1 X55.0 Y37.4; draw line
G1 X55.2 Y38.0; draw line
G1 X55.2 Y38.6; draw line
G1 X55.0 Y38.9; draw line
G1 X54.4 Y39.1; draw line
G1 X54.5 Y39.0; draw line
G1 X55.0 Y38.7; draw line
G1 X55.1 Y38.2; draw line
G1 X55.0 Y37.9; draw line
G1 X54.7 Y37.6; draw line
G1 X54.3 Y37.6; draw line
G1 X53.8 Y38.0; draw line
G1 X53.8 Y38.6; draw line
G1 X54.4 Y39.1; draw line
G1 X53.8 Y38.8; draw line
G1 X53.6 Y38.1; draw back to polygon start
G1 F50.0; Z feedrate
G1 Z1.0; Z clearance height
G1 F1500.0; XY feedrate
G1 X48.8 Y38.6; move to polygon start
G1 F50.0; Z feedrate
G1 Z0.0; Z drawing height
G1 F1500.0; XY feedrate
G1 X49.4 Y39.0; draw line
G1 X49.9 Y38.7; draw line
G1 X50.0 Y38.2; draw line
G1 X49.9 Y37.9; draw line
G1 X49.6 Y37.6; draw line
G1 X49.3 Y37.6; draw line
G1 X48.8 Y38.0; draw line
G1 X48.8 Y38.6; draw back to polygon start
G1 F50.0; Z feedrate
G1 Z1.0; Z clearance height
G1 F1500.0; XY feedrate
G1 X46.2 Y38.6; move to polygon start
G1 F50.0; Z feedrate
G1 Z0.0; Z drawing height
G1 F1500.0; XY feedrate
G1 X46.9 Y39.0; draw line
G1 X47.3 Y38.7; draw line
G1 X47.5 Y38.2; draw line
G1 X47.3 Y37.9; draw line
G1 X47.0 Y37.6; draw line
G1 X46.7 Y37.6; draw line
G1 X46.2 Y38.0; draw line
G1 X46.2 Y38.6; draw back to polygon start
G1 F50.0; Z feedrate
G1 Z1.0; Z clearance height
G1 F1500.0; XY feedrate
G1 X46.6 Y40.0; move to polygon start
G1 F50.0; Z feedrate
G1 Z0.0; Z drawing height
G1 F1500.0; XY feedrate
G1 X46.9 Y39.7; draw line
G1 X47.0 Y40.1; draw line
G1 X46.6 Y40.0; draw back to polygon start
G1 F50.0; Z feedrate
G1 Z1.0; Z clearance height
G1 F1500.0; XY feedrate
G1 X44.7 Y41.9; move to polygon start
G1 F50.0; Z feedrate
G1 Z0.0; Z drawing height
G1 F1500.0; XY feedrate
G1 X44.9 Y41.5; draw line
G1 X45.6 Y41.2; draw line
G1 X46.5 Y41.9; draw line
G1 X47.2 Y41.8; draw line
G1 X47.5 Y41.4; draw line
G1 X48.1 Y41.2; draw line
G1 X48.7 Y41.5; draw line
G1 X48.8 Y42.4; draw line
G1 X48.7 Y42.7; draw line
G1 X48.0 Y42.9; draw line
G1 X48.1 Y42.8; draw line
G1 X48.6 Y42.5; draw line
G1 X48.7 Y42.0; draw line
G1 X48.6 Y41.6; draw line
G1 X48.3 Y41.4; draw line
G1 X47.9 Y41.3; draw line
G1 X47.5 Y41.8; draw line
G1 X47.5 Y42.4; draw line
G1 X48.0 Y42.9; draw line
G1 X47.0 Y42.2; draw line
G1 X46.4 Y42.2; draw line
G1 X46.0 Y42.7; draw line
G1 X45.4 Y42.8; draw line
G1 X45.6 Y42.8; draw line
G1 X46.1 Y42.5; draw line
G1 X46.2 Y42.0; draw line
G1 X46.1 Y41.6; draw line
G1 X45.8 Y41.4; draw line
G1 X45.4 Y41.3; draw line
G1 X44.9 Y41.8; draw line
G1 X44.9 Y42.4; draw line
G1 X45.4 Y42.8; draw line
G1 X44.9 Y42.6; draw line
G1 X44.7 Y41.9; draw back to polygon start
G1 F50.0; Z feedrate
G1 Z1.0; Z clearance height
G1 F1500.0; XY feedrate
G1 X43.4 Y38.2; move to polygon start
G1 F50.0; Z feedrate
G1 Z0.0; Z drawing height
G1 F1500.0; XY feedrate
G1 X43.9 Y37.6; draw line
G1 X44.3 Y37.4; draw line
G1 X44.9 Y37.8; draw line
G1 X44.8 Y37.9; draw line
G1 X44.5 Y37.6; draw line
G1 X44.2 Y37.6; draw line
G1 X43.7 Y38.0; draw line
G1 X43.7 Y38.6; draw line
G1 X44.3 Y39.0; draw line
G1 X44.8 Y38.7; draw line
G1 X44.9 Y38.2; draw line
G1 X44.9 Y37.8; draw line
G1 X45.1 Y38.6; draw line
G1 X44.8 Y38.9; draw line
G1 X44.2 Y39.1; draw line
G1 X43.6 Y38.8; draw line
G1 X43.4 Y38.2; draw back to polygon start
G1 F50.0; Z feedrate
G1 Z1.0; Z clearance height
G1 F1500.0; XY feedrate
G1 X40.9 Y38.2; move to polygon start
G1 F50.0; Z feedrate
G1 Z0.0; Z drawing height
G1 F1500.0; XY feedrate
G1 X41.3 Y37.6; draw line
G1 X41.8 Y37.4; draw line
G1 X42.4 Y37.8; draw line
G1 X42.3 Y37.9; draw line
G1 X42.0 Y37.6; draw line
G1 X41.6 Y37.6; draw line
G1 X41.2 Y38.0; draw line
G1 X41.2 Y38.6; draw line
G1 X41.8 Y39.0; draw line
G1 X42.3 Y38.7; draw line
G1 X42.4 Y38.2; draw line
G1 X42.4 Y37.8; draw line
G1 X42.5 Y38.6; draw line
G1 X42.2 Y38.9; draw line
G1 X41.6 Y39.1; draw line
G1 X41.1 Y38.8; draw line
G1 X40.9 Y38.2; draw back to polygon start
G1 F50.0; Z feedrate
G1 Z1.0; Z clearance height
G1 F1500.0; XY feedrate
G1 X38.3 Y38.2; move to polygon start
G1 F50.0; Z feedrate
G1 Z0.0; Z drawing height
G1 F1500.0; XY feedrate
G1 X38.8 Y37.6; draw line
G1 X39.2 Y37.4; draw line
G1 X39.8 Y37.8; draw line
G1 X39.7 Y37.9; draw line
G1 X39.4 Y37.6; draw line
G1 X39.1 Y37.6; draw line
G1 X38.6 Y38.0; draw line
G1 X38.6 Y38.6; draw line
G1 X39.2 Y39.0; draw line
G1 X39.7 Y38.7; draw line
G1 X39.8 Y38.2; draw line
G1 X39.8 Y37.8; draw line
G1 X40.0 Y38.6; draw line
G1 X39.7 Y38.9; draw line
G1 X39.1 Y39.1; draw line
G1 X38.5 Y38.8; draw line
G1 X38.3 Y38.2; draw back to polygon start
G1 F50.0; Z feedrate
G1 Z1.0; Z clearance height
G1 F1500.0; XY feedrate
G1 X35.8 Y38.2; move to polygon start
G1 F50.0; Z feedrate
G1 Z0.0; Z drawing height
G1 F1500.0; XY feedrate
G1 X36.2 Y37.6; draw line
G1 X36.7 Y37.4; draw line
G1 X37.3 Y37.8; draw line
G1 X37.2 Y37.9; draw line
G1 X36.9 Y37.6; draw line
G1 X36.5 Y37.6; draw line
G1 X36.1 Y38.0; draw line
G1 X36.1 Y38.6; draw line
G1 X36.7 Y39.0; draw line
G1 X37.2 Y38.7; draw line
G1 X37.3 Y38.2; draw line
G1 X37.3 Y37.8; draw line
G1 X37.4 Y38.6; draw line
G1 X37.1 Y38.9; draw line
G1 X36.5 Y39.1; draw line
G1 X36.0 Y38.8; draw line
G1 X35.8 Y38.2; draw back to polygon start
G1 F50.0; Z feedrate
G1 Z1.0; Z clearance height
G1 F1500.0; XY feedrate
G1 X33.3 Y38.2; move to polygon start
G1 F50.0; Z feedrate
G1 Z0.0; Z drawing height
G1 F1500.0; XY feedrate
G1 X34.0 Y37.1; draw line
G1 X34.0 Y36.3; draw line
G1 X34.7 Y35.5; draw line
G1 X39.6 Y35.5; draw line
G1 X40.3 Y34.9; draw line
G1 X40.3 Y35.0; draw line
G1 X39.8 Y35.5; draw line
G1 X39.8 Y36.0; draw line
G1 X40.5 Y36.4; draw line
G1 X41.0 Y36.1; draw line
G1 X41.1 Y35.6; draw line
G1 X41.0 Y35.3; draw line
G1 X40.7 Y35.0; draw line
G1 X40.3 Y34.9; draw line
G1 X40.9 Y35.0; draw line
G1 X41.4 Y35.5; draw line
G1 X42.1 Y35.5; draw line
G1 X42.4 Y35.5; draw line
G1 X42.4 Y36.0; draw line
G1 X43.1 Y36.4; draw line
G1 X43.6 Y36.1; draw line
G1 X43.7 Y35.6; draw line
G1 X43.3 Y35.0; draw line
G1 X42.9 Y35.0; draw line
G1 X42.1 Y35.5; draw line
G1 X42.3 Y34.9; draw line
G1 X43.8 Y35.0; draw line
G1 X43.8 Y36.5; draw line
G1 X42.2 Y36.4; draw line
G1 X42.0 Y35.9; draw line
G1 X41.3 Y35.9; draw line
G1 X41.0 Y36.3; draw line
G1 X40.5 Y36.5; draw line
G1 X40.0 Y36.4; draw line
G1 X39.5 Y35.9; draw line
G1 X34.9 Y35.9; draw line
G1 X34.4 Y36.4; draw line
G1 X34.3 Y37.3; draw line
G1 X34.8 Y37.8; draw line
G1 X34.7 Y37.9; draw line
G1 X34.4 Y37.6; draw line
G1 X34.0 Y37.6; draw line
G1 X33.5 Y38.0; draw line
G1 X33.5 Y38.6; draw line
G1 X34.2 Y39.0; draw line
G1 X34.7 Y38.7; draw line
G1 X34.8 Y38.2; draw line
G1 X34.8 Y37.8; draw line
G1 X34.9 Y38.6; draw line
G1 X34.6 Y38.9; draw line
G1 X34.0 Y39.1; draw line
G1 X33.5 Y38.8; draw line
G1 X33.3 Y38.2; draw back to polygon start
G1 F50.0; Z feedrate
G1 Z1.0; Z clearance height
G1 F1500.0; XY feedrate
G1 X39.6 Y28.0; move to polygon start
G1 F50.0; Z feedrate
G1 Z0.0; Z drawing height
G1 F1500.0; XY feedrate
G1 X39.8 Y27.5; draw line
G1 X40.7 Y27.1; draw line
G1 X41.2 Y26.2; draw line
G1 X41.0 Y25.7; draw line
G1 X41.0 Y25.2; draw line
G1 X41.3 Y24.9; draw line
G1 X41.8 Y24.7; draw line
G1 X42.8 Y25.4; draw line
G1 X43.5 Y25.3; draw line
G1 X43.7 Y25.3; draw line
G1 X43.7 Y25.9; draw line
G1 X44.3 Y26.3; draw line
G1 X44.8 Y26.0; draw line
G1 X44.9 Y25.5; draw line
G1 X44.8 Y25.1; draw line
G1 X44.5 Y24.9; draw line
G1 X44.2 Y24.8; draw line
G1 X43.5 Y25.3; draw line
G1 X43.7 Y24.9; draw line
G1 X44.3 Y24.7; draw line
G1 X45.0 Y25.1; draw line
G1 X45.2 Y25.4; draw line
G1 X46.0 Y25.3; draw line
G1 X46.3 Y24.9; draw line
G1 X46.9 Y24.8; draw line
G1 X47.5 Y25.0; draw line
G1 X47.6 Y25.9; draw line
G1 X47.4 Y26.2; draw line
G1 X46.8 Y26.4; draw line
G1 X46.9 Y26.3; draw line
G1 X47.3 Y26.0; draw line
G1 X47.5 Y25.5; draw line
G1 X47.3 Y25.1; draw line
G1 X47.0 Y24.9; draw line
G1 X46.7 Y24.8; draw line
G1 X46.2 Y25.3; draw line
G1 X46.2 Y25.9; draw line
G1 X46.8 Y26.4; draw line
G1 X46.1 Y26.1; draw line
G1 X45.9 Y25.7; draw line
G1 X45.1 Y25.9; draw line
G1 X44.8 Y26.2; draw line
G1 X44.2 Y26.4; draw line
G1 X43.7 Y26.2; draw line
G1 X43.4 Y25.7; draw line
G1 X42.7 Y25.7; draw line
G1 X42.3 Y26.2; draw line
G1 X42.3 Y26.0; draw line
G1 X42.4 Y25.5; draw line
G1 X42.3 Y25.1; draw line
G1 X42.0 Y24.9; draw line
G1 X41.6 Y24.8; draw line
G1 X41.2 Y25.3; draw line
G1 X41.2 Y25.9; draw line
G1 X41.8 Y26.3; draw line
G1 X42.3 Y26.2; draw line
G1 X41.5 Y26.5; draw line
G1 X41.0 Y27.4; draw line
G1 X41.2 Y28.4; draw line
G1 X40.9 Y28.7; draw line
G1 X40.3 Y28.9; draw line
G1 X40.5 Y28.8; draw line
G1 X41.0 Y28.5; draw line
G1 X41.1 Y28.0; draw line
G1 X41.0 Y27.7; draw line
G1 X40.7 Y27.4; draw line
G1 X40.3 Y27.4; draw line
G1 X39.8 Y27.8; draw line
G1 X39.8 Y28.4; draw line
G1 X40.3 Y28.9; draw line
G1 X39.8 Y28.6; draw line
G1 X39.6 Y28.0; draw back to polygon start
G1 F50.0; Z feedrate
G1 Z1.0; Z clearance height
G1 F1500.0; XY feedrate
G1 X35.8 Y25.4; move to polygon start
G1 F50.0; Z feedrate
G1 Z0.0; Z drawing height
G1 F1500.0; XY feedrate
G1 X36.1 Y25.0; draw line
G1 X36.7 Y24.7; draw line
G1 X37.6 Y25.4; draw line
G1 X38.3 Y25.3; draw line
G1 X38.6 Y24.9; draw line
G1 X39.2 Y24.7; draw line
G1 X39.8 Y25.0; draw line
G1 X39.7 Y25.1; draw line
G1 X39.4 Y24.9; draw line
G1 X39.1 Y24.8; draw line
G1 X38.6 Y25.3; draw line
G1 X38.6 Y25.9; draw line
G1 X39.2 Y26.3; draw line
G1 X39.7 Y26.0; draw line
G1 X39.8 Y25.5; draw line
G1 X39.8 Y25.0; draw line
G1 X40.0 Y25.9; draw line
G1 X39.8 Y26.2; draw line
G1 X39.1 Y26.4; draw line
G1 X38.2 Y25.7; draw line
G1 X37.6 Y25.7; draw line
G1 X37.1 Y26.2; draw line
G1 X36.5 Y26.3; draw line
G1 X36.7 Y26.3; draw line
G1 X37.2 Y26.0; draw line
G1 X37.3 Y25.5; draw line
G1 X37.2 Y25.1; draw line
G1 X36.9 Y24.9; draw line
G1 X36.5 Y24.8; draw line
G1 X36.1 Y25.3; draw line
G1 X36.1 Y25.9; draw line
G1 X36.5 Y26.3; draw line
G1 X36.0 Y26.1; draw line
G1 X35.8 Y25.4; draw back to polygon start
G1 F50.0; Z feedrate
G1 Z1.0; Z clearance height
G1 F1500.0; XY feedrate
G1 X36.4 Y22.3; move to polygon start
G1 F50.0; Z feedrate
G1 Z0.0; Z drawing height
G1 F1500.0; XY feedrate
G1 X36.6 Y21.8; draw line
G1 X37.1 Y21.5; draw line
G1 X37.1 Y21.7; draw line
G1 X36.7 Y22.1; draw line
G1 X36.7 Y22.7; draw line
G1 X37.3 Y23.1; draw line
G1 X37.8 Y22.8; draw line
G1 X37.9 Y22.3; draw line
G1 X37.8 Y22.0; draw line
G1 X37.5 Y21.7; draw line
G1 X37.1 Y21.5; draw line
G1 X37.5 Y21.5; draw line
G1 X38.3 Y22.2; draw line
G1 X38.9 Y22.1; draw line
G1 X39.4 Y21.6; draw line
G1 X40.1 Y21.5; draw line
G1 X40.1 Y21.7; draw line
G1 X39.7 Y21.7; draw line
G1 X39.2 Y22.1; draw line
G1 X39.2 Y22.7; draw line
G1 X39.9 Y23.1; draw line
G1 X40.4 Y22.8; draw line
G1 X40.5 Y22.3; draw line
G1 X40.4 Y22.0; draw line
G1 X40.1 Y21.5; draw line
G1 X40.9 Y22.2; draw line
G1 X41.5 Y22.1; draw line
G1 X41.8 Y21.7; draw line
G1 X42.3 Y21.5; draw line
G1 X42.2 Y21.7; draw line
G1 X41.8 Y22.1; draw line
G1 X41.8 Y22.7; draw line
G1 X42.4 Y23.1; draw line
G1 X42.9 Y22.8; draw line
G1 X43.0 Y22.3; draw line
G1 X42.9 Y22.0; draw line
G1 X42.6 Y21.7; draw line
G1 X42.3 Y21.5; draw line
G1 X43.0 Y21.8; draw line
G1 X43.3 Y22.1; draw line
G1 X44.0 Y22.1; draw line
G1 X44.3 Y21.7; draw line
G1 X44.8 Y21.5; draw line
G1 X44.8 Y21.7; draw line
G1 X44.3 Y22.1; draw line
G1 X44.3 Y22.7; draw line
G1 X44.9 Y23.1; draw line
G1 X45.4 Y22.8; draw line
G1 X45.5 Y22.3; draw line
G1 X45.4 Y22.0; draw line
G1 X45.1 Y21.7; draw line
G1 X44.8 Y21.5; draw line
G1 X45.7 Y21.6; draw line
G1 X46.6 Y20.8; draw line
G1 X46.6 Y19.9; draw line
G1 X46.2 Y19.4; draw line
G1 X45.2 Y19.4; draw line
G1 X44.9 Y19.6; draw line
G1 X44.7 Y20.5; draw line
G1 X44.2 Y20.8; draw line
G1 X44.2 Y20.6; draw line
G1 X44.6 Y20.3; draw line
G1 X44.8 Y19.9; draw line
G1 X44.6 Y19.5; draw line
G1 X44.3 Y19.3; draw line
G1 X44.0 Y19.2; draw line
G1 X43.5 Y19.7; draw line
G1 X43.5 Y20.2; draw line
G1 X44.2 Y20.8; draw line
G1 X43.4 Y20.5; draw line
G1 X43.3 Y19.6; draw line
G1 X44.0 Y19.1; draw line
G1 X44.7 Y19.1; draw line
G1 X45.0 Y18.9; draw line
G1 X45.1 Y18.2; draw line
G1 X45.4 Y17.9; draw line
G1 X46.0 Y17.8; draw line
G1 X46.5 Y18.1; draw line
G1 X46.4 Y18.2; draw line
G1 X46.1 Y17.9; draw line
G1 X45.7 Y17.9; draw line
G1 X45.2 Y18.4; draw line
G1 X45.2 Y18.9; draw line
G1 X45.9 Y19.3; draw line
G1 X46.4 Y19.0; draw line
G1 X46.5 Y18.5; draw line
G1 X46.5 Y18.1; draw line
G1 X46.6 Y19.1; draw line
G1 X47.1 Y19.6; draw line
G1 X47.3 Y19.7; draw line
G1 X46.9 Y20.2; draw line
G1 X46.9 Y20.8; draw line
G1 X47.5 Y21.2; draw line
G1 X48.0 Y20.9; draw line
G1 X48.1 Y20.4; draw line
G1 X48.0 Y20.0; draw line
G1 X47.7 Y19.8; draw line
G1 X47.1 Y19.6; draw line
G1 X48.2 Y19.8; draw line
G1 X48.2 Y21.3; draw line
G1 X46.6 Y21.4; draw line
G1 X45.8 Y21.9; draw line
G1 X45.7 Y22.7; draw line
G1 X45.5 Y23.0; draw line
G1 X44.9 Y23.3; draw line
G1 X44.2 Y23.0; draw line
G1 X43.9 Y22.6; draw line
G1 X43.3 Y22.6; draw line
G1 X42.9 Y23.1; draw line
G1 X42.4 Y23.3; draw line
G1 X41.7 Y23.0; draw line
G1 X41.4 Y22.6; draw line
G1 X40.7 Y22.6; draw line
G1 X40.4 Y23.1; draw line
G1 X39.6 Y23.3; draw line
G1 X38.8 Y22.6; draw line
G1 X38.2 Y22.6; draw line
G1 X37.7 Y23.2; draw line
G1 X37.2 Y23.3; draw line
G1 X36.6 Y23.0; draw line
G1 X36.4 Y22.3; draw back to polygon start
G1 F50.0; Z feedrate
G1 Z1.0; Z clearance height
G1 F1500.0; XY feedrate
G1 X32.0 Y21.7; move to polygon start
G1 F50.0; Z feedrate
G1 Z0.0; Z drawing height
G1 F1500.0; XY feedrate
G1 X32.2 Y21.2; draw line
G1 X33.0 Y20.9; draw line
G1 X33.7 Y21.1; draw line
G1 X35.6 Y19.7; draw line
G1 X35.9 Y19.3; draw line
G1 X36.5 Y19.1; draw line
G1 X37.3 Y19.5; draw line
G1 X37.5 Y19.7; draw line
G1 X41.4 Y19.7; draw line
G1 X41.8 Y18.8; draw line
G1 X44.9 Y15.8; draw line
G1 X54.4 Y15.8; draw line
G1 X55.5 Y14.6; draw line
G1 X55.5 Y13.9; draw line
G1 X55.8 Y13.4; draw line
G1 X56.3 Y13.3; draw line
G1 X56.2 Y13.4; draw line
G1 X55.7 Y13.9; draw line
G1 X55.7 Y14.5; draw line
G1 X56.4 Y14.9; draw line
G1 X56.9 Y14.6; draw line
G1 X57.0 Y14.1; draw line
G1 X56.9 Y13.7; draw line
G1 X56.6 Y13.5; draw line
G1 X56.3 Y13.3; draw line
G1 X57.1 Y13.6; draw line
G1 X57.2 Y14.5; draw line
G1 X56.9 Y14.9; draw line
G1 X56.0 Y15.1; draw line
G1 X55.8 Y15.0; draw line
G1 X54.5 Y16.2; draw line
G1 X50.2 Y16.3; draw line
G1 X49.9 Y16.3; draw line
G1 X49.7 Y16.9; draw line
G1 X49.6 Y16.2; draw line
G1 X50.2 Y16.3; draw line
G1 X50.1 Y16.7; draw line
G1 X50.2 Y18.1; draw line
G1 X54.5 Y23.5; draw line
G1 X59.5 Y23.4; draw line
G1 X60.0 Y22.4; draw line
G1 X59.9 Y21.5; draw line
G1 X60.4 Y21.0; draw line
G1 X61.1 Y20.9; draw line
G1 X61.0 Y21.1; draw line
G1 X60.7 Y21.1; draw line
G1 X60.2 Y21.5; draw line
G1 X60.2 Y22.1; draw line
G1 X60.8 Y22.5; draw line
G1 X61.3 Y22.2; draw line
G1 X61.4 Y21.7; draw line
G1 X61.3 Y21.4; draw line
G1 X61.1 Y20.9; draw line
G1 X61.4 Y21.2; draw line
G1 X61.6 Y21.5; draw line
G1 X61.6 Y22.1; draw line
G1 X61.0 Y22.6; draw line
G1 X60.3 Y22.8; draw line
G1 X59.6 Y23.8; draw line
G1 X54.4 Y23.8; draw line
G1 X50.0 Y18.7; draw line
G1 X49.6 Y17.7; draw line
G1 X49.3 Y16.4; draw line
G1 X49.1 Y16.3; draw line
G1 X46.7 Y16.3; draw line
G1 X44.9 Y16.3; draw line
G1 X41.9 Y19.6; draw line
G1 X41.9 Y19.9; draw line
G1 X41.7 Y20.1; draw line
G1 X37.3 Y20.2; draw line
G1 X37.0 Y20.6; draw line
G1 X36.5 Y20.8; draw line
G1 X36.5 Y20.6; draw line
G1 X37.0 Y20.3; draw line
G1 X37.1 Y19.9; draw line
G1 X37.0 Y19.5; draw line
G1 X36.7 Y19.3; draw line
G1 X36.4 Y19.2; draw line
G1 X35.9 Y19.7; draw line
G1 X35.9 Y20.2; draw line
G1 X36.5 Y20.8; draw line
G1 X35.6 Y20.3; draw line
G1 X33.7 Y21.7; draw line
G1 X33.5 Y21.7; draw line
G1 X33.4 Y21.4; draw line
G1 X33.1 Y21.1; draw line
G1 X32.7 Y21.1; draw line
G1 X32.2 Y21.5; draw line
G1 X32.2 Y22.1; draw line
G1 X32.9 Y22.5; draw line
G1 X33.4 Y22.2; draw line
G1 X33.7 Y21.7; draw line
G1 X33.6 Y22.1; draw line
G1 X33.3 Y22.4; draw line
G1 X32.7 Y22.6; draw line
G1 X32.2 Y22.3; draw line
G1 X32.0 Y21.7; draw back to polygon start
G1 F50.0; Z feedrate
G1 Z1.0; Z clearance height
G1 F1500.0; XY feedrate
G1 X24.0 Y23.9; move to polygon start
G1 F50.0; Z feedrate
G1 Z0.0; Z drawing height
G1 F1500.0; XY feedrate
G1 X24.7 Y24.4; draw line
G1 X25.1 Y24.1; draw line
G1 X25.3 Y23.6; draw line
G1 X25.1 Y23.2; draw line
G1 X24.8 Y23.0; draw line
G1 X24.5 Y22.9; draw line
G1 X24.0 Y23.4; draw line
G1 X24.0 Y23.9; draw back to polygon start
G1 F50.0; Z feedrate
G1 Z1.0; Z clearance height
G1 F1500.0; XY feedrate
G1 X24.0 Y29.0; move to polygon start
G1 F50.0; Z feedrate
G1 Z0.0; Z drawing height
G1 F1500.0; XY feedrate
G1 X24.7 Y29.5; draw line
G1 X25.1 Y29.2; draw line
G1 X25.3 Y28.7; draw line
G1 X25.1 Y28.3; draw line
G1 X24.8 Y28.1; draw line
G1 X24.5 Y28.0; draw line
G1 X24.0 Y28.5; draw line
G1 X24.0 Y29.0; draw back to polygon start
G1 F50.0; Z feedrate
G1 Z1.0; Z clearance height
G1 F1500.0; XY feedrate
G1 X19.9 Y14.0; move to polygon start
G1 F50.0; Z feedrate
G1 Z0.0; Z drawing height
G1 F1500.0; XY feedrate
G1 X20.2 Y13.5; draw line
G1 X20.8 Y13.3; draw line
G1 X20.6 Y13.4; draw line
G1 X20.2 Y13.9; draw line
G1 X20.2 Y14.5; draw line
G1 X20.8 Y14.9; draw line
G1 X21.3 Y14.6; draw line
G1 X21.4 Y14.1; draw line
G1 X21.3 Y13.7; draw line
G1 X21.0 Y13.5; draw line
G1 X20.8 Y13.3; draw line
G1 X21.5 Y13.6; draw line
G1 X21.6 Y13.9; draw line
G1 X21.5 Y14.5; draw line
G1 X21.1 Y15.2; draw line
G1 X21.6 Y16.4; draw line
G1 X22.1 Y16.7; draw line
G1 X22.3 Y17.2; draw line
G1 X22.2 Y17.7; draw line
G1 X22.0 Y18.1; draw line
G1 X21.4 Y18.2; draw line
G1 X20.8 Y18.0; draw line
G1 X20.6 Y17.5; draw line
G1 X20.6 Y17.0; draw line
G1 X21.0 Y16.3; draw line
G1 X20.9 Y15.5; draw line
G1 X20.6 Y15.1; draw line
G1 X20.0 Y14.7; draw line
G1 X19.9 Y14.0; draw back to polygon start
G1 F50.0; Z feedrate
G1 Z1.0; Z clearance height
G1 F1500.0; XY feedrate
G1 X49.1 Y34.3; move to polygon start
G1 F50.0; Z feedrate
G1 Z0.0; Z drawing height
G1 F1500.0; XY feedrate
G1 X49.6 Y33.5; draw line
G1 X49.8 Y33.5; draw line
G1 X49.6 Y34.1; draw line
G1 X49.7 Y34.7; draw line
G1 X49.1 Y34.6; draw line
G1 X49.1 Y34.3; draw back to polygon start
G1 F50.0; Z feedrate
G1 Z1.0; Z clearance height
G1 F1500.0; XY feedrate
G1 X48.5 Y35.5; move to polygon start
G1 F50.0; Z feedrate
G1 Z0.0; Z drawing height
G1 F1500.0; XY feedrate
G1 X48.7 Y34.3; draw line
G1 X49.1 Y33.5; draw line
G1 X49.1 Y33.3; draw line
G1 X49.5 Y33.2; draw line
G1 X69.2 Y33.2; draw line
G1 X69.6 Y32.9; draw line
G1 X70.1 Y33.2; draw line
G1 X69.8 Y33.4; draw line
G1 X69.9 Y34.7; draw line
G1 X69.4 Y34.6; draw line
G1 X69.4 Y34.0; draw line
G1 X69.2 Y33.5; draw line
G1 X69.7 Y33.4; draw line
G1 X70.1 Y33.2; draw line
G1 X70.4 Y36.1; draw line
G1 X70.2 Y36.6; draw line
G1 X70.3 Y37.4; draw line
G1 X70.6 Y37.4; draw line
G1 X70.6 Y37.8; draw line
G1 X72.5 Y36.9; draw line
G1 X72.6 Y37.5; draw line
G1 X70.6 Y38.3; draw line
G1 X70.6 Y37.4; draw line
G1 X73.0 Y36.2; draw line
G1 X72.9 Y35.2; draw line
G1 X72.7 Y34.6; draw line
G1 X73.0 Y33.5; draw line
G1 X73.3 Y33.3; draw line
G1 X73.3 Y32.9; draw line
G1 X73.6 Y33.0; draw line
G1 X73.6 Y33.4; draw line
G1 X73.0 Y33.5; draw line
G1 X72.9 Y32.6; draw line
G1 X72.7 Y32.0; draw line
G1 X73.0 Y31.0; draw line
G1 X72.9 Y30.1; draw line
G1 X72.7 Y29.5; draw line
G1 X72.7 Y29.0; draw line
G1 X73.0 Y28.7; draw line
G1 X73.4 Y28.5; draw line
G1 X73.4 Y28.7; draw line
G1 X72.9 Y29.2; draw line
