; PCB GCode generated by RepRap Java Host Software
; Created: 2010-09-04:18-08-57
; Gerber tracks and pads file: RAMPS-1.1c.bot
; Drill file: RAMPS-1.1c.bdr
;#!RECTANGLE: <BOX x:[l:11.41732, h:111.90226], y:[l:12.48412, h:64.04611999999999]>
;#!LAYER: 1/1
G21 ;metric
G90 ;absolute positioning
M140 S0.0 ;set bed temperature and return
T1; select new extruder
G28; go home
G92 E0 ;zero the extruded length
G1 F50.0; Z feedrate
G1 Z1.0; Z clearance height
G1 F1500.0; XY feedrate
G1 X14.219999999999999 Y13.799999999999999; move to polygon start
G1 F50.0; Z feedrate
G1 Z0.0; Z drawing height
G1 F1500.0; XY feedrate
G1 X14.82 Y12.959999999999999; draw line
G1 X15.78 Y12.66; draw line
G1 X16.68 Y13.02; draw line
G1 X17.099999999999998 Y13.62; draw line
G1 X17.099999999999998 Y14.7; draw line
G1 X16.68 Y15.24; draw line
G1 X16.56 Y15.059999999999999; draw line
G1 X15.84 Y15.36; draw line
G1 X15.18 Y15.24; draw line
G1 X14.639999999999999 Y14.82; draw line
G1 X14.459999999999999 Y13.86; draw line
G1 X14.879999999999999 Y13.2; draw line
G1 X15.66 Y12.9; draw line
G1 X16.32 Y13.08; draw line
G1 X16.74 Y13.379999999999999; draw line
G1 X16.919999999999998 Y13.799999999999999; draw line
G1 X16.86 Y14.639999999999999; draw line
G1 X16.68 Y15.24; draw line
G1 X15.78 Y15.6; draw line
G1 X15.18 Y15.54; draw line
G1 X14.52 Y15.059999999999999; draw line
G1 X14.28 Y14.639999999999999; draw line
G1 X14.219999999999999 Y13.799999999999999; draw back to polygon start
G1 F50.0; Z feedrate
G1 Z1.0; Z clearance height
G1 F1500.0; XY feedrate
G1 X15.12 Y14.459999999999999; move to polygon start
G1 F50.0; Z feedrate
G1 Z0.0; Z drawing height
G1 F1500.0; XY feedrate
G1 X14.94 Y14.52; draw line
G1 X15.18 Y14.879999999999999; draw line
G1 X15.899999999999999 Y15.059999999999999; draw line
G1 X16.38 Y14.76; draw line
G1 X16.62 Y14.1; draw line
G1 X16.259999999999998 Y13.44; draw line
G1 X15.959999999999999 Y13.26; draw line
G1 X15.479999999999999 Y13.26; draw line
G1 X15.0 Y13.68; draw line
G1 X14.879999999999999 Y14.1; draw line
G1 X15.12 Y14.459999999999999; draw line
G1 X15.78 Y14.879999999999999; draw line
G1 X16.259999999999998 Y14.58; draw line
G1 X16.38 Y14.1; draw line
G1 X16.259999999999998 Y13.74; draw line
G1 X15.959999999999999 Y13.5; draw line
G1 X15.6 Y13.44; draw line
G1 X15.12 Y13.92; draw line
G1 X15.12 Y14.459999999999999; draw back to polygon start
G1 F50.0; Z feedrate
G1 Z1.0; Z clearance height
G1 F1500.0; XY feedrate
G1 X14.82 Y19.08; move to polygon start
G1 F50.0; Z feedrate
G1 Z0.0; Z drawing height
G1 F1500.0; XY feedrate
G1 X15.12 Y18.54; draw line
G1 X15.66 Y18.3; draw line
G1 X15.6 Y18.48; draw line
G1 X15.12 Y18.96; draw line
G1 X15.12 Y19.5; draw line
G1 X15.78 Y19.919999999999998; draw line
G1 X16.259999999999998 Y19.62; draw line
G1 X16.38 Y19.14; draw line
G1 X16.259999999999998 Y18.779999999999998; draw line
G1 X15.959999999999999 Y18.54; draw line
G1 X15.66 Y18.3; draw line
G1 X16.38 Y18.599999999999998; draw line
G1 X16.68 Y19.02; draw line
G1 X17.4 Y18.9; draw line
G1 X17.82 Y18.419999999999998; draw line
G1 X18.54 Y18.36; draw line
G1 X18.48 Y18.54; draw line
G1 X18.12 Y18.48; draw line
G1 X17.64 Y18.96; draw line
G1 X17.64 Y19.5; draw line
G1 X18.3 Y19.919999999999998; draw line
G1 X18.779999999999998 Y19.62; draw line
G1 X18.9 Y19.14; draw line
G1 X18.779999999999998 Y18.779999999999998; draw line
G1 X18.54 Y18.36; draw line
G1 X19.2 Y19.02; draw line
G1 X22.8 Y19.08; draw line
G1 X24.119999999999997 Y20.279999999999998; draw line
G1 X24.72 Y20.22; draw line
G1 X25.2 Y20.46; draw line
G1 X25.14 Y20.7; draw line
G1 X24.84 Y20.46; draw line
G1 X24.48 Y20.4; draw line
G1 X24.0 Y20.88; draw line
G1 X24.0 Y21.419999999999998; draw line
G1 X24.66 Y21.84; draw line
G1 X25.14 Y21.54; draw line
G1 X25.259999999999998 Y21.06; draw line
G1 X25.2 Y20.46; draw line
G1 X25.56 Y20.939999999999998; draw line
G1 X26.16 Y21.18; draw line
G1 X26.58 Y21.599999999999998; draw line
G1 X29.52 Y21.48; draw line
G1 X29.759999999999998 Y21.119999999999997; draw line
G1 X30.54 Y20.939999999999998; draw line
G1 X30.959999999999997 Y21.24; draw line
G1 X30.84 Y21.36; draw line
G1 X30.54 Y21.119999999999997; draw line
G1 X30.18 Y21.06; draw line
G1 X29.7 Y21.54; draw line
G1 X29.7 Y22.08; draw line
G1 X30.36 Y22.5; draw line
G1 X30.84 Y22.2; draw line
G1 X30.959999999999997 Y21.72; draw line
G1 X30.959999999999997 Y21.24; draw line
G1 X31.08 Y21.599999999999998; draw line
G1 X31.02 Y22.14; draw line
G1 X30.779999999999998 Y22.439999999999998; draw line
G1 X29.939999999999998 Y22.5; draw line
G1 X29.279999999999998 Y21.96; draw line
G1 X26.459999999999997 Y21.96; draw line
G1 X25.8 Y21.3; draw line
G1 X25.38 Y21.48; draw line
G1 X24.84 Y22.14; draw line
G1 X24.84 Y22.619999999999997; draw line
G1 X25.32 Y23.099999999999998; draw line
G1 X25.439999999999998 Y23.46; draw line
G1 X25.38 Y24.0; draw line
G1 X24.779999999999998 Y24.84; draw line
G1 X25.02 Y25.439999999999998; draw line
G1 X24.84 Y25.56; draw line
G1 X24.48 Y25.5; draw line
G1 X24.0 Y25.98; draw line
G1 X24.0 Y26.52; draw line
G1 X24.66 Y26.939999999999998; draw line
G1 X24.54 Y27.18; draw line
G1 X24.599999999999998 Y27.3; draw line
G1 X24.54 Y27.24; draw line
G1 X24.66 Y26.939999999999998; draw line
G1 X25.14 Y26.64; draw line
G1 X25.259999999999998 Y26.16; draw line
G1 X25.14 Y25.8; draw line
G1 X25.02 Y25.439999999999998; draw line
G1 X25.439999999999998 Y25.98; draw line
G1 X25.439999999999998 Y26.58; draw line
G1 X24.84 Y27.18; draw line
G1 X24.84 Y27.779999999999998; draw line
G1 X25.32 Y28.2; draw line
G1 X25.439999999999998 Y29.099999999999998; draw line
G1 X25.08 Y29.52; draw line
G1 X24.66 Y29.64; draw line
G1 X23.88 Y29.279999999999998; draw line
G1 X23.759999999999998 Y28.38; draw line
G1 X24.419999999999998 Y27.599999999999998; draw line
G1 X24.18 Y27.0; draw line
G1 X23.939999999999998 Y26.82; draw line
G1 X23.759999999999998 Y25.86; draw line
G1 X24.36 Y25.02; draw line
G1 X24.18 Y24.419999999999998; draw line
G1 X23.88 Y24.18; draw line
G1 X23.759999999999998 Y23.34; draw line
G1 X24.36 Y22.68; draw line
G1 X24.419999999999998 Y22.32; draw line
G1 X23.88 Y21.66; draw line
G1 X23.759999999999998 Y20.58; draw line
G1 X22.56 Y19.38; draw line
G1 X19.08 Y19.5; draw line
G1 X18.779999999999998 Y19.919999999999998; draw line
G1 X18.0 Y20.099999999999998; draw line
G1 X17.099999999999998 Y19.38; draw line
G1 X16.62 Y19.439999999999998; draw line
G1 X16.2 Y19.98; draw line
G1 X15.479999999999999 Y20.099999999999998; draw line
G1 X14.94 Y19.68; draw line
G1 X14.82 Y19.08; draw back to polygon start
G1 F50.0; Z feedrate
G1 Z1.0; Z clearance height
G1 F1500.0; XY feedrate
G1 X11.94 Y20.16; move to polygon start
G1 F50.0; Z feedrate
G1 Z0.0; Z drawing height
G1 F1500.0; XY feedrate
G1 X12.6 Y20.58; draw line
G1 X12.54 Y20.759999999999998; draw line
G1 X11.879999999999999 Y20.46; draw line
G1 X11.639999999999999 Y19.74; draw line
G1 X11.94 Y19.2; draw line
G1 X12.48 Y18.96; draw line
G1 X13.2 Y19.259999999999998; draw line
G1 X13.559999999999999 Y20.279999999999998; draw line
G1 X15.059999999999999 Y21.119999999999997; draw line
G1 X15.78 Y20.88; draw line
G1 X16.32 Y21.119999999999997; draw line
G1 X16.259999999999998 Y21.36; draw line
G1 X15.959999999999999 Y21.119999999999997; draw line
G1 X15.6 Y21.06; draw line
G1 X15.12 Y21.54; draw line
G1 X15.12 Y22.08; draw line
G1 X15.78 Y22.5; draw line
G1 X16.259999999999998 Y22.2; draw line
G1 X16.38 Y21.72; draw line
G1 X16.32 Y21.119999999999997; draw line
G1 X16.56 Y21.54; draw line
G1 X16.56 Y22.08; draw line
G1 X16.14 Y22.56; draw line
G1 X15.479999999999999 Y22.68; draw line
G1 X15.0 Y22.32; draw line
G1 X14.7 Y21.36; draw line
G1 X13.08 Y20.58; draw line
G1 X12.6 Y20.58; draw line
G1 X13.08 Y20.279999999999998; draw line
G1 X13.26 Y20.34; draw line
G1 X13.44 Y20.52; draw line
G1 X13.08 Y20.279999999999998; draw line
G1 X13.2 Y19.8; draw line
G1 X13.08 Y19.439999999999998; draw line
G1 X12.78 Y19.2; draw line
G1 X12.42 Y19.14; draw line
G1 X11.94 Y19.62; draw line
G1 X11.94 Y20.16; draw back to polygon start
G1 F50.0; Z feedrate
G1 Z1.0; Z clearance height
G1 F1500.0; XY feedrate
G1 X11.639999999999999 Y22.259999999999998; move to polygon start
G1 F50.0; Z feedrate
G1 Z0.0; Z drawing height
G1 F1500.0; XY feedrate
G1 X11.94 Y21.72; draw line
G1 X12.48 Y21.48; draw line
G1 X12.42 Y21.66; draw line
G1 X11.94 Y22.14; draw line
G1 X11.94 Y22.68; draw line
G1 X12.6 Y23.099999999999998; draw line
G1 X13.08 Y22.8; draw line
G1 X13.26 Y22.86; draw line
G1 X13.44 Y23.04; draw line
G1 X13.08 Y22.8; draw line
G1 X13.2 Y22.32; draw line
G1 X13.08 Y21.96; draw line
G1 X12.78 Y21.72; draw line
G1 X12.48 Y21.48; draw line
G1 X13.2 Y21.779999999999998; draw line
G1 X13.559999999999999 Y22.8; draw line
G1 X15.059999999999999 Y23.64; draw line
G1 X15.78 Y23.4; draw line
G1 X16.32 Y23.64; draw line
G1 X16.259999999999998 Y23.88; draw line
G1 X15.959999999999999 Y23.64; draw line
G1 X15.6 Y23.58; draw line
G1 X15.12 Y24.06; draw line
G1 X15.12 Y24.599999999999998; draw line
G1 X15.78 Y25.02; draw line
G1 X16.259999999999998 Y24.72; draw line
G1 X16.38 Y24.24; draw line
G1 X16.32 Y23.64; draw line
G1 X16.56 Y24.06; draw line
G1 X16.56 Y24.599999999999998; draw line
G1 X16.14 Y25.08; draw line
G1 X15.479999999999999 Y25.2; draw line
G1 X15.0 Y24.84; draw line
G1 X14.7 Y23.88; draw line
G1 X13.08 Y23.099999999999998; draw line
G1 X12.54 Y23.279999999999998; draw line
G1 X11.879999999999999 Y22.98; draw line
G1 X11.639999999999999 Y22.259999999999998; draw back to polygon start
G1 F50.0; Z feedrate
G1 Z1.0; Z clearance height
G1 F1500.0; XY feedrate
G1 X11.639999999999999 Y24.84; move to polygon start
G1 F50.0; Z feedrate
G1 Z0.0; Z drawing height
G1 F1500.0; XY feedrate
G1 X11.94 Y24.3; draw line
G1 X12.48 Y24.06; draw line
G1 X12.42 Y24.24; draw line
G1 X11.94 Y24.72; draw line
G1 X11.94 Y25.259999999999998; draw line
G1 X12.6 Y25.68; draw line
G1 X13.08 Y25.38; draw line
G1 X13.26 Y25.439999999999998; draw line
G1 X13.44 Y25.56; draw line
G1 X13.26 Y25.5; draw line
G1 X13.08 Y25.38; draw line
G1 X13.2 Y24.9; draw line
G1 X13.08 Y24.54; draw line
G1 X12.78 Y24.3; draw line
G1 X12.48 Y24.06; draw line
G1 X13.2 Y24.36; draw line
G1 X13.559999999999999 Y25.38; draw line
G1 X15.059999999999999 Y26.16; draw line
G1 X15.78 Y25.919999999999998; draw line
G1 X16.32 Y26.16; draw line
G1 X16.259999999999998 Y26.4; draw line
G1 X15.959999999999999 Y26.16; draw line
G1 X15.6 Y26.099999999999998; draw line
G1 X15.12 Y26.58; draw line
G1 X15.12 Y27.119999999999997; draw line
G1 X15.78 Y27.54; draw line
G1 X16.259999999999998 Y27.24; draw line
G1 X16.38 Y26.759999999999998; draw line
G1 X16.32 Y26.16; draw line
G1 X16.56 Y26.58; draw line
G1 X16.56 Y27.119999999999997; draw line
G1 X16.14 Y27.599999999999998; draw line
G1 X15.479999999999999 Y27.72; draw line
G1 X15.0 Y27.36; draw line
G1 X14.7 Y26.4; draw line
G1 X13.08 Y25.68; draw line
G1 X12.54 Y25.86; draw line
G1 X11.879999999999999 Y25.56; draw line
G1 X11.639999999999999 Y24.84; draw back to polygon start
G1 F50.0; Z feedrate
G1 Z1.0; Z clearance height
G1 F1500.0; XY feedrate
G1 X11.639999999999999 Y27.36; move to polygon start
G1 F50.0; Z feedrate
G1 Z0.0; Z drawing height
G1 F1500.0; XY feedrate
G1 X11.94 Y26.82; draw line
G1 X12.48 Y26.58; draw line
G1 X12.42 Y26.759999999999998; draw line
G1 X11.94 Y27.24; draw line
G1 X11.94 Y27.779999999999998; draw line
G1 X12.6 Y28.2; draw line
G1 X13.08 Y27.9; draw line
G1 X13.26 Y27.959999999999997; draw line
G1 X13.44 Y28.14; draw line
G1 X13.08 Y27.9; draw line
G1 X13.2 Y27.419999999999998; draw line
G1 X13.08 Y27.06; draw line
G1 X12.78 Y26.82; draw line
G1 X12.48 Y26.58; draw line
G1 X13.2 Y26.88; draw line
G1 X13.559999999999999 Y27.9; draw line
G1 X15.059999999999999 Y28.74; draw line
G1 X15.78 Y28.5; draw line
G1 X16.32 Y28.74; draw line
G1 X16.259999999999998 Y28.98; draw line
G1 X15.959999999999999 Y28.74; draw line
G1 X15.6 Y28.68; draw line
G1 X15.12 Y29.16; draw line
G1 X15.12 Y29.7; draw line
G1 X15.78 Y30.119999999999997; draw line
G1 X16.259999999999998 Y29.82; draw line
G1 X16.38 Y29.34; draw line
G1 X16.32 Y28.74; draw line
G1 X16.56 Y29.16; draw line
G1 X16.56 Y29.7; draw line
G1 X16.14 Y30.18; draw line
G1 X15.479999999999999 Y30.299999999999997; draw line
G1 X15.0 Y29.939999999999998; draw line
G1 X14.7 Y28.98; draw line
G1 X13.08 Y28.2; draw line
G1 X12.54 Y28.38; draw line
G1 X11.879999999999999 Y28.08; draw line
G1 X11.639999999999999 Y27.36; draw back to polygon start
G1 F50.0; Z feedrate
G1 Z1.0; Z clearance height
G1 F1500.0; XY feedrate
G1 X11.639999999999999 Y31.14; move to polygon start
G1 F50.0; Z feedrate
G1 Z0.0; Z drawing height
G1 F1500.0; XY feedrate
G1 X11.94 Y30.599999999999998; draw line
G1 X12.54 Y30.36; draw line
G1 X13.26 Y30.72; draw line
G1 X13.62 Y31.32; draw line
G1 X14.76 Y31.5; draw line
G1 X15.24 Y31.14; draw line
G1 X15.84 Y31.02; draw line
G1 X16.38 Y31.32; draw line
G1 X16.56 Y31.74; draw line
G1 X16.5 Y32.28; draw line
G1 X16.259999999999998 Y32.64; draw line
G1 X15.66 Y32.82; draw line
G1 X15.78 Y32.64; draw line
G1 X16.259999999999998 Y32.339999999999996; draw line
G1 X16.38 Y31.86; draw line
G1 X16.259999999999998 Y31.5; draw line
G1 X15.959999999999999 Y31.259999999999998; draw line
G1 X15.6 Y31.2; draw line
G1 X15.12 Y31.68; draw line
G1 X15.12 Y32.22; draw line
G1 X15.66 Y32.82; draw line
G1 X15.12 Y32.58; draw line
G1 X14.76 Y31.919999999999998; draw line
G1 X13.62 Y31.619999999999997; draw line
G1 X12.54 Y32.16; draw line
G1 X12.6 Y31.98; draw line
G1 X13.08 Y31.68; draw line
G1 X13.2 Y31.2; draw line
G1 X13.08 Y30.84; draw line
G1 X12.78 Y30.599999999999998; draw line
G1 X12.42 Y30.54; draw line
G1 X11.94 Y31.02; draw line
G1 X11.94 Y31.56; draw line
G1 X12.54 Y32.16; draw line
G1 X12.0 Y31.98; draw line
G1 X11.76 Y31.74; draw line
G1 X11.639999999999999 Y31.14; draw back to polygon start
G1 F50.0; Z feedrate
G1 Z1.0; Z clearance height
G1 F1500.0; XY feedrate
G1 X11.639999999999999 Y33.72; move to polygon start
G1 F50.0; Z feedrate
G1 Z0.0; Z drawing height
G1 F1500.0; XY feedrate
G1 X11.94 Y33.18; draw line
G1 X12.54 Y32.94; draw line
G1 X12.42 Y33.12; draw line
G1 X11.94 Y33.6; draw line
G1 X11.94 Y34.14; draw line
G1 X12.6 Y34.56; draw line
G1 X13.08 Y34.26; draw line
G1 X13.2 Y33.78; draw line
G1 X13.08 Y33.42; draw line
G1 X12.78 Y33.18; draw line
G1 X12.54 Y32.94; draw line
G1 X13.26 Y33.3; draw line
G1 X13.62 Y33.839999999999996; draw line
G1 X14.879999999999999 Y34.019999999999996; draw line
G1 X15.24 Y33.66; draw line
G1 X15.84 Y33.54; draw line
G1 X16.32 Y33.78; draw line
G1 X16.259999999999998 Y34.019999999999996; draw line
G1 X15.959999999999999 Y33.78; draw line
G1 X15.6 Y33.72; draw line
G1 X15.12 Y34.199999999999996; draw line
G1 X15.12 Y34.74; draw line
G1 X15.78 Y35.16; draw line
G1 X16.259999999999998 Y34.86; draw line
G1 X16.38 Y34.379999999999995; draw line
G1 X16.32 Y33.78; draw line
G1 X16.56 Y34.199999999999996; draw line
G1 X16.56 Y34.74; draw line
G1 X16.2 Y35.22; draw line
G1 X15.6 Y35.339999999999996; draw line
G1 X15.059999999999999 Y35.04; draw line
G1 X14.7 Y34.44; draw line
G1 X13.379999999999999 Y34.26; draw line
G1 X13.02 Y34.62; draw line
G1 X12.48 Y34.74; draw line
G1 X11.879999999999999 Y34.44; draw line
G1 X11.639999999999999 Y33.72; draw back to polygon start
G1 F50.0; Z feedrate
G1 Z1.0; Z clearance height
G1 F1500.0; XY feedrate
G1 X11.639999999999999 Y36.24; move to polygon start
G1 F50.0; Z feedrate
G1 Z0.0; Z drawing height
G1 F1500.0; XY feedrate
G1 X11.94 Y35.699999999999996; draw line
G1 X12.54 Y35.46; draw line
G1 X13.26 Y35.82; draw line
G1 X13.62 Y36.42; draw line
G1 X14.76 Y36.6; draw line
G1 X15.24 Y36.24; draw line
G1 X15.84 Y36.12; draw line
G1 X16.38 Y36.42; draw line
G1 X16.56 Y36.839999999999996; draw line
G1 X16.5 Y37.379999999999995; draw line
G1 X16.259999999999998 Y37.74; draw line
G1 X15.66 Y37.92; draw line
G1 X15.78 Y37.74; draw line
G1 X16.259999999999998 Y37.44; draw line
G1 X16.38 Y36.96; draw line
G1 X16.259999999999998 Y36.6; draw line
G1 X15.959999999999999 Y36.36; draw line
G1 X15.6 Y36.3; draw line
G1 X15.12 Y36.78; draw line
G1 X15.12 Y37.32; draw line
G1 X15.66 Y37.92; draw line
G1 X15.12 Y37.68; draw line
G1 X14.76 Y37.019999999999996; draw line
G1 X13.62 Y36.72; draw line
G1 X12.54 Y37.26; draw line
G1 X12.6 Y37.08; draw line
G1 X13.08 Y36.78; draw line
G1 X13.2 Y36.3; draw line
G1 X13.08 Y35.94; draw line
G1 X12.78 Y35.699999999999996; draw line
G1 X12.42 Y35.64; draw line
G1 X11.94 Y36.12; draw line
G1 X11.94 Y36.66; draw line
G1 X12.54 Y37.26; draw line
G1 X12.0 Y37.08; draw line
G1 X11.76 Y36.839999999999996; draw line
G1 X11.639999999999999 Y36.24; draw back to polygon start
G1 F50.0; Z feedrate
G1 Z1.0; Z clearance height
G1 F1500.0; XY feedrate
G1 X11.639999999999999 Y38.76; move to polygon start
G1 F50.0; Z feedrate
G1 Z0.0; Z drawing height
G1 F1500.0; XY feedrate
G1 X11.94 Y38.22; draw line
G1 X12.54 Y37.98; draw line
G1 X13.26 Y38.339999999999996; draw line
G1 X13.62 Y38.94; draw line
G1 X14.76 Y39.12; draw line
G1 X15.24 Y38.76; draw line
G1 X15.84 Y38.64; draw line
G1 X16.38 Y38.94; draw line
G1 X16.56 Y39.36; draw line
G1 X16.38 Y39.48; draw line
G1 X16.259999999999998 Y39.12; draw line
G1 X15.959999999999999 Y38.879999999999995; draw line
G1 X15.6 Y38.82; draw line
G1 X15.12 Y39.3; draw line
G1 X15.12 Y39.839999999999996; draw line
G1 X15.78 Y40.26; draw line
G1 X16.259999999999998 Y39.96; draw line
G1 X16.56 Y39.36; draw line
G1 X16.5 Y39.9; draw line
G1 X16.259999999999998 Y40.26; draw line
G1 X15.66 Y40.44; draw line
G1 X15.12 Y40.199999999999996; draw line
G1 X14.76 Y39.54; draw line
G1 X13.62 Y39.24; draw line
G1 X12.54 Y39.78; draw line
G1 X12.6 Y39.6; draw line
G1 X13.08 Y39.3; draw line
G1 X13.2 Y38.82; draw line
G1 X13.08 Y38.46; draw line
G1 X12.78 Y38.22; draw line
G1 X12.42 Y38.16; draw line
G1 X11.94 Y38.64; draw line
G1 X11.94 Y39.18; draw line
G1 X12.54 Y39.78; draw line
G1 X12.0 Y39.6; draw line
G1 X11.76 Y39.36; draw line
G1 X11.639999999999999 Y38.76; draw back to polygon start
G1 F50.0; Z feedrate
G1 Z1.0; Z clearance height
G1 F1500.0; XY feedrate
G1 X11.639999999999999 Y42.6; move to polygon start
G1 F50.0; Z feedrate
G1 Z0.0; Z drawing height
G1 F1500.0; XY feedrate
G1 X11.94 Y42.059999999999995; draw line
G1 X12.54 Y41.82; draw line
G1 X12.42 Y42.0; draw line
G1 X11.94 Y42.48; draw line
G1 X11.94 Y43.019999999999996; draw line
G1 X12.6 Y43.44; draw line
G1 X13.08 Y43.14; draw line
G1 X13.2 Y42.66; draw line
G1 X13.08 Y42.3; draw line
G1 X12.78 Y42.059999999999995; draw line
G1 X12.54 Y41.82; draw line
G1 X13.559999999999999 Y42.3; draw line
G1 X14.7 Y42.12; draw line
G1 X15.18 Y41.339999999999996; draw line
G1 X15.959999999999999 Y41.16; draw line
G1 X16.439999999999998 Y41.519999999999996; draw line
G1 X16.56 Y42.42; draw line
G1 X16.259999999999998 Y42.78; draw line
G1 X15.78 Y42.96; draw line
G1 X15.78 Y42.78; draw line
G1 X16.259999999999998 Y42.48; draw line
G1 X16.38 Y42.0; draw line
G1 X16.259999999999998 Y41.64; draw line
G1 X15.959999999999999 Y41.4; draw line
G1 X15.6 Y41.339999999999996; draw line
G1 X15.12 Y41.82; draw line
G1 X15.12 Y42.36; draw line
G1 X15.78 Y42.96; draw line
G1 X14.7 Y42.48; draw line
G1 X13.559999999999999 Y42.66; draw line
G1 X13.08 Y43.44; draw line
G1 X12.299999999999999 Y43.62; draw line
G1 X11.76 Y43.199999999999996; draw line
G1 X11.639999999999999 Y42.6; draw back to polygon start
G1 F50.0; Z feedrate
G1 Z1.0; Z clearance height
G1 F1500.0; XY feedrate
G1 X11.639999999999999 Y45.12; move to polygon start
G1 F50.0; Z feedrate
G1 Z0.0; Z drawing height
G1 F1500.0; XY feedrate
G1 X11.94 Y44.58; draw line
G1 X12.54 Y44.339999999999996; draw line
G1 X13.559999999999999 Y44.879999999999995; draw line
G1 X14.76 Y44.58; draw line
G1 X15.12 Y43.98; draw line
G1 X15.78 Y43.739999999999995; draw line
G1 X16.32 Y43.98; draw line
G1 X16.259999999999998 Y44.22; draw line
G1 X15.959999999999999 Y43.98; draw line
G1 X15.6 Y43.92; draw line
G1 X15.12 Y44.4; draw line
G1 X15.12 Y44.94; draw line
G1 X15.78 Y45.36; draw line
G1 X16.259999999999998 Y45.059999999999995; draw line
G1 X16.38 Y44.58; draw line
G1 X16.32 Y43.98; draw line
G1 X16.56 Y44.4; draw line
G1 X16.56 Y44.94; draw line
G1 X16.2 Y45.42; draw line
G1 X15.6 Y45.54; draw line
G1 X14.82 Y45.0; draw line
G1 X13.74 Y45.18; draw line
G1 X13.44 Y45.36; draw line
G1 X13.08 Y45.96; draw line
G1 X12.66 Y46.14; draw line
G1 X12.6 Y45.96; draw line
G1 X13.08 Y45.66; draw line
G1 X13.2 Y45.18; draw line
G1 X13.08 Y44.82; draw line
G1 X12.78 Y44.58; draw line
G1 X12.42 Y44.519999999999996; draw line
G1 X11.94 Y45.0; draw line
G1 X11.94 Y45.54; draw line
G1 X12.66 Y46.14; draw line
G1 X12.12 Y46.019999999999996; draw line
G1 X11.7 Y45.42; draw line
G1 X11.639999999999999 Y45.12; draw back to polygon start
G1 F50.0; Z feedrate
G1 Z1.0; Z clearance height
G1 F1500.0; XY feedrate
G1 X11.639999999999999 Y47.699999999999996; move to polygon start
G1 F50.0; Z feedrate
G1 Z0.0; Z drawing height
G1 F1500.0; XY feedrate
G1 X11.94 Y47.16; draw line
G1 X12.54 Y46.92; draw line
G1 X12.42 Y47.1; draw line
G1 X11.94 Y47.58; draw line
G1 X11.94 Y48.12; draw line
G1 X12.6 Y48.54; draw line
G1 X13.08 Y48.239999999999995; draw line
G1 X13.2 Y47.76; draw line
G1 X13.08 Y47.4; draw line
G1 X12.78 Y47.16; draw line
G1 X12.54 Y46.92; draw line
G1 X13.559999999999999 Y47.4; draw line
G1 X14.7 Y47.22; draw line
G1 X15.18 Y46.44; draw line
G1 X15.959999999999999 Y46.26; draw line
G1 X16.439999999999998 Y46.62; draw line
G1 X16.56 Y47.519999999999996; draw line
G1 X16.259999999999998 Y47.879999999999995; draw line
G1 X15.78 Y48.059999999999995; draw line
G1 X15.78 Y47.879999999999995; draw line
G1 X16.259999999999998 Y47.58; draw line
G1 X16.38 Y47.1; draw line
G1 X16.259999999999998 Y46.739999999999995; draw line
G1 X15.959999999999999 Y46.5; draw line
G1 X15.6 Y46.44; draw line
G1 X15.12 Y46.92; draw line
G1 X15.12 Y47.46; draw line
G1 X15.78 Y48.059999999999995; draw line
G1 X14.7 Y47.58; draw line
G1 X13.559999999999999 Y47.76; draw line
G1 X13.08 Y48.54; draw line
G1 X12.299999999999999 Y48.72; draw line
G1 X11.76 Y48.3; draw line
G1 X11.639999999999999 Y47.699999999999996; draw back to polygon start
G1 F50.0; Z feedrate
G1 Z1.0; Z clearance height
G1 F1500.0; XY feedrate
G1 X11.639999999999999 Y50.22; move to polygon start
G1 F50.0; Z feedrate
G1 Z0.0; Z drawing height
G1 F1500.0; XY feedrate
G1 X11.94 Y49.68; draw line
G1 X12.54 Y49.44; draw line
G1 X12.42 Y49.62; draw line
G1 X11.94 Y50.1; draw line
G1 X11.94 Y50.64; draw line
G1 X12.6 Y51.059999999999995; draw line
G1 X13.08 Y50.76; draw line
G1 X13.2 Y50.28; draw line
G1 X13.08 Y49.92; draw line
G1 X12.78 Y49.68; draw line
G1 X12.54 Y49.44; draw line
G1 X13.559999999999999 Y49.92; draw line
G1 X14.7 Y49.739999999999995; draw line
G1 X15.18 Y48.96; draw line
G1 X15.959999999999999 Y48.78; draw line
G1 X16.439999999999998 Y49.14; draw line
G1 X16.56 Y50.04; draw line
G1 X16.259999999999998 Y50.4; draw line
G1 X15.78 Y50.58; draw line
G1 X15.78 Y50.4; draw line
G1 X16.259999999999998 Y50.1; draw line
G1 X16.38 Y49.62; draw line
G1 X16.259999999999998 Y49.26; draw line
G1 X15.959999999999999 Y49.019999999999996; draw line
G1 X15.6 Y48.96; draw line
G1 X15.12 Y49.44; draw line
G1 X15.12 Y49.98; draw line
G1 X15.78 Y50.58; draw line
G1 X14.7 Y50.1; draw line
G1 X13.559999999999999 Y50.28; draw line
G1 X13.08 Y51.059999999999995; draw line
G1 X12.299999999999999 Y51.239999999999995; draw line
G1 X11.76 Y50.82; draw line
G1 X11.639999999999999 Y50.22; draw back to polygon start
G1 F50.0; Z feedrate
G1 Z1.0; Z clearance height
G1 F1500.0; XY feedrate
G1 X11.639999999999999 Y54.0; move to polygon start
G1 F50.0; Z feedrate
G1 Z0.0; Z drawing height
G1 F1500.0; XY feedrate
G1 X11.94 Y53.46; draw line
G1 X12.48 Y53.22; draw line
G1 X12.42 Y53.4; draw line
G1 X11.94 Y53.879999999999995; draw line
G1 X11.94 Y54.419999999999995; draw line
G1 X12.6 Y54.839999999999996; draw line
G1 X13.08 Y54.54; draw line
G1 X13.2 Y54.059999999999995; draw line
G1 X13.08 Y53.699999999999996; draw line
G1 X12.78 Y53.46; draw line
G1 X12.48 Y53.22; draw line
G1 X13.379999999999999 Y53.4; draw line
G1 X14.82 Y52.559999999999995; draw line
G1 X14.94 Y51.839999999999996; draw line
G1 X15.479999999999999 Y51.419999999999995; draw line
G1 X15.6 Y51.54; draw line
G1 X15.12 Y52.019999999999996; draw line
G1 X15.12 Y52.559999999999995; draw line
G1 X15.78 Y52.98; draw line
G1 X16.259999999999998 Y52.68; draw line
G1 X16.38 Y52.199999999999996; draw line
G1 X16.259999999999998 Y51.839999999999996; draw line
G1 X15.959999999999999 Y51.6; draw line
G1 X15.479999999999999 Y51.419999999999995; draw line
G1 X16.02 Y51.419999999999995; draw line
G1 X16.439999999999998 Y51.72; draw line
G1 X16.56 Y52.559999999999995; draw line
G1 X16.14 Y53.04; draw line
G1 X15.479999999999999 Y53.16; draw line
G1 X14.879999999999999 Y52.98; draw line
G1 X13.44 Y53.879999999999995; draw line
G1 X13.32 Y54.54; draw line
G1 X13.02 Y54.9; draw line
G1 X12.48 Y55.019999999999996; draw line
G1 X11.879999999999999 Y54.72; draw line
G1 X11.639999999999999 Y54.0; draw back to polygon start
G1 F50.0; Z feedrate
G1 Z1.0; Z clearance height
G1 F1500.0; XY feedrate
G1 X11.639999999999999 Y56.58; move to polygon start
G1 F50.0; Z feedrate
G1 Z0.0; Z drawing height
G1 F1500.0; XY feedrate
G1 X11.94 Y56.04; draw line
G1 X12.48 Y55.8; draw line
G1 X12.42 Y55.98; draw line
G1 X11.94 Y56.46; draw line
G1 X11.94 Y57.0; draw line
G1 X12.6 Y57.419999999999995; draw line
G1 X13.08 Y57.12; draw line
G1 X13.2 Y56.64; draw line
G1 X13.08 Y56.28; draw line
G1 X12.78 Y56.04; draw line
G1 X12.48 Y55.8; draw line
G1 X13.379999999999999 Y55.98; draw line
G1 X14.82 Y55.08; draw line
G1 X14.94 Y54.36; draw line
G1 X15.479999999999999 Y53.94; draw line
G1 X15.6 Y54.059999999999995; draw line
G1 X15.12 Y54.54; draw line
G1 X15.12 Y55.08; draw line
G1 X15.78 Y55.5; draw line
G1 X16.259999999999998 Y55.199999999999996; draw line
G1 X16.38 Y54.72; draw line
G1 X16.259999999999998 Y54.36; draw line
G1 X15.959999999999999 Y54.12; draw line
G1 X15.479999999999999 Y53.94; draw line
G1 X16.02 Y53.94; draw line
G1 X16.439999999999998 Y54.239999999999995; draw line
G1 X16.56 Y55.08; draw line
G1 X16.14 Y55.559999999999995; draw line
G1 X15.479999999999999 Y55.68; draw line
G1 X14.879999999999999 Y55.5; draw line
G1 X13.44 Y56.46; draw line
G1 X13.32 Y57.12; draw line
G1 X13.02 Y57.48; draw line
G1 X12.48 Y57.599999999999994; draw line
G1 X11.879999999999999 Y57.3; draw line
G1 X11.639999999999999 Y56.58; draw back to polygon start
G1 F50.0; Z feedrate
G1 Z1.0; Z clearance height
G1 F1500.0; XY feedrate
G1 X11.639999999999999 Y59.099999999999994; move to polygon start
G1 F50.0; Z feedrate
G1 Z0.0; Z drawing height
G1 F1500.0; XY feedrate
G1 X11.94 Y58.559999999999995; draw line
G1 X12.48 Y58.32; draw line
G1 X12.42 Y58.5; draw line
G1 X11.94 Y58.98; draw line
G1 X11.94 Y59.519999999999996; draw line
G1 X12.6 Y59.94; draw line
G1 X13.08 Y59.64; draw line
G1 X13.2 Y59.16; draw line
G1 X13.08 Y58.8; draw line
G1 X12.78 Y58.559999999999995; draw line
G1 X12.48 Y58.32; draw line
G1 X13.379999999999999 Y58.5; draw line
G1 X14.82 Y57.599999999999994; draw line
G1 X14.94 Y56.879999999999995; draw line
G1 X15.479999999999999 Y56.46; draw line
G1 X15.6 Y56.58; draw line
G1 X15.12 Y57.059999999999995; draw line
G1 X15.12 Y57.599999999999994; draw line
G1 X15.78 Y58.019999999999996; draw line
G1 X16.259999999999998 Y57.72; draw line
G1 X16.38 Y57.239999999999995; draw line
G1 X16.259999999999998 Y56.879999999999995; draw line
G1 X15.959999999999999 Y56.64; draw line
G1 X15.479999999999999 Y56.46; draw line
G1 X16.02 Y56.46; draw line
G1 X16.439999999999998 Y56.76; draw line
G1 X16.56 Y57.599999999999994; draw line
G1 X16.14 Y58.08; draw line
G1 X15.479999999999999 Y58.199999999999996; draw line
G1 X14.879999999999999 Y58.019999999999996; draw line
G1 X13.44 Y58.98; draw line
G1 X13.32 Y59.64; draw line
G1 X13.02 Y60.0; draw line
G1 X12.48 Y60.12; draw line
G1 X11.879999999999999 Y59.82; draw line
G1 X11.639999999999999 Y59.099999999999994; draw back to polygon start
G1 F50.0; Z feedrate
G1 Z1.0; Z clearance height
G1 F1500.0; XY feedrate
G1 X11.639999999999999 Y61.62; move to polygon start
G1 F50.0; Z feedrate
G1 Z0.0; Z drawing height
G1 F1500.0; XY feedrate
G1 X11.94 Y61.08; draw line
G1 X12.48 Y60.839999999999996; draw line
G1 X12.42 Y61.019999999999996; draw line
G1 X11.94 Y61.5; draw line
G1 X11.94 Y62.04; draw line
G1 X12.6 Y62.46; draw line
G1 X13.08 Y62.16; draw line
G1 X13.2 Y61.68; draw line
G1 X13.08 Y61.32; draw line
G1 X12.78 Y61.08; draw line
G1 X12.48 Y60.839999999999996; draw line
G1 X13.379999999999999 Y61.019999999999996; draw line
G1 X14.82 Y60.18; draw line
G1 X14.94 Y59.46; draw line
G1 X15.479999999999999 Y59.04; draw line
G1 X15.6 Y59.16; draw line
G1 X15.12 Y59.64; draw line
G1 X15.12 Y60.18; draw line
G1 X15.78 Y60.599999999999994; draw line
G1 X16.259999999999998 Y60.3; draw line
G1 X16.38 Y59.82; draw line
G1 X16.259999999999998 Y59.46; draw line
G1 X15.959999999999999 Y59.22; draw line
G1 X15.479999999999999 Y59.04; draw line
G1 X16.02 Y59.04; draw line
G1 X16.439999999999998 Y59.339999999999996; draw line
G1 X16.56 Y60.18; draw line
G1 X16.14 Y60.66; draw line
G1 X15.479999999999999 Y60.78; draw line
G1 X14.879999999999999 Y60.599999999999994; draw line
G1 X13.44 Y61.5; draw line
G1 X13.32 Y62.16; draw line
G1 X13.02 Y62.519999999999996; draw line
G1 X12.48 Y62.64; draw line
G1 X11.879999999999999 Y62.339999999999996; draw line
G1 X11.639999999999999 Y61.62; draw back to polygon start
G1 F50.0; Z feedrate
G1 Z1.0; Z clearance height
G1 F1500.0; XY feedrate
G1 X14.82 Y62.28; move to polygon start
G1 F50.0; Z feedrate
G1 Z0.0; Z drawing height
G1 F1500.0; XY feedrate
G1 X15.12 Y61.739999999999995; draw line
G1 X15.66 Y61.5; draw line
G1 X15.6 Y61.68; draw line
G1 X15.12 Y62.16; draw line
G1 X15.12 Y62.699999999999996; draw line
G1 X15.78 Y63.12; draw line
G1 X16.259999999999998 Y62.82; draw line
G1 X16.38 Y62.339999999999996; draw line
G1 X16.259999999999998 Y61.98; draw line
G1 X15.959999999999999 Y61.739999999999995; draw line
G1 X15.66 Y61.5; draw line
G1 X16.38 Y61.8; draw line
G1 X16.68 Y62.22; draw line
G1 X17.4 Y62.099999999999994; draw line
G1 X17.82 Y61.62; draw line
G1 X18.54 Y61.559999999999995; draw line
G1 X18.48 Y61.739999999999995; draw line
G1 X18.12 Y61.68; draw line
G1 X17.64 Y62.16; draw line
G1 X17.64 Y62.699999999999996; draw line
G1 X18.3 Y63.12; draw line
G1 X18.779999999999998 Y62.82; draw line
G1 X18.9 Y62.339999999999996; draw line
G1 X18.779999999999998 Y61.98; draw line
G1 X18.54 Y61.559999999999995; draw line
G1 X19.38 Y62.28; draw line
G1 X19.8 Y62.4; draw line
G1 X20.279999999999998 Y62.099999999999994; draw line
G1 X20.34 Y60.18; draw line
G1 X21.96 Y58.199999999999996; draw line
G1 X22.56 Y53.46; draw line
G1 X24.06 Y50.879999999999995; draw line
G1 X24.84 Y50.699999999999996; draw line
G1 X24.84 Y50.94; draw line
G1 X24.48 Y50.879999999999995; draw line
G1 X24.0 Y51.36; draw line
G1 X24.0 Y51.9; draw line
G1 X24.66 Y52.32; draw line
G1 X25.14 Y52.019999999999996; draw line
G1 X25.259999999999998 Y51.54; draw line
G1 X25.14 Y51.18; draw line
G1 X24.84 Y50.699999999999996; draw line
G1 X25.56 Y51.419999999999995; draw line
G1 X26.22 Y51.36; draw line
G1 X26.58 Y50.879999999999995; draw line
G1 X27.36 Y50.699999999999996; draw line
G1 X28.14 Y51.419999999999995; draw line
G1 X28.74 Y51.36; draw line
G1 X29.099999999999998 Y50.879999999999995; draw line
G1 X29.52 Y50.699999999999996; draw line
G1 X29.52 Y50.879999999999995; draw line
G1 X29.04 Y51.36; draw line
G1 X29.04 Y51.9; draw line
G1 X29.7 Y52.32; draw line
G1 X30.18 Y52.019999999999996; draw line
G1 X30.299999999999997 Y51.54; draw line
G1 X30.18 Y51.18; draw line
G1 X29.88 Y50.94; draw line
G1 X29.52 Y50.699999999999996; draw line
G1 X30.299999999999997 Y51.0; draw line
G1 X30.599999999999998 Y51.419999999999995; draw line
G1 X31.32 Y51.36; draw line
G1 X31.68 Y50.879999999999995; draw line
G1 X32.28 Y50.699999999999996; draw line
G1 X32.58 Y50.76; draw line
G1 X33.18 Y51.419999999999995; draw line
G1 X33.78 Y51.419999999999995; draw line
G1 X34.26 Y50.82; draw line
G1 X35.04 Y50.76; draw line
G1 X35.699999999999996 Y51.419999999999995; draw line
G1 X36.36 Y51.36; draw line
G1 X36.78 Y50.82; draw line
G1 X37.559999999999995 Y50.76; draw line
G1 X37.5 Y50.94; draw line
G1 X37.14 Y50.879999999999995; draw line
G1 X36.66 Y51.36; draw line
G1 X36.66 Y51.9; draw line
G1 X37.32 Y52.32; draw line
G1 X37.8 Y52.019999999999996; draw line
G1 X37.92 Y51.54; draw line
G1 X37.8 Y51.18; draw line
G1 X37.559999999999995 Y50.76; draw line
G1 X38.339999999999996 Y51.54; draw line
G1 X43.199999999999996 Y52.08; draw line
G1 X49.14 Y52.019999999999996; draw line
G1 X49.5 Y51.6; draw line
G1 X50.04 Y51.419999999999995; draw line
G1 X50.699999999999996 Y51.78; draw line
G1 X50.879999999999995 Y52.08; draw line
G1 X51.54 Y52.08; draw line
G1 X51.78 Y51.419999999999995; draw line
G1 X53.339999999999996 Y51.419999999999995; draw line
G1 X53.339999999999996 Y53.04; draw line
G1 X51.66 Y52.98; draw line
G1 X51.54 Y52.44; draw line
G1 X50.879999999999995 Y52.44; draw line
G1 X50.58 Y52.86; draw line
G1 X50.04 Y53.1; draw line
G1 X50.04 Y52.98; draw line
G1 X50.519999999999996 Y52.68; draw line
G1 X50.64 Y52.199999999999996; draw line
G1 X50.519999999999996 Y51.839999999999996; draw line
G1 X50.22 Y51.6; draw line
G1 X49.86 Y51.54; draw line
G1 X49.379999999999995 Y52.019999999999996; draw line
G1 X49.379999999999995 Y52.559999999999995; draw line
G1 X50.04 Y53.1; draw line
G1 X49.68 Y53.04; draw line
G1 X49.019999999999996 Y52.44; draw line
G1 X43.379999999999995 Y52.44; draw line
G1 X43.199999999999996 Y52.919999999999995; draw line
G1 X43.32 Y54.0; draw line
G1 X43.26 Y54.12; draw line
G1 X42.9 Y54.059999999999995; draw line
G1 X42.42 Y54.54; draw line
G1 X42.42 Y55.08; draw line
G1 X43.08 Y55.5; draw line
G1 X43.559999999999995 Y55.199999999999996; draw line
G1 X43.68 Y54.72; draw line
G1 X43.559999999999995 Y54.36; draw line
G1 X43.32 Y54.0; draw line
G1 X43.68 Y54.239999999999995; draw line
G1 X43.8 Y55.08; draw line
G1 X43.62 Y55.379999999999995; draw line
G1 X43.019999999999996 Y55.62; draw line
G1 X42.36 Y55.32; draw line
G1 X42.239999999999995 Y54.48; draw line
G1 X42.78 Y53.82; draw line
G1 X42.96 Y53.76; draw line
G1 X42.9 Y52.32; draw line
G1 X43.14 Y52.32; draw line
G1 X42.78 Y53.82; draw line
G1 X42.66 Y52.379999999999995; draw line
G1 X38.1 Y51.96; draw line
G1 X37.68 Y52.379999999999995; draw line
G1 X36.96 Y52.44; draw line
G1 X36.12 Y51.78; draw line
G1 X35.58 Y51.9; draw line
G1 X35.28 Y52.32; draw line
G1 X34.74 Y52.5; draw line
G1 X34.8 Y52.32; draw line
G1 X35.28 Y52.019999999999996; draw line
G1 X35.4 Y51.54; draw line
G1 X35.28 Y51.18; draw line
G1 X34.98 Y50.94; draw line
G1 X34.62 Y50.879999999999995; draw line
G1 X34.14 Y51.36; draw line
G1 X34.14 Y51.9; draw line
G1 X34.74 Y52.5; draw line
G1 X34.019999999999996 Y52.14; draw line
G1 X33.72 Y51.78; draw line
G1 X33.12 Y51.839999999999996; draw line
G1 X32.76 Y52.32; draw line
G1 X32.339999999999996 Y52.5; draw line
G1 X32.28 Y52.32; draw line
G1 X32.76 Y52.019999999999996; draw line
G1 X32.879999999999995 Y51.54; draw line
G1 X32.76 Y51.18; draw line
G1 X32.46 Y50.94; draw line
G1 X32.1 Y50.879999999999995; draw line
G1 X31.619999999999997 Y51.36; draw line
G1 X31.619999999999997 Y51.9; draw line
G1 X32.339999999999996 Y52.5; draw line
G1 X31.619999999999997 Y52.26; draw line
G1 X31.2 Y51.78; draw line
G1 X30.54 Y51.839999999999996; draw line
G1 X30.119999999999997 Y52.379999999999995; draw line
G1 X29.34 Y52.44; draw line
G1 X28.619999999999997 Y51.78; draw line
G1 X28.08 Y51.78; draw line
G1 X27.66 Y52.32; draw line
G1 X27.24 Y52.5; draw line
G1 X27.18 Y52.32; draw line
G1 X27.66 Y52.019999999999996; draw line
G1 X27.779999999999998 Y51.54; draw line
G1 X27.66 Y51.18; draw line
G1 X27.36 Y50.94; draw line
G1 X27.0 Y50.879999999999995; draw line
G1 X26.52 Y51.36; draw line
G1 X26.52 Y51.9; draw line
G1 X27.24 Y52.5; draw line
G1 X26.64 Y52.32; draw line
G1 X26.16 Y51.78; draw line
G1 X25.56 Y51.78; draw line
G1 X25.14 Y52.32; draw line
G1 X24.36 Y52.5; draw line
G1 X23.82 Y52.08; draw line
G1 X23.58 Y52.08; draw line
G1 X22.74 Y53.94; draw line
G1 X22.2 Y58.44; draw line
G1 X20.64 Y60.18; draw line
G1 X20.58 Y62.4; draw line
G1 X20.46 Y62.519999999999996; draw line
G1 X19.74 Y62.46; draw line
G1 X19.08 Y62.699999999999996; draw line
G1 X18.779999999999998 Y63.12; draw line
G1 X18.0 Y63.3; draw line
G1 X17.099999999999998 Y62.58; draw line
G1 X16.62 Y62.64; draw line
G1 X16.2 Y63.18; draw line
G1 X15.479999999999999 Y63.3; draw line
G1 X14.94 Y62.879999999999995; draw line
G1 X14.82 Y62.28; draw back to polygon start
G1 F50.0; Z feedrate
G1 Z1.0; Z clearance height
G1 F1500.0; XY feedrate
G1 X17.34 Y59.76; move to polygon start
G1 F50.0; Z feedrate
G1 Z0.0; Z drawing height
G1 F1500.0; XY feedrate
G1 X17.7 Y59.16; draw line
G1 X18.12 Y58.98; draw line
G1 X18.12 Y59.16; draw line
G1 X17.64 Y59.64; draw line
G1 X17.64 Y60.18; draw line
G1 X18.3 Y60.599999999999994; draw line
G1 X18.779999999999998 Y60.3; draw line
G1 X18.9 Y59.82; draw line
G1 X18.779999999999998 Y59.46; draw line
G1 X18.48 Y59.22; draw line
G1 X18.12 Y58.98; draw line
G1 X18.72 Y59.16; draw line
G1 X19.08 Y59.76; draw line
G1 X19.02 Y60.239999999999995; draw line
G1 X18.779999999999998 Y60.599999999999994; draw line
G1 X18.36 Y60.78; draw line
G1 X17.82 Y60.66; draw line
G1 X17.4 Y60.059999999999995; draw line
G1 X17.34 Y59.76; draw back to polygon start
G1 F50.0; Z feedrate
G1 Z1.0; Z clearance height
G1 F1500.0; XY feedrate
G1 X17.34 Y57.18; move to polygon start
G1 F50.0; Z feedrate
G1 Z0.0; Z drawing height
G1 F1500.0; XY feedrate
G1 X17.759999999999998 Y56.519999999999996; draw line
G1 X18.48 Y56.4; draw line
G1 X18.48 Y56.64; draw line
G1 X18.12 Y56.58; draw line
G1 X17.64 Y57.059999999999995; draw line
G1 X17.64 Y57.599999999999994; draw line
G1 X18.3 Y58.019999999999996; draw line
G1 X18.779999999999998 Y57.72; draw line
G1 X18.9 Y57.239999999999995; draw line
G1 X18.779999999999998 Y56.879999999999995; draw line
G1 X18.48 Y56.4; draw line
G1 X19.32 Y57.18; draw line
G1 X19.8 Y57.12; draw line
G1 X20.64 Y56.28; draw line
G1 X21.36 Y52.68; draw line
G1 X23.7 Y49.5; draw line
G1 X24.54 Y49.26; draw line
G1 X45.0 Y49.32; draw line
G1 X45.6 Y50.16; draw line
G1 X53.4 Y50.22; draw line
G1 X55.32 Y48.0; draw line
G1 X58.26 Y48.0; draw line
G1 X60.78 Y46.379999999999995; draw line
G1 X71.88 Y46.32; draw line
G1 X72.36 Y45.9; draw line
G1 X72.42 Y44.699999999999996; draw line
G1 X72.84 Y44.16; draw line
G1 X75.53999999999999 Y44.16; draw line
G1 X76.67999999999999 Y43.8; draw line
G1 X78.06 Y43.019999999999996; draw line
G1 X78.06 Y42.78; draw line
G1 X77.82 Y42.54; draw line
G1 X77.75999999999999 Y41.76; draw line
G1 X78.0 Y41.4; draw line
G1 X78.78 Y41.22; draw line
G1 X79.2 Y41.519999999999996; draw line
G1 X79.08 Y41.64; draw line
G1 X78.78 Y41.4; draw line
G1 X78.42 Y41.339999999999996; draw line
G1 X77.94 Y41.82; draw line
G1 X77.94 Y42.36; draw line
G1 X78.6 Y42.78; draw line
G1 X79.08 Y42.48; draw line
G1 X79.2 Y42.0; draw line
G1 X79.2 Y41.519999999999996; draw line
G1 X79.32 Y42.36; draw line
G1 X78.36 Y43.26; draw line
G1 X76.44 Y44.16; draw line
G1 X75.24 Y44.4; draw line
G1 X72.89999999999999 Y44.4; draw line
G1 X72.66 Y45.059999999999995; draw line
G1 X72.6 Y45.96; draw line
G1 X71.94 Y46.62; draw line
G1 X60.78 Y46.62; draw line
G1 X58.199999999999996 Y48.239999999999995; draw line
G1 X55.379999999999995 Y48.3; draw line
G1 X53.46 Y50.46; draw line
G1 X45.48 Y50.46; draw line
G1 X44.699999999999996 Y49.5; draw line
G1 X24.48 Y49.559999999999995; draw line
G1 X23.64 Y49.92; draw line
G1 X21.48 Y53.04; draw line
G1 X21.3 Y55.019999999999996; draw line
G1 X20.82 Y56.46; draw line
G1 X19.86 Y57.419999999999995; draw line
G1 X19.14 Y57.54; draw line
G1 X18.72 Y58.08; draw line
G1 X18.0 Y58.199999999999996; draw line
G1 X17.46 Y57.78; draw line
G1 X17.34 Y57.18; draw back to polygon start
G1 F50.0; Z feedrate
G1 Z1.0; Z clearance height
G1 F1500.0; XY feedrate
G1 X17.34 Y54.66; move to polygon start
G1 F50.0; Z feedrate
G1 Z0.0; Z drawing height
G1 F1500.0; XY feedrate
G1 X17.64 Y54.12; draw line
G1 X18.18 Y53.879999999999995; draw line
G1 X18.12 Y54.059999999999995; draw line
G1 X17.64 Y54.54; draw line
G1 X17.64 Y55.08; draw line
G1 X18.3 Y55.5; draw line
G1 X18.779999999999998 Y55.199999999999996; draw line
G1 X18.9 Y54.72; draw line
G1 X18.779999999999998 Y54.36; draw line
G1 X18.48 Y54.12; draw line
G1 X18.18 Y53.879999999999995; draw line
G1 X18.54 Y53.94; draw line
G1 X19.259999999999998 Y54.419999999999995; draw line
G1 X20.34 Y51.839999999999996; draw line
G1 X24.9 Y46.739999999999995; draw line
G1 X27.18 Y46.739999999999995; draw line
G1 X27.66 Y47.339999999999996; draw line
G1 X45.3 Y47.339999999999996; draw line
G1 X46.62 Y48.9; draw line
G1 X52.8 Y48.96; draw line
G1 X54.72 Y46.739999999999995; draw line
G1 X57.9 Y46.739999999999995; draw line
G1 X61.019999999999996 Y44.519999999999996; draw line
G1 X63.0 Y44.46; draw line
G1 X63.18 Y43.86; draw line
G1 X63.12 Y43.019999999999996; draw line
G1 X62.519999999999996 Y42.239999999999995; draw line
G1 X62.58 Y41.64; draw line
G1 X62.82 Y41.4; draw line
G1 X63.419999999999995 Y41.22; draw line
G1 X63.96 Y41.519999999999996; draw line
G1 X63.839999999999996 Y41.64; draw line
G1 X63.54 Y41.4; draw line
G1 X63.18 Y41.339999999999996; draw line
G1 X62.699999999999996 Y41.82; draw line
G1 X62.699999999999996 Y42.36; draw line
G1 X63.36 Y42.78; draw line
G1 X63.839999999999996 Y42.48; draw line
G1 X63.96 Y42.0; draw line
G1 X63.96 Y41.519999999999996; draw line
G1 X64.08 Y42.42; draw line
G1 X63.419999999999995 Y43.199999999999996; draw line
G1 X63.36 Y44.339999999999996; draw line
G1 X63.059999999999995 Y44.76; draw line
G1 X61.019999999999996 Y44.82; draw line
G1 X58.62 Y46.559999999999995; draw line
G1 X57.78 Y46.98; draw line
G1 X54.839999999999996 Y47.04; draw line
G1 X52.919999999999995 Y49.199999999999996; draw line
G1 X46.44 Y49.199999999999996; draw line
G1 X45.0 Y47.58; draw line
G1 X27.36 Y47.58; draw line
G1 X27.119999999999997 Y47.04; draw line
G1 X24.96 Y47.04; draw line
G1 X20.64 Y51.96; draw line
G1 X19.439999999999998 Y54.66; draw line
G1 X19.14 Y54.839999999999996; draw line
G1 X18.84 Y55.44; draw line
G1 X18.12 Y55.62; draw line
G1 X17.82 Y55.559999999999995; draw line
G1 X17.4 Y54.96; draw line
G1 X17.34 Y54.66; draw back to polygon start
G1 F50.0; Z feedrate
G1 Z1.0; Z clearance height
G1 F1500.0; XY feedrate
G1 X17.34 Y52.14; move to polygon start
G1 F50.0; Z feedrate
G1 Z0.0; Z drawing height
G1 F1500.0; XY feedrate
G1 X17.64 Y51.6; draw line
G1 X18.18 Y51.36; draw line
G1 X18.12 Y51.54; draw line
G1 X17.64 Y52.019999999999996; draw line
G1 X17.64 Y52.559999999999995; draw line
G1 X18.3 Y52.98; draw line
G1 X18.779999999999998 Y52.68; draw line
G1 X18.9 Y52.199999999999996; draw line
G1 X18.779999999999998 Y51.839999999999996; draw line
G1 X18.48 Y51.6; draw line
G1 X18.18 Y51.36; draw line
G1 X19.08 Y51.54; draw line
G1 X24.3 Y45.42; draw line
G1 X27.84 Y45.42; draw line
G1 X28.439999999999998 Y46.08; draw line
G1 X46.26 Y46.14; draw line
G1 X47.16 Y47.58; draw line
G1 X47.4 Y47.699999999999996; draw line
G1 X52.14 Y47.64; draw line
G1 X53.22 Y46.32; draw line
G1 X53.519999999999996 Y45.12; draw line
G1 X57.96 Y45.059999999999995; draw line
G1 X60.599999999999994 Y43.199999999999996; draw line
G1 X60.48 Y42.839999999999996; draw line
G1 X60.12 Y42.6; draw line
G1 X60.0 Y42.239999999999995; draw line
G1 X60.059999999999995 Y41.699999999999996; draw line
G1 X60.3 Y41.4; draw line
G1 X60.839999999999996 Y41.22; draw line
G1 X61.44 Y41.519999999999996; draw line
G1 X61.32 Y41.64; draw line
G1 X61.019999999999996 Y41.4; draw line
G1 X60.66 Y41.339999999999996; draw line
G1 X60.18 Y41.82; draw line
G1 X60.18 Y42.36; draw line
G1 X60.839999999999996 Y42.78; draw line
G1 X61.32 Y42.48; draw line
G1 X61.44 Y42.0; draw line
G1 X61.44 Y41.519999999999996; draw line
G1 X61.559999999999995 Y42.42; draw line
G1 X60.9 Y43.199999999999996; draw line
G1 X60.839999999999996 Y43.44; draw line
G1 X57.839999999999996 Y45.36; draw line
G1 X53.699999999999996 Y45.42; draw line
G1 X53.58 Y46.199999999999996; draw line
G1 X52.26 Y47.94; draw line
G1 X47.04 Y47.879999999999995; draw line
G1 X45.96 Y46.32; draw line
G1 X28.259999999999998 Y46.26; draw line
G1 X27.72 Y45.66; draw line
G1 X24.3 Y45.72; draw line
G1 X19.2 Y51.78; draw line
G1 X19.02 Y52.68; draw line
G1 X18.72 Y53.04; draw line
G1 X18.0 Y53.16; draw line
G1 X17.46 Y52.739999999999995; draw line
G1 X17.34 Y52.14; draw back to polygon start
G1 F50.0; Z feedrate
G1 Z1.0; Z clearance height
G1 F1500.0; XY feedrate
G1 X17.34 Y49.559999999999995; move to polygon start
G1 F50.0; Z feedrate
G1 Z0.0; Z drawing height
G1 F1500.0; XY feedrate
G1 X17.64 Y49.019999999999996; draw line
G1 X18.24 Y48.78; draw line
G1 X18.12 Y48.96; draw line
G1 X17.64 Y49.44; draw line
G1 X17.64 Y49.98; draw line
G1 X18.3 Y50.4; draw line
G1 X18.779999999999998 Y50.1; draw line
G1 X18.9 Y49.62; draw line
G1 X18.779999999999998 Y49.26; draw line
G1 X18.48 Y49.019999999999996; draw line
G1 X18.24 Y48.78; draw line
G1 X19.08 Y49.14; draw line
G1 X20.04 Y48.3; draw line
G1 X23.759999999999998 Y44.28; draw line
G1 X24.06 Y44.16; draw line
G1 X28.5 Y44.22; draw line
G1 X29.16 Y44.82; draw line
G1 X47.82 Y44.879999999999995; draw line
G1 X48.059999999999995 Y46.019999999999996; draw line
G1 X48.6 Y46.379999999999995; draw line
G1 X51.239999999999995 Y46.32; draw line
G1 X52.08 Y45.3; draw line
G1 X52.08 Y44.28; draw line
G1 X52.44 Y43.86; draw line
G1 X57.239999999999995 Y43.86; draw line
G1 X57.96 Y43.14; draw line
G1 X57.96 Y42.9; draw line
G1 X57.54 Y42.54; draw line
G1 X57.54 Y41.64; draw line
G1 X58.199999999999996 Y41.22; draw line
G1 X58.14 Y41.339999999999996; draw line
G1 X57.66 Y41.82; draw line
G1 X57.66 Y42.36; draw line
G1 X58.32 Y42.78; draw line
G1 X58.8 Y42.48; draw line
G1 X58.919999999999995 Y42.0; draw line
G1 X58.8 Y41.64; draw line
G1 X58.5 Y41.4; draw line
G1 X58.199999999999996 Y41.22; draw line
G1 X58.919999999999995 Y41.519999999999996; draw line
G1 X59.04 Y42.42; draw line
G1 X57.36 Y44.1; draw line
G1 X52.5 Y44.16; draw line
G1 X52.32 Y44.58; draw line
G1 X52.32 Y45.54; draw line
G1 X51.18 Y46.62; draw line
G1 X48.3 Y46.559999999999995; draw line
G1 X47.64 Y45.9; draw line
G1 X47.46 Y45.059999999999995; draw line
G1 X28.919999999999998 Y45.0; draw line
G1 X28.259999999999998 Y44.4; draw line
G1 X23.939999999999998 Y44.46; draw line
G1 X19.08 Y49.739999999999995; draw line
G1 X19.08 Y50.04; draw line
G1 X18.72 Y50.46; draw line
G1 X18.0 Y50.58; draw line
G1 X17.46 Y50.16; draw line
G1 X17.34 Y49.559999999999995; draw back to polygon start
G1 F50.0; Z feedrate
G1 Z1.0; Z clearance height
G1 F1500.0; XY feedrate
G1 X17.34 Y47.04; move to polygon start
G1 F50.0; Z feedrate
G1 Z0.0; Z drawing height
G1 F1500.0; XY feedrate
G1 X17.64 Y46.5; draw line
G1 X18.48 Y46.26; draw line
G1 X18.48 Y46.5; draw line
G1 X18.12 Y46.44; draw line
G1 X17.64 Y46.92; draw line
G1 X17.64 Y47.46; draw line
G1 X18.3 Y47.879999999999995; draw line
G1 X18.779999999999998 Y47.58; draw line
G1 X18.9 Y47.1; draw line
G1 X18.779999999999998 Y46.739999999999995; draw line
G1 X18.48 Y46.26; draw line
G1 X18.9 Y46.5; draw line
G1 X19.2 Y46.5; draw line
G1 X20.34 Y45.839999999999996; draw line
G1 X23.279999999999998 Y42.6; draw line
G1 X28.56 Y42.66; draw line
G1 X30.54 Y43.559999999999995; draw line
G1 X42.78 Y43.5; draw line
G1 X42.9 Y43.14; draw line
G1 X42.3 Y42.48; draw line
G1 X42.3 Y41.64; draw line
G1 X43.019999999999996 Y41.22; draw line
G1 X43.32 Y41.28; draw line
G1 X43.26 Y41.4; draw line
G1 X42.9 Y41.339999999999996; draw line
G1 X42.42 Y41.82; draw line
G1 X42.42 Y42.36; draw line
G1 X43.08 Y42.78; draw line
G1 X43.559999999999995 Y42.48; draw line
G1 X43.68 Y42.0; draw line
G1 X43.559999999999995 Y41.64; draw line
G1 X43.32 Y41.28; draw line
G1 X43.68 Y41.58; draw line
G1 X43.8 Y41.879999999999995; draw line
G1 X43.739999999999995 Y42.42; draw line
G1 X43.14 Y43.199999999999996; draw line
G1 X43.14 Y43.68; draw line
G1 X43.019999999999996 Y43.8; draw line
G1 X30.119999999999997 Y43.739999999999995; draw line
G1 X28.2 Y42.839999999999996; draw line
G1 X23.34 Y42.9; draw line
G1 X20.22 Y46.32; draw line
G1 X19.14 Y46.98; draw line
G1 X19.02 Y47.58; draw line
G1 X18.72 Y47.94; draw line
G1 X18.0 Y48.059999999999995; draw line
G1 X17.46 Y47.64; draw line
G1 X17.34 Y47.04; draw back to polygon start
G1 F50.0; Z feedrate
G1 Z1.0; Z clearance height
G1 F1500.0; XY feedrate
G1 X17.34 Y44.519999999999996; move to polygon start
G1 F50.0; Z feedrate
G1 Z0.0; Z drawing height
G1 F1500.0; XY feedrate
G1 X17.64 Y43.98; draw line
G1 X18.18 Y43.739999999999995; draw line
G1 X18.12 Y43.92; draw line
G1 X17.64 Y44.4; draw line
G1 X17.64 Y44.94; draw line
G1 X18.3 Y45.36; draw line
G1 X18.779999999999998 Y45.059999999999995; draw line
G1 X18.9 Y44.58; draw line
G1 X18.779999999999998 Y44.22; draw line
G1 X18.48 Y43.98; draw line
G1 X18.18 Y43.739999999999995; draw line
G1 X18.9 Y44.04; draw line
G1 X19.38 Y44.519999999999996; draw line
G1 X22.619999999999997 Y41.339999999999996; draw line
G1 X28.919999999999998 Y41.339999999999996; draw line
G1 X31.14 Y41.94; draw line
G1 X39.54 Y41.879999999999995; draw line
G1 X39.9 Y41.4; draw line
G1 X40.559999999999995 Y41.28; draw line
G1 X41.1 Y41.519999999999996; draw line
G1 X41.22 Y42.42; draw line
G1 X41.04 Y42.66; draw line
G1 X40.5 Y42.9; draw line
G1 X40.5 Y42.78; draw line
G1 X40.98 Y42.48; draw line
G1 X41.1 Y42.0; draw line
G1 X40.98 Y41.64; draw line
G1 X40.68 Y41.4; draw line
G1 X40.32 Y41.339999999999996; draw line
G1 X39.839999999999996 Y41.82; draw line
G1 X39.839999999999996 Y42.36; draw line
G1 X40.5 Y42.9; draw line
G1 X40.14 Y42.839999999999996; draw line
G1 X39.48 Y42.18; draw line
G1 X30.72 Y42.12; draw line
G1 X28.619999999999997 Y41.58; draw line
G1 X22.74 Y41.58; draw line
G1 X19.439999999999998 Y44.76; draw line
G1 X19.14 Y44.879999999999995; draw line
G1 X18.72 Y45.42; draw line
G1 X18.0 Y45.54; draw line
G1 X17.46 Y45.12; draw line
G1 X17.34 Y44.519999999999996; draw back to polygon start
G1 F50.0; Z feedrate
G1 Z1.0; Z clearance height
G1 F1500.0; XY feedrate
G1 X17.34 Y41.94; move to polygon start
G1 F50.0; Z feedrate
G1 Z0.0; Z drawing height
G1 F1500.0; XY feedrate
G1 X17.64 Y41.4; draw line
G1 X18.48 Y41.16; draw line
G1 X19.08 Y41.699999999999996; draw line
G1 X19.38 Y41.699999999999996; draw line
G1 X21.18 Y40.08; draw line
G1 X26.52 Y40.019999999999996; draw line
G1 X32.16 Y33.72; draw line
G1 X44.58 Y33.66; draw line
G1 X46.44 Y31.799999999999997; draw line
G1 X66.42 Y31.799999999999997; draw line
G1 X69.53999999999999 Y28.86; draw line
G1 X69.42 Y26.459999999999997; draw line
G1 X69.0 Y26.099999999999998; draw line
G1 X68.88 Y25.68; draw line
G1 X68.94 Y25.14; draw line
G1 X69.17999999999999 Y24.9; draw line
G1 X69.72 Y24.72; draw line
G1 X70.32 Y25.08; draw line
G1 X70.2 Y25.14; draw line
G1 X69.89999999999999 Y24.9; draw line
G1 X69.53999999999999 Y24.84; draw line
G1 X69.06 Y25.32; draw line
G1 X69.06 Y25.86; draw line
G1 X69.72 Y26.279999999999998; draw line
G1 X70.2 Y25.98; draw line
G1 X70.32 Y25.5; draw line
G1 X70.32 Y25.08; draw line
G1 X70.44 Y25.38; draw line
G1 X70.38 Y25.98; draw line
G1 X69.84 Y26.52; draw line
G1 X69.78 Y28.98; draw line
G1 X69.0 Y29.82; draw line
G1 X66.53999999999999 Y32.04; draw line
G1 X46.5 Y32.1; draw line
G1 X44.64 Y33.96; draw line
G1 X32.22 Y34.019999999999996; draw line
G1 X26.58 Y40.32; draw line
G1 X21.119999999999997 Y40.379999999999995; draw line
G1 X18.779999999999998 Y42.78; draw line
G1 X18.36 Y42.96; draw line
G1 X18.3 Y42.78; draw line
G1 X18.779999999999998 Y42.48; draw line
G1 X18.9 Y42.0; draw line
G1 X18.779999999999998 Y41.64; draw line
G1 X18.48 Y41.4; draw line
G1 X18.12 Y41.339999999999996; draw line
G1 X17.64 Y41.82; draw line
G1 X17.64 Y42.36; draw line
G1 X18.36 Y42.96; draw line
G1 X17.82 Y42.839999999999996; draw line
G1 X17.4 Y42.239999999999995; draw line
G1 X17.34 Y41.94; draw back to polygon start
G1 F50.0; Z feedrate
G1 Z1.0; Z clearance height
G1 F1500.0; XY feedrate
G1 X17.34 Y39.42; move to polygon start
G1 F50.0; Z feedrate
G1 Z0.0; Z drawing height
G1 F1500.0; XY feedrate
G1 X17.58 Y38.94; draw line
G1 X18.24 Y38.64; draw line
G1 X18.12 Y38.82; draw line
G1 X17.64 Y39.3; draw line
G1 X17.64 Y39.839999999999996; draw line
G1 X18.3 Y40.26; draw line
G1 X18.779999999999998 Y39.96; draw line
G1 X18.9 Y39.48; draw line
G1 X18.779999999999998 Y39.12; draw line
G1 X18.48 Y38.879999999999995; draw line
G1 X18.24 Y38.64; draw line
G1 X18.72 Y38.76; draw line
G1 X19.02 Y39.0; draw line
G1 X19.8 Y38.46; draw line
G1 X25.8 Y38.46; draw line
G1 X31.5 Y32.46; draw line
G1 X43.68 Y32.339999999999996; draw line
G1 X45.839999999999996 Y30.54; draw line
G1 X54.239999999999995 Y30.419999999999998; draw line
G1 X54.3 Y26.58; draw line
G1 X53.699999999999996 Y26.04; draw line
G1 X53.699999999999996 Y25.14; draw line
G1 X54.36 Y24.72; draw line
G1 X55.08 Y25.08; draw line
G1 X54.96 Y25.14; draw line
G1 X54.66 Y24.9; draw line
G1 X54.3 Y24.84; draw line
G1 X53.82 Y25.32; draw line
G1 X53.82 Y25.86; draw line
G1 X54.48 Y26.279999999999998; draw line
G1 X54.96 Y25.98; draw line
G1 X55.08 Y25.5; draw line
G1 X55.08 Y25.08; draw line
G1 X55.199999999999996 Y25.919999999999998; draw line
G1 X54.6 Y26.52; draw line
G1 X54.54 Y30.599999999999998; draw line
G1 X54.419999999999995 Y30.779999999999998; draw line
G1 X45.9 Y30.779999999999998; draw line
G1 X43.68 Y32.699999999999996; draw line
G1 X31.5 Y32.82; draw line
G1 X25.919999999999998 Y38.699999999999996; draw line
G1 X19.8 Y38.76; draw line
G1 X19.2 Y39.48; draw line
G1 X18.72 Y40.32; draw line
G1 X17.88 Y40.379999999999995; draw line
G1 X17.46 Y39.96; draw line
G1 X17.34 Y39.42; draw back to polygon start
G1 F50.0; Z feedrate
G1 Z1.0; Z clearance height
G1 F1500.0; XY feedrate
G1 X17.34 Y36.9; move to polygon start
G1 F50.0; Z feedrate
G1 Z0.0; Z drawing height
G1 F1500.0; XY feedrate
G1 X17.58 Y36.42; draw line
G1 X18.3 Y36.12; draw line
G1 X18.599999999999998 Y36.18; draw line
G1 X18.48 Y36.36; draw line
G1 X18.12 Y36.3; draw line
G1 X17.64 Y36.78; draw line
G1 X17.64 Y37.32; draw line
G1 X18.3 Y37.74; draw line
G1 X18.779999999999998 Y37.44; draw line
G1 X18.9 Y36.96; draw line
G1 X18.779999999999998 Y36.6; draw line
G1 X18.599999999999998 Y36.18; draw line
G1 X19.38 Y36.9; draw line
G1 X25.5 Y36.9; draw line
G1 X30.84 Y31.259999999999998; draw line
G1 X31.08 Y31.14; draw line
G1 X42.3 Y31.14; draw line
G1 X44.76 Y28.98; draw line
G1 X51.6 Y28.919999999999998; draw line
G1 X51.78 Y28.439999999999998; draw line
G1 X51.78 Y26.58; draw line
G1 X51.239999999999995 Y26.099999999999998; draw line
G1 X51.12 Y25.2; draw line
G1 X51.36 Y24.9; draw line
G1 X51.96 Y24.72; draw line
G1 X52.559999999999995 Y25.02; draw line
G1 X52.44 Y25.14; draw line
G1 X52.14 Y24.9; draw line
G1 X51.78 Y24.84; draw line
G1 X51.3 Y25.32; draw line
G1 X51.3 Y25.86; draw line
G1 X51.96 Y26.279999999999998; draw line
G1 X52.44 Y25.98; draw line
G1 X52.559999999999995 Y25.5; draw line
G1 X52.559999999999995 Y25.02; draw line
G1 X52.68 Y25.86; draw line
G1 X52.08 Y26.459999999999997; draw line
G1 X52.019999999999996 Y29.04; draw line
G1 X51.839999999999996 Y29.16; draw line
G1 X44.879999999999995 Y29.22; draw line
G1 X42.48 Y31.32; draw line
G1 X30.959999999999997 Y31.439999999999998; draw line
G1 X25.5 Y37.14; draw line
G1 X19.2 Y37.199999999999996; draw line
G1 X18.72 Y37.8; draw line
G1 X18.0 Y37.92; draw line
G1 X17.46 Y37.5; draw line
G1 X17.34 Y36.9; draw back to polygon start
G1 F50.0; Z feedrate
G1 Z1.0; Z clearance height
G1 F1500.0; XY feedrate
G1 X17.34 Y34.32; move to polygon start
G1 F50.0; Z feedrate
G1 Z0.0; Z drawing height
G1 F1500.0; XY feedrate
G1 X17.759999999999998 Y33.66; draw line
G1 X18.54 Y33.6; draw line
G1 X18.48 Y33.78; draw line
G1 X18.12 Y33.72; draw line
G1 X17.64 Y34.199999999999996; draw line
G1 X17.64 Y34.74; draw line
G1 X18.3 Y35.16; draw line
G1 X18.779999999999998 Y34.86; draw line
G1 X18.9 Y34.379999999999995; draw line
G1 X18.779999999999998 Y34.019999999999996; draw line
G1 X18.54 Y33.6; draw line
G1 X19.439999999999998 Y34.32; draw line
G1 X25.86 Y34.26; draw line
G1 X30.299999999999997 Y29.88; draw line
G1 X41.46 Y29.759999999999998; draw line
G1 X43.92 Y27.36; draw line
G1 X49.019999999999996 Y27.3; draw line
G1 X49.26 Y27.0; draw line
G1 X49.26 Y26.58; draw line
G1 X48.6 Y25.8; draw line
G1 X48.6 Y25.259999999999998; draw line
G1 X48.839999999999996 Y24.9; draw line
G1 X49.62 Y24.72; draw line
G1 X50.04 Y25.02; draw line
G1 X49.92 Y25.14; draw line
G1 X49.62 Y24.9; draw line
G1 X49.26 Y24.84; draw line
G1 X48.78 Y25.32; draw line
G1 X48.78 Y25.86; draw line
G1 X49.44 Y26.279999999999998; draw line
G1 X49.92 Y25.98; draw line
G1 X50.04 Y25.5; draw line
G1 X50.04 Y25.02; draw line
G1 X50.16 Y25.38; draw line
G1 X50.1 Y25.919999999999998; draw line
G1 X49.559999999999995 Y26.52; draw line
G1 X49.44 Y27.24; draw line
G1 X49.26 Y27.48; draw line
G1 X48.9 Y27.599999999999998; draw line
G1 X43.92 Y27.72; draw line
G1 X41.46 Y30.119999999999997; draw line
G1 X30.36 Y30.119999999999997; draw line
G1 X25.86 Y34.56; draw line
G1 X19.259999999999998 Y34.56; draw line
G1 X18.779999999999998 Y35.16; draw line
G1 X18.0 Y35.339999999999996; draw line
G1 X17.46 Y34.92; draw line
G1 X17.34 Y34.32; draw back to polygon start
G1 F50.0; Z feedrate
G1 Z1.0; Z clearance height
G1 F1500.0; XY feedrate
G1 X17.34 Y31.799999999999997; move to polygon start
G1 F50.0; Z feedrate
G1 Z0.0; Z drawing height
G1 F1500.0; XY feedrate
G1 X17.58 Y31.32; draw line
G1 X18.24 Y31.02; draw line
G1 X18.12 Y31.2; draw line
G1 X17.64 Y31.68; draw line
G1 X17.64 Y32.22; draw line
G1 X18.3 Y32.64; draw line
G1 X18.779999999999998 Y32.339999999999996; draw line
G1 X18.9 Y31.86; draw line
G1 X18.779999999999998 Y31.5; draw line
G1 X18.48 Y31.259999999999998; draw line
G1 X18.24 Y31.02; draw line
G1 X18.72 Y31.14; draw line
G1 X19.38 Y31.799999999999997; draw line
G1 X22.2 Y31.86; draw line
G1 X22.56 Y32.1; draw line
G1 X26.099999999999998 Y32.1; draw line
G1 X29.16 Y28.919999999999998; draw line
G1 X29.279999999999998 Y27.72; draw line
G1 X33.839999999999996 Y27.66; draw line
G1 X34.019999999999996 Y27.3; draw line
G1 X33.839999999999996 Y26.34; draw line
G1 X33.48 Y26.099999999999998; draw line
G1 X33.36 Y25.74; draw line
G1 X33.42 Y25.2; draw line
G1 X33.54 Y25.32; draw line
G1 X33.54 Y25.86; draw line
G1 X34.199999999999996 Y26.279999999999998; draw line
G1 X34.68 Y25.98; draw line
G1 X34.8 Y25.5; draw line
G1 X34.68 Y25.14; draw line
G1 X34.379999999999995 Y24.9; draw line
G1 X34.019999999999996 Y24.84; draw line
G1 X33.42 Y25.2; draw line
G1 X33.6 Y24.9; draw line
G1 X34.14 Y24.72; draw line
G1 X34.8 Y25.02; draw line
G1 X34.92 Y25.86; draw line
G1 X34.32 Y26.459999999999997; draw line
G1 X34.26 Y27.779999999999998; draw line
G1 X34.019999999999996 Y27.9; draw line
G1 X29.64 Y27.9; draw line
G1 X29.459999999999997 Y28.32; draw line
G1 X29.459999999999997 Y29.04; draw line
G1 X26.22 Y32.339999999999996; draw line
G1 X22.32 Y32.339999999999996; draw line
G1 X21.84 Y32.04; draw line
G1 X19.2 Y32.1; draw line
G1 X18.72 Y32.699999999999996; draw line
G1 X18.0 Y32.82; draw line
G1 X17.46 Y32.4; draw line
G1 X17.34 Y31.799999999999997; draw back to polygon start
G1 F50.0; Z feedrate
G1 Z1.0; Z clearance height
G1 F1500.0; XY feedrate
G1 X17.34 Y29.279999999999998; move to polygon start
G1 F50.0; Z feedrate
G1 Z0.0; Z drawing height
G1 F1500.0; XY feedrate
G1 X17.58 Y28.799999999999997; draw line
G1 X18.12 Y28.5; draw line
G1 X18.12 Y28.68; draw line
G1 X17.64 Y29.16; draw line
G1 X17.64 Y29.7; draw line
G1 X18.3 Y30.119999999999997; draw line
G1 X18.779999999999998 Y29.82; draw line
G1 X18.9 Y29.34; draw line
G1 X18.779999999999998 Y28.98; draw line
G1 X18.48 Y28.74; draw line
G1 X18.12 Y28.5; draw line
G1 X18.66 Y28.619999999999997; draw line
G1 X19.439999999999998 Y29.279999999999998; draw line
G1 X22.2 Y29.4; draw line
G1 X23.759999999999998 Y30.84; draw line
G1 X25.56 Y30.779999999999998; draw line
G1 X27.24 Y28.98; draw line
G1 X27.3 Y25.56; draw line
G1 X27.419999999999998 Y25.439999999999998; draw line
G1 X30.66 Y25.38; draw line
G1 X31.02 Y24.9; draw line
G1 X31.56 Y24.72; draw line
G1 X31.86 Y24.779999999999998; draw line
G1 X32.22 Y25.08; draw line
G1 X32.1 Y25.14; draw line
G1 X31.799999999999997 Y24.9; draw line
G1 X31.439999999999998 Y24.84; draw line
G1 X30.959999999999997 Y25.32; draw line
G1 X30.959999999999997 Y25.86; draw line
G1 X31.619999999999997 Y26.279999999999998; draw line
G1 X32.1 Y25.98; draw line
G1 X32.22 Y25.5; draw line
G1 X32.22 Y25.08; draw line
G1 X32.339999999999996 Y25.86; draw line
G1 X31.68 Y26.4; draw line
G1 X31.32 Y26.4; draw line
G1 X30.54 Y25.68; draw line
G1 X27.66 Y25.74; draw line
G1 X27.54 Y26.16; draw line
G1 X27.54 Y28.98; draw line
G1 X25.619999999999997 Y31.08; draw line
G1 X23.46 Y30.959999999999997; draw line
G1 X21.96 Y29.52; draw line
G1 X19.259999999999998 Y29.52; draw line
G1 X18.779999999999998 Y30.119999999999997; draw line
G1 X18.0 Y30.299999999999997; draw line
G1 X17.46 Y29.88; draw line
G1 X17.34 Y29.279999999999998; draw back to polygon start
G1 F50.0; Z feedrate
G1 Z1.0; Z clearance height
G1 F1500.0; XY feedrate
G1 X17.34 Y26.7; move to polygon start
G1 F50.0; Z feedrate
G1 Z0.0; Z drawing height
G1 F1500.0; XY feedrate
G1 X17.64 Y26.16; draw line
G1 X18.24 Y25.919999999999998; draw line
G1 X18.12 Y26.099999999999998; draw line
G1 X17.64 Y26.58; draw line
G1 X17.64 Y27.119999999999997; draw line
G1 X18.3 Y27.54; draw line
G1 X18.779999999999998 Y27.24; draw line
G1 X18.9 Y26.759999999999998; draw line
G1 X18.779999999999998 Y26.4; draw line
G1 X18.48 Y26.16; draw line
G1 X18.24 Y25.919999999999998; draw line
G1 X18.96 Y26.279999999999998; draw line
G1 X19.259999999999998 Y26.64; draw line
G1 X20.52 Y26.58; draw line
G1 X20.88 Y26.099999999999998; draw line
G1 X21.419999999999998 Y25.919999999999998; draw line
G1 X22.14 Y26.279999999999998; draw line
G1 X22.259999999999998 Y26.64; draw line
G1 X22.2 Y27.18; draw line
G1 X21.96 Y27.54; draw line
G1 X21.54 Y27.72; draw line
G1 X21.48 Y27.54; draw line
G1 X21.96 Y27.24; draw line
G1 X22.08 Y26.759999999999998; draw line
G1 X21.96 Y26.4; draw line
G1 X21.66 Y26.16; draw line
G1 X21.3 Y26.099999999999998; draw line
G1 X20.82 Y26.58; draw line
G1 X20.82 Y27.119999999999997; draw line
G1 X21.54 Y27.72; draw line
G1 X20.88 Y27.54; draw line
G1 X20.34 Y27.0; draw line
G1 X19.2 Y27.0; draw line
G1 X18.72 Y27.599999999999998; draw line
G1 X18.0 Y27.72; draw line
G1 X17.46 Y27.3; draw line
G1 X17.34 Y26.7; draw back to polygon start
G1 F50.0; Z feedrate
G1 Z1.0; Z clearance height
G1 F1500.0; XY feedrate
G1 X17.34 Y24.18; move to polygon start
G1 F50.0; Z feedrate
G1 Z0.0; Z drawing height
G1 F1500.0; XY feedrate
G1 X17.64 Y23.64; draw line
G1 X18.24 Y23.4; draw line
G1 X18.12 Y23.58; draw line
G1 X17.64 Y24.06; draw line
G1 X17.64 Y24.599999999999998; draw line
G1 X18.3 Y25.02; draw line
G1 X18.779999999999998 Y24.72; draw line
G1 X18.9 Y24.24; draw line
G1 X18.779999999999998 Y23.88; draw line
G1 X18.48 Y23.64; draw line
G1 X18.24 Y23.4; draw line
G1 X18.96 Y23.759999999999998; draw line
G1 X19.259999999999998 Y24.119999999999997; draw line
G1 X20.52 Y24.06; draw line
G1 X20.88 Y23.58; draw line
G1 X21.419999999999998 Y23.4; draw line
G1 X22.14 Y23.759999999999998; draw line
G1 X22.259999999999998 Y24.119999999999997; draw line
G1 X22.2 Y24.66; draw line
G1 X21.96 Y25.02; draw line
G1 X21.54 Y25.2; draw line
G1 X21.48 Y25.02; draw line
G1 X21.96 Y24.72; draw line
G1 X22.08 Y24.24; draw line
G1 X21.96 Y23.88; draw line
G1 X21.66 Y23.64; draw line
G1 X21.3 Y23.58; draw line
G1 X20.82 Y24.06; draw line
G1 X20.82 Y24.599999999999998; draw line
G1 X21.54 Y25.2; draw line
G1 X20.88 Y25.02; draw line
G1 X20.34 Y24.48; draw line
G1 X19.2 Y24.48; draw line
G1 X18.72 Y25.08; draw line
G1 X18.0 Y25.2; draw line
G1 X17.46 Y24.779999999999998; draw line
G1 X17.34 Y24.18; draw back to polygon start
G1 F50.0; Z feedrate
G1 Z1.0; Z clearance height
G1 F1500.0; XY feedrate
G1 X17.34 Y21.66; move to polygon start
G1 F50.0; Z feedrate
G1 Z0.0; Z drawing height
G1 F1500.0; XY feedrate
G1 X17.64 Y21.119999999999997; draw line
G1 X18.24 Y20.88; draw line
G1 X18.12 Y21.06; draw line
G1 X17.64 Y21.54; draw line
G1 X17.64 Y22.08; draw line
G1 X18.3 Y22.5; draw line
G1 X18.779999999999998 Y22.2; draw line
G1 X18.9 Y21.72; draw line
G1 X18.779999999999998 Y21.36; draw line
G1 X18.48 Y21.119999999999997; draw line
G1 X18.24 Y20.88; draw line
G1 X18.96 Y21.24; draw line
G1 X19.259999999999998 Y21.599999999999998; draw line
G1 X20.52 Y21.54; draw line
G1 X20.88 Y21.06; draw line
G1 X21.419999999999998 Y20.88; draw line
G1 X22.14 Y21.24; draw line
G1 X22.259999999999998 Y21.599999999999998; draw line
G1 X22.2 Y22.14; draw line
G1 X21.96 Y22.5; draw line
G1 X21.54 Y22.68; draw line
G1 X21.48 Y22.5; draw line
G1 X21.96 Y22.2; draw line
G1 X22.08 Y21.72; draw line
G1 X21.96 Y21.36; draw line
G1 X21.66 Y21.119999999999997; draw line
G1 X21.3 Y21.06; draw line
G1 X20.82 Y21.54; draw line
G1 X20.82 Y22.08; draw line
G1 X21.54 Y22.68; draw line
G1 X20.7 Y22.32; draw line
G1 X20.34 Y21.96; draw line
G1 X19.2 Y21.96; draw line
G1 X18.72 Y22.56; draw line
G1 X18.0 Y22.68; draw line
G1 X17.46 Y22.259999999999998; draw line
G1 X17.34 Y21.66; draw back to polygon start
G1 F50.0; Z feedrate
G1 Z1.0; Z clearance height
G1 F1500.0; XY feedrate
G1 X20.82 Y17.64; move to polygon start
G1 F50.0; Z feedrate
G1 Z0.0; Z drawing height
G1 F1500.0; XY feedrate
G1 X21.48 Y18.06; draw line
G1 X21.96 Y17.759999999999998; draw line
G1 X22.08 Y17.28; draw line
G1 X21.96 Y16.919999999999998; draw line
G1 X21.66 Y16.68; draw line
G1 X21.3 Y16.62; draw line
G1 X20.82 Y17.099999999999998; draw line
G1 X20.82 Y17.64; draw back to polygon start
G1 F50.0; Z feedrate
G1 Z1.0; Z clearance height
G1 F1500.0; XY feedrate
G1 X23.34 Y17.64; move to polygon start
G1 F50.0; Z feedrate
G1 Z0.0; Z drawing height
G1 F1500.0; XY feedrate
G1 X24.0 Y18.06; draw line
G1 X24.48 Y17.759999999999998; draw line
G1 X24.599999999999998 Y17.28; draw line
G1 X24.48 Y16.919999999999998; draw line
G1 X24.18 Y16.68; draw line
G1 X23.82 Y16.62; draw line
G1 X23.34 Y17.099999999999998; draw line
G1 X23.34 Y17.64; draw back to polygon start
G1 F50.0; Z feedrate
G1 Z1.0; Z clearance height
G1 F1500.0; XY feedrate
G1 X22.439999999999998 Y14.04; move to polygon start
G1 F50.0; Z feedrate
G1 Z0.0; Z drawing height
G1 F1500.0; XY feedrate
G1 X22.74 Y13.5; draw line
G1 X23.34 Y13.26; draw line
G1 X23.22 Y13.44; draw line
G1 X22.74 Y13.92; draw line
G1 X22.74 Y14.459999999999999; draw line
G1 X23.4 Y14.879999999999999; draw line
G1 X23.88 Y14.58; draw line
G1 X24.0 Y14.1; draw line
G1 X23.88 Y13.74; draw line
G1 X23.58 Y13.5; draw line
G1 X23.34 Y13.26; draw line
G1 X24.06 Y13.62; draw line
G1 X24.18 Y13.92; draw line
G1 X24.119999999999997 Y14.52; draw line
G1 X23.7 Y15.18; draw line
G1 X23.939999999999998 Y16.32; draw line
G1 X24.72 Y16.86; draw line
G1 X24.72 Y17.759999999999998; draw line
G1 X24.48 Y18.06; draw line
G1 X24.0 Y18.24; draw line
G1 X23.4 Y18.06; draw line
G1 X23.16 Y17.82; draw line
G1 X23.099999999999998 Y17.04; draw line
G1 X23.52 Y16.5; draw line
G1 X23.22 Y15.059999999999999; draw line
G1 X22.619999999999997 Y14.7; draw line
G1 X22.439999999999998 Y14.04; draw back to polygon start
G1 F50.0; Z feedrate
G1 Z1.0; Z clearance height
G1 F1500.0; XY feedrate
G1 X24.96 Y14.04; move to polygon start
G1 F50.0; Z feedrate
G1 Z0.0; Z drawing height
G1 F1500.0; XY feedrate
G1 X25.259999999999998 Y13.5; draw line
G1 X25.86 Y13.26; draw line
G1 X25.74 Y13.44; draw line
G1 X25.259999999999998 Y13.92; draw line
G1 X25.259999999999998 Y14.459999999999999; draw line
G1 X25.919999999999998 Y14.879999999999999; draw line
G1 X26.4 Y14.58; draw line
G1 X26.52 Y14.1; draw line
G1 X26.4 Y13.74; draw line
G1 X26.099999999999998 Y13.5; draw line
G1 X25.86 Y13.26; draw line
G1 X26.58 Y13.62; draw line
G1 X26.7 Y13.92; draw line
G1 X26.64 Y14.52; draw line
G1 X26.22 Y15.18; draw line
G1 X26.7 Y16.439999999999998; draw line
G1 X27.18 Y16.74; draw line
G1 X27.36 Y17.16; draw line
G1 X27.3 Y17.7; draw line
G1 X27.06 Y18.06; draw line
G1 X26.459999999999997 Y18.24; draw line
G1 X25.919999999999998 Y18.0; draw line
G1 X25.68 Y17.52; draw line
G1 X25.74 Y16.98; draw line
G1 X25.919999999999998 Y17.099999999999998; draw line
G1 X25.919999999999998 Y17.64; draw line
G1 X26.58 Y18.06; draw line
G1 X27.06 Y17.759999999999998; draw line
G1 X27.18 Y17.28; draw line
G1 X27.06 Y16.919999999999998; draw line
G1 X26.759999999999998 Y16.68; draw line
G1 X26.4 Y16.62; draw line
G1 X25.74 Y16.98; draw line
G1 X26.099999999999998 Y16.32; draw line
G1 X26.279999999999998 Y16.259999999999998; draw line
G1 X26.279999999999998 Y16.2; draw line
G1 X26.099999999999998 Y16.32; draw line
G1 X25.98 Y15.479999999999999; draw line
G1 X25.74 Y15.059999999999999; draw line
G1 X25.14 Y14.7; draw line
G1 X24.96 Y14.04; draw back to polygon start
G1 F50.0; Z feedrate
G1 Z1.0; Z clearance height
G1 F1500.0; XY feedrate
G1 X27.48 Y14.04; move to polygon start
G1 F50.0; Z feedrate
G1 Z0.0; Z drawing height
G1 F1500.0; XY feedrate
G1 X27.779999999999998 Y13.5; draw line
G1 X28.38 Y13.26; draw line
G1 X28.259999999999998 Y13.44; draw line
G1 X27.779999999999998 Y13.92; draw line
G1 X27.779999999999998 Y14.459999999999999; draw line
G1 X28.439999999999998 Y14.879999999999999; draw line
G1 X28.919999999999998 Y14.58; draw line
G1 X29.04 Y14.1; draw line
G1 X28.919999999999998 Y13.74; draw line
G1 X28.619999999999997 Y13.5; draw line
G1 X28.38 Y13.26; draw line
G1 X29.099999999999998 Y13.62; draw line
G1 X29.22 Y13.92; draw line
G1 X29.16 Y14.52; draw line
G1 X28.74 Y15.18; draw line
G1 X29.22 Y16.439999999999998; draw line
G1 X29.7 Y16.74; draw line
G1 X29.88 Y17.16; draw line
G1 X29.82 Y17.7; draw line
G1 X29.58 Y18.06; draw line
G1 X28.98 Y18.24; draw line
G1 X29.099999999999998 Y18.06; draw line
G1 X29.58 Y17.759999999999998; draw line
G1 X29.7 Y17.28; draw line
G1 X29.58 Y16.919999999999998; draw line
G1 X29.279999999999998 Y16.68; draw line
G1 X28.919999999999998 Y16.62; draw line
G1 X28.439999999999998 Y17.099999999999998; draw line
G1 X28.439999999999998 Y17.64; draw line
G1 X28.98 Y18.24; draw line
G1 X28.439999999999998 Y18.0; draw line
G1 X28.2 Y17.52; draw line
G1 X28.259999999999998 Y16.98; draw line
G1 X28.619999999999997 Y16.32; draw line
G1 X28.799999999999997 Y16.259999999999998; draw line
G1 X28.799999999999997 Y16.2; draw line
G1 X28.619999999999997 Y16.32; draw line
G1 X28.5 Y15.479999999999999; draw line
G1 X28.259999999999998 Y15.059999999999999; draw line
G1 X27.66 Y14.7; draw line
G1 X27.48 Y14.04; draw back to polygon start
G1 F50.0; Z feedrate
G1 Z1.0; Z clearance height
G1 F1500.0; XY feedrate
G1 X30.06 Y14.04; move to polygon start
G1 F50.0; Z feedrate
G1 Z0.0; Z drawing height
G1 F1500.0; XY feedrate
G1 X30.36 Y13.5; draw line
G1 X31.2 Y13.26; draw line
G1 X31.68 Y13.62; draw line
G1 X31.5 Y13.74; draw line
G1 X31.2 Y13.5; draw line
G1 X30.84 Y13.44; draw line
G1 X30.36 Y13.92; draw line
G1 X30.36 Y14.459999999999999; draw line
G1 X31.02 Y14.879999999999999; draw line
G1 X31.5 Y14.58; draw line
G1 X31.619999999999997 Y14.1; draw line
G1 X31.68 Y13.62; draw line
G1 X31.799999999999997 Y13.979999999999999; draw line
G1 X31.68 Y15.0; draw line
G1 X32.519999999999996 Y16.38; draw line
G1 X33.24 Y16.56; draw line
G1 X33.06 Y16.68; draw line
G1 X32.699999999999996 Y16.62; draw line
G1 X32.22 Y17.099999999999998; draw line
G1 X32.22 Y17.64; draw line
G1 X32.879999999999995 Y18.06; draw line
G1 X33.36 Y17.759999999999998; draw line
G1 X33.48 Y17.28; draw line
G1 X33.36 Y16.919999999999998; draw line
G1 X33.24 Y16.56; draw line
G1 X33.66 Y17.099999999999998; draw line
G1 X33.66 Y17.64; draw line
G1 X33.24 Y18.12; draw line
G1 X32.58 Y18.24; draw line
G1 X32.1 Y17.88; draw line
G1 X31.98 Y16.919999999999998; draw line
G1 X32.1 Y16.5; draw line
G1 X31.259999999999998 Y15.12; draw line
G1 X31.439999999999998 Y15.0; draw line
G1 X31.38 Y14.94; draw line
G1 X31.5 Y14.879999999999999; draw line
G1 X31.259999999999998 Y15.12; draw line
G1 X30.48 Y14.879999999999999; draw line
G1 X30.18 Y14.639999999999999; draw line
G1 X30.06 Y14.04; draw back to polygon start
G1 F50.0; Z feedrate
G1 Z1.0; Z clearance height
G1 F1500.0; XY feedrate
G1 X32.58 Y14.04; move to polygon start
G1 F50.0; Z feedrate
G1 Z0.0; Z drawing height
G1 F1500.0; XY feedrate
G1 X32.879999999999995 Y13.5; draw line
G1 X33.42 Y13.26; draw line
G1 X33.36 Y13.44; draw line
G1 X32.879999999999995 Y13.92; draw line
G1 X32.879999999999995 Y14.459999999999999; draw line
G1 X33.54 Y14.879999999999999; draw line
G1 X34.019999999999996 Y14.58; draw line
G1 X34.14 Y14.1; draw line
G1 X34.019999999999996 Y13.74; draw line
G1 X33.72 Y13.5; draw line
G1 X33.42 Y13.26; draw line
G1 X34.14 Y13.559999999999999; draw line
G1 X34.32 Y14.52; draw line
G1 X34.199999999999996 Y14.94; draw line
G1 X35.16 Y16.439999999999998; draw line
G1 X34.98 Y16.56; draw line
G1 X34.86 Y16.56; draw line
G1 X33.9 Y14.94; draw line
G1 X35.16 Y16.439999999999998; draw line
G1 X35.28 Y16.62; draw line
G1 X34.8 Y17.099999999999998; draw line
G1 X34.8 Y17.64; draw line
G1 X35.46 Y18.06; draw line
G1 X35.94 Y17.759999999999998; draw line
G1 X36.059999999999995 Y17.28; draw line
G1 X35.94 Y16.919999999999998; draw line
G1 X35.64 Y16.68; draw line
G1 X35.16 Y16.439999999999998; draw line
G1 X35.64 Y16.439999999999998; draw line
G1 X36.18 Y16.86; draw line
G1 X36.18 Y17.7; draw line
G1 X35.94 Y18.06; draw line
G1 X35.16 Y18.24; draw line
G1 X34.68 Y17.88; draw line
G1 X34.56 Y17.52; draw line
G1 X34.62 Y16.439999999999998; draw line
G1 X33.66 Y15.059999999999999; draw line
G1 X33.24 Y15.059999999999999; draw line
G1 X32.699999999999996 Y14.639999999999999; draw line
G1 X32.58 Y14.04; draw back to polygon start
G1 F50.0; Z feedrate
G1 Z1.0; Z clearance height
G1 F1500.0; XY feedrate
G1 X35.1 Y14.04; move to polygon start
G1 F50.0; Z feedrate
G1 Z0.0; Z drawing height
G1 F1500.0; XY feedrate
G1 X35.4 Y13.5; draw line
G1 X35.94 Y13.26; draw line
G1 X35.879999999999995 Y13.44; draw line
G1 X35.4 Y13.92; draw line
G1 X35.4 Y14.459999999999999; draw line
G1 X36.059999999999995 Y14.879999999999999; draw line
G1 X36.54 Y14.58; draw line
G1 X36.66 Y14.1; draw line
G1 X36.54 Y13.74; draw line
G1 X36.24 Y13.5; draw line
G1 X35.94 Y13.26; draw line
G1 X36.66 Y13.559999999999999; draw line
G1 X36.839999999999996 Y14.52; draw line
G1 X36.72 Y14.94; draw line
G1 X37.68 Y16.439999999999998; draw line
G1 X37.5 Y16.56; draw line
G1 X37.379999999999995 Y16.56; draw line
G1 X36.42 Y14.94; draw line
G1 X37.68 Y16.439999999999998; draw line
G1 X37.8 Y16.62; draw line
G1 X37.32 Y17.099999999999998; draw line
G1 X37.32 Y17.64; draw line
G1 X37.98 Y18.06; draw line
G1 X38.46 Y17.759999999999998; draw line
G1 X38.58 Y17.28; draw line
G1 X38.46 Y16.919999999999998; draw line
G1 X38.16 Y16.68; draw line
G1 X37.68 Y16.439999999999998; draw line
G1 X38.16 Y16.439999999999998; draw line
G1 X38.699999999999996 Y16.86; draw line
G1 X38.699999999999996 Y17.7; draw line
G1 X38.46 Y18.06; draw line
G1 X37.68 Y18.24; draw line
G1 X37.199999999999996 Y17.88; draw line
G1 X37.08 Y17.52; draw line
G1 X37.14 Y16.439999999999998; draw line
G1 X36.18 Y15.059999999999999; draw line
G1 X35.76 Y15.059999999999999; draw line
G1 X35.22 Y14.639999999999999; draw line
G1 X35.1 Y14.04; draw back to polygon start
G1 F50.0; Z feedrate
G1 Z1.0; Z clearance height
G1 F1500.0; XY feedrate
G1 X37.68 Y14.04; move to polygon start
G1 F50.0; Z feedrate
G1 Z0.0; Z drawing height
G1 F1500.0; XY feedrate
G1 X37.98 Y13.5; draw line
G1 X38.82 Y13.26; draw line
G1 X39.3 Y13.62; draw line
G1 X39.12 Y13.74; draw line
G1 X38.82 Y13.5; draw line
G1 X38.46 Y13.44; draw line
G1 X37.98 Y13.92; draw line
G1 X37.98 Y14.459999999999999; draw line
G1 X38.64 Y14.879999999999999; draw line
G1 X39.12 Y14.58; draw line
G1 X39.24 Y14.1; draw line
G1 X39.3 Y13.62; draw line
G1 X39.42 Y13.979999999999999; draw line
G1 X39.3 Y15.0; draw line
G1 X40.14 Y16.38; draw line
G1 X40.86 Y16.56; draw line
G1 X40.68 Y16.68; draw line
G1 X40.32 Y16.62; draw line
G1 X39.839999999999996 Y17.099999999999998; draw line
G1 X39.839999999999996 Y17.64; draw line
G1 X40.5 Y18.06; draw line
G1 X40.98 Y17.759999999999998; draw line
G1 X41.1 Y17.28; draw line
G1 X40.98 Y16.919999999999998; draw line
G1 X40.86 Y16.56; draw line
G1 X41.28 Y17.099999999999998; draw line
G1 X41.28 Y17.64; draw line
G1 X40.86 Y18.12; draw line
G1 X40.199999999999996 Y18.24; draw line
G1 X39.72 Y17.88; draw line
G1 X39.6 Y16.919999999999998; draw line
G1 X39.72 Y16.5; draw line
G1 X38.879999999999995 Y15.12; draw line
G1 X39.059999999999995 Y15.0; draw line
G1 X39.0 Y14.94; draw line
G1 X39.12 Y14.879999999999999; draw line
G1 X38.879999999999995 Y15.12; draw line
G1 X38.1 Y14.879999999999999; draw line
G1 X37.8 Y14.639999999999999; draw line
G1 X37.68 Y14.04; draw back to polygon start
G1 F50.0; Z feedrate
G1 Z1.0; Z clearance height
G1 F1500.0; XY feedrate
G1 X42.72 Y14.04; move to polygon start
G1 F50.0; Z feedrate
G1 Z0.0; Z drawing height
G1 F1500.0; XY feedrate
G1 X43.08 Y13.44; draw line
G1 X43.5 Y13.26; draw line
G1 X43.5 Y13.44; draw line
G1 X43.019999999999996 Y13.92; draw line
G1 X43.019999999999996 Y14.459999999999999; draw line
G1 X43.68 Y14.879999999999999; draw line
G1 X44.16 Y14.58; draw line
G1 X44.28 Y14.1; draw line
G1 X44.16 Y13.74; draw line
G1 X43.86 Y13.5; draw line
G1 X43.5 Y13.26; draw line
G1 X44.1 Y13.44; draw line
G1 X44.46 Y14.04; draw line
G1 X44.4 Y14.52; draw line
G1 X44.16 Y14.879999999999999; draw line
G1 X43.739999999999995 Y15.059999999999999; draw line
G1 X43.199999999999996 Y14.94; draw line
G1 X42.78 Y14.34; draw line
G1 X42.72 Y14.04; draw back to polygon start
G1 F50.0; Z feedrate
G1 Z1.0; Z clearance height
G1 F1500.0; XY feedrate
G1 X45.3 Y14.04; move to polygon start
G1 F50.0; Z feedrate
G1 Z0.0; Z drawing height
G1 F1500.0; XY feedrate
G1 X45.66 Y13.44; draw line
G1 X46.08 Y13.26; draw line
G1 X46.08 Y13.44; draw line
G1 X45.6 Y13.92; draw line
G1 X45.6 Y14.459999999999999; draw line
G1 X46.26 Y14.879999999999999; draw line
G1 X46.739999999999995 Y14.58; draw line
G1 X46.86 Y14.1; draw line
G1 X46.739999999999995 Y13.74; draw line
G1 X46.44 Y13.5; draw line
G1 X46.08 Y13.26; draw line
G1 X46.68 Y13.44; draw line
G1 X47.04 Y14.04; draw line
G1 X46.98 Y14.52; draw line
G1 X46.739999999999995 Y14.879999999999999; draw line
G1 X46.32 Y15.059999999999999; draw line
G1 X45.78 Y14.94; draw line
G1 X45.36 Y14.34; draw line
G1 X45.3 Y14.04; draw back to polygon start
G1 F50.0; Z feedrate
G1 Z1.0; Z clearance height
G1 F1500.0; XY feedrate
G1 X47.82 Y14.04; move to polygon start
G1 F50.0; Z feedrate
G1 Z0.0; Z drawing height
G1 F1500.0; XY feedrate
G1 X48.18 Y13.44; draw line
G1 X48.6 Y13.26; draw line
G1 X48.6 Y13.44; draw line
G1 X48.12 Y13.92; draw line
G1 X48.12 Y14.459999999999999; draw line
G1 X48.78 Y14.879999999999999; draw line
G1 X49.26 Y14.58; draw line
G1 X49.379999999999995 Y14.1; draw line
G1 X49.26 Y13.74; draw line
G1 X48.96 Y13.5; draw line
G1 X48.6 Y13.26; draw line
G1 X49.199999999999996 Y13.44; draw line
G1 X49.559999999999995 Y14.04; draw line
G1 X49.5 Y14.52; draw line
G1 X49.26 Y14.879999999999999; draw line
G1 X48.839999999999996 Y15.059999999999999; draw line
G1 X48.3 Y14.94; draw line
G1 X47.879999999999995 Y14.34; draw line
G1 X47.82 Y14.04; draw back to polygon start
G1 F50.0; Z feedrate
G1 Z1.0; Z clearance height
G1 F1500.0; XY feedrate
G1 X50.339999999999996 Y14.04; move to polygon start
G1 F50.0; Z feedrate
G1 Z0.0; Z drawing height
G1 F1500.0; XY feedrate
G1 X50.699999999999996 Y13.44; draw line
G1 X51.12 Y13.26; draw line
G1 X51.12 Y13.44; draw line
G1 X50.64 Y13.92; draw line
G1 X50.64 Y14.459999999999999; draw line
G1 X51.3 Y14.879999999999999; draw line
G1 X51.78 Y14.58; draw line
G1 X51.9 Y14.1; draw line
G1 X51.78 Y13.74; draw line
G1 X51.48 Y13.5; draw line
G1 X51.12 Y13.26; draw line
G1 X51.72 Y13.44; draw line
G1 X52.08 Y14.04; draw line
G1 X52.019999999999996 Y14.52; draw line
G1 X51.78 Y14.879999999999999; draw line
G1 X51.36 Y15.059999999999999; draw line
G1 X50.82 Y14.94; draw line
G1 X50.4 Y14.34; draw line
G1 X50.339999999999996 Y14.04; draw back to polygon start
G1 F50.0; Z feedrate
G1 Z1.0; Z clearance height
G1 F1500.0; XY feedrate
G1 X52.919999999999995 Y14.04; move to polygon start
G1 F50.0; Z feedrate
G1 Z0.0; Z drawing height
G1 F1500.0; XY feedrate
G1 X53.28 Y13.44; draw line
G1 X53.699999999999996 Y13.26; draw line
G1 X53.699999999999996 Y13.44; draw line
G1 X53.22 Y13.92; draw line
G1 X53.22 Y14.459999999999999; draw line
G1 X53.879999999999995 Y14.879999999999999; draw line
G1 X54.36 Y14.58; draw line
G1 X54.48 Y14.1; draw line
G1 X54.36 Y13.74; draw line
G1 X54.059999999999995 Y13.5; draw line
G1 X53.699999999999996 Y13.26; draw line
G1 X54.3 Y13.44; draw line
G1 X54.66 Y14.04; draw line
G1 X54.6 Y14.52; draw line
G1 X54.36 Y14.879999999999999; draw line
G1 X53.94 Y15.059999999999999; draw line
G1 X53.4 Y14.94; draw line
G1 X52.98 Y14.34; draw line
G1 X52.919999999999995 Y14.04; draw back to polygon start
G1 F50.0; Z feedrate
G1 Z1.0; Z clearance height
G1 F1500.0; XY feedrate
G1 X54.18 Y18.0; move to polygon start
G1 F50.0; Z feedrate
G1 Z0.0; Z drawing height
G1 F1500.0; XY feedrate
G1 X55.199999999999996 Y17.28; draw line
G1 X58.559999999999995 Y16.08; draw line
G1 X58.86 Y15.84; draw line
G1 X58.68 Y16.08; draw line
G1 X55.559999999999995 Y17.22; draw line
G1 X54.18 Y18.0; draw back to polygon start
G1 F50.0; Z feedrate
G1 Z1.0; Z clearance height
G1 F1500.0; XY feedrate
G1 X55.26 Y19.02; move to polygon start
G1 F50.0; Z feedrate
G1 Z0.0; Z drawing height
G1 F1500.0; XY feedrate
G1 X55.5 Y18.54; draw line
G1 X56.1 Y18.3; draw line
G1 X55.98 Y18.419999999999998; draw line
G1 X55.5 Y18.9; draw line
G1 X55.5 Y19.439999999999998; draw line
G1 X56.16 Y19.86; draw line
G1 X56.64 Y19.56; draw line
G1 X56.76 Y19.08; draw line
G1 X56.64 Y18.72; draw line
G1 X56.879999999999995 Y18.72; draw line
G1 X57.36 Y18.54; draw line
G1 X56.64 Y18.72; draw line
G1 X56.339999999999996 Y18.48; draw line
G1 X56.1 Y18.3; draw line
G1 X56.94 Y18.419999999999998; draw line
G1 X58.14 Y17.88; draw line
G1 X67.25999999999999 Y18.12; draw line
G1 X67.98 Y19.439999999999998; draw line
G1 X68.46 Y20.88; draw line
G1 X69.12 Y21.24; draw line
G1 X68.94 Y21.36; draw line
G1 X68.64 Y21.119999999999997; draw line
G1 X68.28 Y21.06; draw line
G1 X67.8 Y21.54; draw line
G1 X67.8 Y22.08; draw line
G1 X68.46 Y22.5; draw line
G1 X68.94 Y22.2; draw line
G1 X69.06 Y21.72; draw line
G1 X69.12 Y21.24; draw line
G1 X69.24 Y22.14; draw line
G1 X69.0 Y22.56; draw line
G1 X69.48 Y22.86; draw line
G1 X73.74 Y22.86; draw line
G1 X73.92 Y22.5; draw line
G1 X73.86 Y19.14; draw line
G1 X71.75999999999999 Y15.059999999999999; draw line
G1 X71.64 Y14.879999999999999; draw line
G1 X72.11999999999999 Y14.58; draw line
G1 X72.24 Y14.1; draw line
G1 X72.11999999999999 Y13.74; draw line
G1 X71.82 Y13.5; draw line
G1 X71.46 Y13.44; draw line
G1 X70.98 Y13.92; draw line
G1 X70.98 Y14.459999999999999; draw line
G1 X71.75999999999999 Y15.059999999999999; draw line
G1 X71.34 Y15.059999999999999; draw line
G1 X70.56 Y14.34; draw line
G1 X69.96 Y14.399999999999999; draw line
G1 X69.53999999999999 Y14.94; draw line
G1 X68.82 Y15.059999999999999; draw line
G1 X68.34 Y14.7; draw line
G1 X68.22 Y13.86; draw line
G1 X68.75999999999999 Y13.32; draw line
G1 X69.36 Y13.32; draw line
G1 X69.3 Y13.5; draw line
G1 X68.94 Y13.44; draw line
G1 X68.46 Y13.92; draw line
G1 X68.46 Y14.459999999999999; draw line
G1 X69.12 Y14.879999999999999; draw line
G1 X69.6 Y14.58; draw line
G1 X69.72 Y14.1; draw line
G1 X69.6 Y13.74; draw line
G1 X69.36 Y13.32; draw line
G1 X70.08 Y13.979999999999999; draw line
G1 X70.61999999999999 Y13.979999999999999; draw line
G1 X71.03999999999999 Y13.44; draw line
G1 X71.82 Y13.26; draw line
G1 X72.3 Y13.62; draw line
G1 X72.48 Y14.1; draw line
G1 X72.17999999999999 Y14.94; draw line
G1 X74.39999999999999 Y19.02; draw line
G1 X83.58 Y18.96; draw line
G1 X84.17999999999999 Y18.36; draw line
G1 X85.32 Y17.939999999999998; draw line
G1 X85.56 Y17.34; draw line
G1 X85.38 Y16.38; draw line
G1 X85.56 Y16.08; draw line
G1 X86.16 Y15.84; draw line
G1 X86.82 Y16.14; draw line
G1 X86.7 Y16.259999999999998; draw line
G1 X86.39999999999999 Y16.02; draw line
G1 X86.03999999999999 Y15.959999999999999; draw line
G1 X85.56 Y16.439999999999998; draw line
G1 X85.56 Y16.98; draw line
G1 X86.22 Y17.4; draw line
G1 X86.7 Y17.099999999999998; draw line
G1 X86.82 Y16.62; draw line
G1 X86.82 Y16.14; draw line
G1 X86.94 Y16.98; draw line
G1 X86.75999999999999 Y17.28; draw line
G1 X85.86 Y17.64; draw line
G1 X85.56 Y18.24; draw line
G1 X85.38 Y18.3; draw line
G1 X85.32 Y18.419999999999998; draw line
G1 X85.2 Y18.24; draw line
G1 X85.56 Y18.24; draw line
G1 X86.16 Y19.259999999999998; draw line
G1 X86.46 Y19.38; draw line
G1 X90.17999999999999 Y19.38; draw line
G1 X91.2 Y18.36; draw line
G1 X91.86 Y18.12; draw line
G1 X95.64 Y18.0; draw line
G1 X100.14 Y16.14; draw line
G1 X102.47999999999999 Y14.879999999999999; draw line
G1 X102.83999999999999 Y14.219999999999999; draw line
G1 X103.56 Y13.92; draw line
G1 X110.28 Y14.04; draw line
G1 X110.82 Y14.399999999999999; draw line
G1 X111.72 Y16.74; draw line
G1 X111.66 Y25.919999999999998; draw line
G1 X111.42 Y26.34; draw line
G1 X110.75999999999999 Y26.64; draw line
G1 X104.28 Y26.58; draw line
G1 X103.74 Y26.22; draw line
G1 X103.56 Y25.8; draw line
G1 X103.56 Y25.2; draw line
G1 X103.8 Y24.779999999999998; draw line
G1 X104.52 Y24.48; draw line
G1 X109.5 Y24.36; draw line
G1 X109.44 Y16.8; draw line
G1 X109.61999999999999 Y16.74; draw line
G1 X109.8 Y16.68; draw line
G1 X109.25999999999999 Y15.78; draw line
G1 X108.89999999999999 Y15.66; draw line
G1 X105.83999999999999 Y15.719999999999999; draw line
G1 X106.08 Y15.0; draw line
G1 X105.83999999999999 Y14.459999999999999; draw line
G1 X110.22 Y14.58; draw line
G1 X110.52 Y14.82; draw line
G1 X111.24 Y16.62; draw line
G1 X111.24 Y25.56; draw line
G1 X111.06 Y26.04; draw line
G1 X110.64 Y26.099999999999998; draw line
G1 X110.75999999999999 Y25.5; draw line
G1 X110.94 Y25.439999999999998; draw line
G1 X110.58 Y24.66; draw line
G1 X110.1 Y24.24; draw line
G1 X110.03999999999999 Y16.68; draw line
G1 X109.56 Y15.78; draw line
G1 X108.83999999999999 Y15.42; draw line
G1 X106.14 Y15.42; draw line
G1 X106.32 Y15.0; draw line
G1 X106.5 Y15.059999999999999; draw line
G1 X110.16 Y15.12; draw line
G1 X110.03999999999999 Y15.36; draw line
G1 X110.33999999999999 Y16.38; draw line
G1 X109.8 Y15.36; draw line
G1 X110.16 Y15.12; draw line
G1 X110.75999999999999 Y16.74; draw line
G1 X110.7 Y24.48; draw line
G1 X110.28 Y24.0; draw line
G1 X110.28 Y16.68; draw line
G1 X109.67999999999999 Y15.6; draw line
G1 X109.32 Y15.299999999999999; draw line
G1 X108.78 Y15.18; draw line
G1 X106.5 Y15.24; draw line
G1 X106.32 Y15.0; draw line
G1 X106.2 Y14.7; draw line
G1 X110.22 Y14.879999999999999; draw line
G1 X111.0 Y16.68; draw line
G1 X110.75999999999999 Y25.5; draw line
G1 X110.46 Y24.84; draw line
G1 X109.92 Y24.419999999999998; draw line
G1 X109.61999999999999 Y16.74; draw line
G1 X109.2 Y16.02; draw line
G1 X108.96 Y15.899999999999999; draw line
G1 X105.24 Y15.899999999999999; draw line
G1 X105.66 Y15.6; draw line
G1 X105.83999999999999 Y15.0; draw line
G1 X105.42 Y14.219999999999999; draw line
G1 X110.22 Y14.28; draw line
G1 X110.7 Y14.7; draw line
G1 X111.47999999999999 Y16.56; draw line
G1 X111.36 Y25.98; draw line
G1 X111.17999999999999 Y26.22; draw line
G1 X110.16 Y26.4; draw line
G1 X110.46 Y26.04; draw line
G1 X110.52 Y25.5; draw line
G1 X110.33999999999999 Y25.02; draw line
G1 X109.92 Y24.72; draw line
G1 X109.5 Y24.66; draw line
G1 X108.96 Y25.14; draw line
G1 X108.83999999999999 Y25.919999999999998; draw line
G1 X109.02 Y26.34; draw line
G1 X107.75999999999999 Y26.279999999999998; draw line
G1 X108.06 Y25.56; draw line
G1 X108.24 Y25.5; draw line
G1 X108.42 Y25.32; draw line
G1 X108.36 Y25.14; draw line
G1 X108.47999999999999 Y25.2; draw line
G1 X108.24 Y25.5; draw line
G1 X108.0 Y24.9; draw line
G1 X108.89999999999999 Y24.84; draw line
G1 X108.6 Y25.8; draw line
G1 X108.6 Y26.099999999999998; draw line
G1 X108.11999999999999 Y25.98; draw line
G1 X108.06 Y25.56; draw line
G1 X107.75999999999999 Y24.96; draw line
G1 X107.39999999999999 Y24.72; draw line
G1 X109.61999999999999 Y24.54; draw line
G1 X109.67999999999999 Y24.18; draw line
G1 X109.44 Y16.8; draw line
G1 X109.02 Y16.14; draw line
G1 X105.0 Y16.2; draw line
G1 X99.72 Y18.72; draw line
G1 X95.75999999999999 Y20.279999999999998; draw line
G1 X92.34 Y20.34; draw line
G1 X91.74 Y21.24; draw line
G1 X91.02 Y21.54; draw line
G1 X85.56 Y21.48; draw line
G1 X84.78 Y21.0; draw line
G1 X82.86 Y22.86; draw line
G1 X82.67999999999999 Y22.8; draw line
G1 X82.56 Y23.279999999999998; draw line
G1 X82.56 Y25.68; draw line
G1 X83.46 Y26.64; draw line
G1 X83.46 Y27.06; draw line
G1 X83.16 Y27.36; draw line
G1 X82.8 Y27.48; draw line
G1 X82.38 Y27.419999999999998; draw line
G1 X82.56 Y26.58; draw line
G1 X82.32 Y26.16; draw line
G1 X81.96 Y25.919999999999998; draw line
G1 X81.53999999999999 Y25.86; draw line
G1 X81.0 Y26.279999999999998; draw line
G1 X80.88 Y27.119999999999997; draw line
G1 X81.0 Y27.419999999999998; draw line
G1 X80.39999999999999 Y27.419999999999998; draw line
G1 X80.03999999999999 Y27.0; draw line
G1 X80.03999999999999 Y26.52; draw line
G1 X80.75999999999999 Y25.74; draw line
G1 X80.88 Y25.38; draw line
G1 X80.94 Y22.2; draw line
G1 X81.36 Y21.48; draw line
G1 X82.98 Y19.8; draw line
G1 X83.16 Y19.919999999999998; draw line
G1 X83.34 Y20.04; draw line
G1 X83.39999999999999 Y19.68; draw line
G1 X83.75999999999999 Y19.68; draw line
G1 X84.36 Y20.46; draw line
G1 X82.44 Y22.32; draw line
G1 X82.08 Y23.46; draw line
G1 X82.08 Y25.5; draw line
G1 X81.3 Y25.439999999999998; draw line
G1 X81.36 Y22.32; draw line
G1 X81.89999999999999 Y21.54; draw line
G1 X83.16 Y19.919999999999998; draw line
G1 X83.22 Y19.439999999999998; draw line
G1 X83.82 Y19.32; draw line
G1 X84.17999999999999 Y20.04; draw line
G1 X85.02 Y20.4; draw line
G1 X85.8 Y19.86; draw line
G1 X85.92 Y19.62; draw line
G1 X86.46 Y19.86; draw line
G1 X86.46 Y20.099999999999998; draw line
G1 X86.52 Y20.34; draw line
G1 X90.78 Y20.16; draw line
G1 X91.02 Y20.46; draw line
G1 X90.6 Y20.58; draw line
G1 X85.8 Y20.4; draw line
G1 X86.1 Y20.22; draw line
G1 X86.46 Y20.099999999999998; draw line
G1 X90.42 Y20.04; draw line
G1 X90.84 Y19.86; draw line
G1 X91.32 Y20.52; draw line
G1 X90.72 Y20.82; draw line
G1 X85.56 Y20.7; draw line
G1 X85.25999999999999 Y20.52; draw line
G1 X86.03999999999999 Y19.919999999999998; draw line
G1 X86.46 Y19.86; draw line
G1 X90.36 Y19.8; draw line
G1 X90.84 Y19.439999999999998; draw line
G1 X91.2 Y20.04; draw line
G1 X91.74 Y20.34; draw line
G1 X91.32 Y20.88; draw line
G1 X90.78 Y21.06; draw line
G1 X85.56 Y20.939999999999998; draw line
G1 X84.6 Y20.58; draw line
G1 X82.56 Y22.56; draw line
G1 X82.32 Y23.46; draw line
G1 X82.32 Y25.86; draw line
G1 X81.48 Y25.619999999999997; draw line
G1 X80.88 Y26.099999999999998; draw line
G1 X80.58 Y27.18; draw line
G1 X80.28 Y27.0; draw line
G1 X80.28 Y26.58; draw line
G1 X80.88 Y25.98; draw line
G1 X81.11999999999999 Y25.2; draw line
G1 X81.11999999999999 Y22.32; draw line
G1 X82.38 Y20.7; draw line
G1 X82.98 Y19.8; draw line
G1 X82.86 Y19.2; draw line
G1 X83.7 Y19.14; draw line
G1 X84.17999999999999 Y18.72; draw line
G1 X84.11999999999999 Y19.56; draw line
G1 X84.3 Y19.86; draw line
G1 X84.96 Y20.16; draw line
G1 X85.61999999999999 Y19.74; draw line
G1 X85.86 Y19.14; draw line
G1 X86.03999999999999 Y19.439999999999998; draw line
G1 X86.46 Y19.62; draw line
G1 X90.3 Y19.56; draw line
G1 X91.2 Y18.72; draw line
G1 X91.08 Y19.5; draw line
G1 X91.32 Y19.86; draw line
G1 X91.97999999999999 Y20.16; draw line
G1 X92.64 Y19.74; draw line
G1 X92.82 Y19.8; draw line
G1 X93.06 Y19.14; draw line
G1 X92.82 Y18.599999999999998; draw line
G1 X95.82 Y18.419999999999998; draw line
G1 X100.74 Y16.38; draw line
G1 X102.78 Y15.18; draw line
G1 X102.96 Y15.299999999999999; draw line
G1 X103.44 Y14.7; draw line
G1 X103.74 Y14.7; draw line
G1 X103.61999999999999 Y15.24; draw line
G1 X103.92 Y15.959999999999999; draw line
G1 X98.03999999999999 Y18.66; draw line
G1 X95.28 Y19.56; draw line
G1 X93.36 Y19.62; draw line
G1 X93.17999999999999 Y19.439999999999998; draw line
G1 X93.3 Y19.14; draw line
G1 X93.47999999999999 Y19.02; draw line
G1 X96.0 Y18.84; draw line
G1 X101.28 Y16.62; draw line
G1 X103.38 Y15.24; draw line
G1 X103.56 Y15.84; draw line
G1 X97.97999999999999 Y18.419999999999998; draw line
G1 X95.16 Y19.32; draw line
G1 X93.47999999999999 Y19.38; draw line
G1 X93.3 Y19.14; draw line
G1 X93.17999999999999 Y18.779999999999998; draw line
G1 X95.88 Y18.66; draw line
G1 X101.03999999999999 Y16.5; draw line
G1 X102.78 Y15.18; draw line
G1 X103.25999999999999 Y14.52; draw line
G1 X104.03999999999999 Y14.459999999999999; draw line
G1 X103.86 Y15.36; draw line
G1 X104.28 Y16.02; draw line
G1 X98.39999999999999 Y18.779999999999998; draw line
G1 X95.46 Y19.8; draw line
G1 X92.64 Y19.74; draw line
G1 X92.82 Y19.14; draw line
G1 X92.34 Y18.36; draw line
G1 X95.7 Y18.24; draw line
G1 X100.56 Y16.2; draw line
G1 X102.66 Y15.0; draw line
G1 X103.08 Y14.34; draw line
G1 X103.61999999999999 Y14.16; draw line
G1 X104.64 Y14.16; draw line
G1 X104.22 Y14.58; draw line
G1 X104.1 Y15.36; draw line
G1 X104.75999999999999 Y16.08; draw line
G1 X97.74 Y19.259999999999998; draw line
G1 X95.58 Y20.04; draw line
G1 X92.39999999999999 Y20.099999999999998; draw line
G1 X91.8 Y20.58; draw line
G1 X91.56 Y21.06; draw line
G1 X90.84 Y21.3; draw line
G1 X85.56 Y21.18; draw line
G1 X84.72 Y20.759999999999998; draw line
G1 X82.86 Y22.86; draw line
G1 X82.8 Y25.68; draw line
G1 X83.58 Y26.279999999999998; draw line
G1 X83.7 Y27.119999999999997; draw line
G1 X83.1 Y27.66; draw line
G1 X80.34 Y27.66; draw line
G1 X79.8 Y27.06; draw line
G1 X79.86 Y26.4; draw line
G1 X80.52 Y25.8; draw line
G1 X80.64 Y25.5; draw line
G1 X80.64 Y22.259999999999998; draw line
G1 X81.0 Y21.54; draw line
G1 X82.8 Y19.68; draw line
G1 X82.74 Y19.439999999999998; draw line
G1 X74.39999999999999 Y19.439999999999998; draw line
G1 X74.28 Y19.259999999999998; draw line
G1 X74.1 Y19.439999999999998; draw line
G1 X74.03999999999999 Y18.96; draw line
G1 X74.39999999999999 Y19.439999999999998; draw line
G1 X74.28 Y19.74; draw line
G1 X74.16 Y23.22; draw line
G1 X68.64 Y23.22; draw line
G1 X68.46 Y23.82; draw line
G1 X63.18 Y23.7; draw line
G1 X63.059999999999995 Y22.8; draw line
G1 X62.58 Y22.259999999999998; draw line
G1 X62.46 Y21.48; draw line
G1 X62.879999999999995 Y21.0; draw line
G1 X63.599999999999994 Y20.939999999999998; draw line
G1 X63.54 Y21.119999999999997; draw line
G1 X63.18 Y21.06; draw line
G1 X62.699999999999996 Y21.54; draw line
G1 X62.699999999999996 Y22.08; draw line
G1 X63.36 Y22.5; draw line
G1 X63.839999999999996 Y22.2; draw line
G1 X63.96 Y21.72; draw line
G1 X63.839999999999996 Y21.36; draw line
G1 X63.599999999999994 Y20.939999999999998; draw line
G1 X63.96 Y21.18; draw line
G1 X64.14 Y21.54; draw line
G1 X64.14 Y22.14; draw line
G1 X63.599999999999994 Y22.68; draw line
G1 X63.54 Y23.34; draw line
G1 X63.9 Y23.46; draw line
G1 X68.03999999999999 Y23.46; draw line
G1 X68.22 Y23.52; draw line
G1 X68.39999999999999 Y22.74; draw line
G1 X68.75999999999999 Y22.56; draw line
G1 X68.94 Y22.98; draw line
G1 X68.58 Y22.98; draw line
G1 X68.03999999999999 Y23.46; draw line
G1 X68.1 Y22.74; draw line
G1 X67.67999999999999 Y22.32; draw line
G1 X67.56 Y21.96; draw line
G1 X67.62 Y21.36; draw line
G1 X67.98 Y20.88; draw line
G1 X67.38 Y19.02; draw line
G1 X67.02 Y18.48; draw line
G1 X58.86 Y18.419999999999998; draw line
G1 X58.14 Y18.36; draw line
G1 X57.0 Y19.02; draw line
G1 X56.64 Y19.8; draw line
G1 X55.98 Y19.919999999999998; draw line
G1 X55.44 Y19.68; draw line
G1 X55.26 Y19.02; draw back to polygon start
G1 F50.0; Z feedrate
G1 Z1.0; Z clearance height
G1 F1500.0; XY feedrate
G1 X52.62 Y18.48; move to polygon start
G1 F50.0; Z feedrate
G1 Z0.0; Z drawing height
G1 F1500.0; XY feedrate
G1 X52.919999999999995 Y17.939999999999998; draw line
G1 X53.46 Y17.759999999999998; draw line
G1 X54.0 Y17.88; draw line
G1 X55.019999999999996 Y17.099999999999998; draw line
G1 X58.5 Y15.84; draw line
G1 X58.559999999999995 Y15.479999999999999; draw line
G1 X58.44 Y14.94; draw line
G1 X58.019999999999996 Y14.399999999999999; draw line
G1 X58.08 Y13.74; draw line
G1 X58.32 Y13.44; draw line
G1 X59.099999999999994 Y13.26; draw line
G1 X59.58 Y13.62; draw line
G1 X59.4 Y13.74; draw line
G1 X59.099999999999994 Y13.5; draw line
G1 X58.739999999999995 Y13.44; draw line
G1 X58.26 Y13.92; draw line
G1 X58.26 Y14.459999999999999; draw line
G1 X58.919999999999995 Y14.879999999999999; draw line
G1 X59.4 Y14.58; draw line
G1 X59.519999999999996 Y14.1; draw line
G1 X59.58 Y13.62; draw line
G1 X59.76 Y14.1; draw line
G1 X59.64 Y14.58; draw line
G1 X59.099999999999994 Y15.299999999999999; draw line
G1 X58.919999999999995 Y15.24; draw line
G1 X58.8 Y15.36; draw line
G1 X58.8 Y15.12; draw line
G1 X59.099999999999994 Y15.299999999999999; draw line
G1 X59.099999999999994 Y16.02; draw line
G1 X58.86 Y16.259999999999998; draw line
G1 X54.96 Y17.759999999999998; draw line
G1 X54.419999999999995 Y18.18; draw line
G1 X54.239999999999995 Y18.54; draw line
G1 X54.12 Y18.54; draw line
G1 X54.0 Y18.18; draw line
G1 X53.699999999999996 Y17.939999999999998; draw line
G1 X53.339999999999996 Y17.88; draw line
G1 X52.86 Y18.36; draw line
G1 X52.86 Y18.9; draw line
G1 X53.519999999999996 Y19.32; draw line
G1 X54.0 Y19.02; draw line
G1 X54.239999999999995 Y18.54; draw line
G1 X54.239999999999995 Y18.96; draw line
G1 X54.0 Y19.38; draw line
G1 X53.82 Y19.439999999999998; draw line
G1 X53.94 Y20.16; draw line
G1 X54.36 Y20.88; draw line
G1 X54.059999999999995 Y20.64; draw line
G1 X53.64 Y19.5; draw line
G1 X54.0 Y19.38; draw line
G1 X54.18 Y20.16; draw line
G1 X54.54 Y20.7; draw line
G1 X55.44 Y21.06; draw line
G1 X56.16 Y20.82; draw line
G1 X56.879999999999995 Y21.0; draw line
G1 X59.519999999999996 Y19.62; draw line
G1 X66.0 Y19.74; draw line
G1 X66.42 Y21.06; draw line
G1 X66.72 Y21.48; draw line
G1 X66.66 Y22.2; draw line
G1 X66.3 Y22.56; draw line
G1 X65.94 Y22.68; draw line
G1 X65.94 Y22.5; draw line
G1 X66.42 Y22.2; draw line
G1 X66.53999999999999 Y21.72; draw line
G1 X66.42 Y21.36; draw line
G1 X66.12 Y21.119999999999997; draw line
G1 X65.75999999999999 Y21.06; draw line
G1 X65.28 Y21.54; draw line
G1 X65.28 Y22.08; draw line
G1 X65.94 Y22.68; draw line
G1 X65.52 Y22.619999999999997; draw line
G1 X65.16 Y22.32; draw line
G1 X65.03999999999999 Y21.419999999999998; draw line
G1 X65.46 Y20.939999999999998; draw line
G1 X65.82 Y20.759999999999998; draw line
G1 X65.82 Y20.279999999999998; draw line
G1 X65.34 Y20.04; draw line
G1 X59.58 Y20.099999999999998; draw line
G1 X57.0 Y21.599999999999998; draw line
G1 X56.699999999999996 Y22.259999999999998; draw line
G1 X56.04 Y22.5; draw line
G1 X56.16 Y22.38; draw line
G1 X56.64 Y22.08; draw line
G1 X56.76 Y21.599999999999998; draw line
G1 X56.64 Y21.24; draw line
G1 X56.879999999999995 Y21.3; draw line
G1 X57.839999999999996 Y20.82; draw line
G1 X58.019999999999996 Y20.7; draw line
G1 X58.019999999999996 Y20.64; draw line
G1 X58.44 Y20.52; draw line
G1 X57.839999999999996 Y20.82; draw line
G1 X56.64 Y21.24; draw line
G1 X56.339999999999996 Y21.0; draw line
G1 X55.98 Y20.939999999999998; draw line
G1 X55.5 Y21.419999999999998; draw line
